; generated by PrusaSlicer 2.4.2+win64 on 2022-06-02 at 03:13:41 UTC

; 

; external perimeters extrusion width = 1.12mm
; perimeters extrusion width = 1.12mm
; infill extrusion width = 1.12mm
; solid infill extrusion width = 1.12mm
; top infill extrusion width = 1.00mm
; first layer extrusion width = 1.05mm

M107
M190 S60 ; set bed temperature and wait for it to be reached
M104 S215 ; set temperature
;TYPE:Custom
G28 ; home all axes
G1 Z5 F5000 ; lift nozzle
M109 S215 ; set temperature and wait for it to be reached
G21 ; set units to millimeters
G90 ; use absolute coordinates
M82 ; use absolute distances for extrusion
G92 E0
; Filament gcode
M107
;LAYER_CHANGE
;Z:0.4
;HEIGHT:0.4
G1 Z.4 F600
G1 E-2 F2400
G92 E0
G1 X-173.788 Y-171.128 F3600
G1 E2 F2400
;TYPE:Skirt/Brim
;WIDTH:1.05
G1 F1800
G1 X-175.693 Y-169.338 E2.41916
G1 X-177.64 Y-167.828 E2.81425
G1 X-179.746 Y-166.486 E3.21469
G1 X-182.062 Y-165.299 E3.63195
G1 X-184.327 Y-164.395 E4.02293
G1 X-186.854 Y-163.652 E4.44532
G1 X-189.419 Y-163.162 E4.86394
G1 X-191.778 Y-162.934 E5.24403
G1 X-194.66 Y-162.937 E5.70612
G1 X-219.404 Y-164.506 E9.68161
G1 X-221.549 Y-164.995 E10.03424
G1 X-223.559 Y-165.805 E10.38179
G1 X-225.347 Y-166.874 E10.71578
G1 X-226.914 Y-168.167 E11.04157
G1 X-227.82 Y-169.125 E11.25297
G1 X-228.653 Y-170.199 E11.47092
G1 X-229.401 Y-171.4 E11.69779
G1 X-229.977 Y-172.57 E11.90692
G1 X-230.46 Y-173.849 E12.12607
G1 X-230.841 Y-175.3 E12.36658
G1 X-231.054 Y-176.681 E12.59075
G1 X-231.128 Y-177.985 E12.80005
G1 X-231.127 Y-188.169 E14.43304
G1 X-231.055 Y-189.371 E14.62607
G1 X-230.866 Y-190.644 E14.83249
G1 X-230.339 Y-192.572 E15.15288
G1 X-229.584 Y-194.321 E15.45838
G1 X-228.539 Y-196.025 E15.7789
G1 X-227.29 Y-197.522 E16.09139
G1 X-225.545 Y-199.047 E16.4631
G1 X-223.792 Y-200.14 E16.79429
G1 X-221.788 Y-200.992 E17.14351
G1 X-219.743 Y-201.505 E17.48154
G1 X-218.298 Y-201.674 E17.71473
G1 X-193.212 Y-203.167 E21.74414
G1 X-191.401 Y-203.108 E22.03467
G1 X-189.795 Y-202.952 E22.29351
G1 X-188.206 Y-202.702 E22.55143
G1 X-186.415 Y-202.301 E22.84562
G1 X-184.777 Y-201.821 E23.11937
G1 X-183.149 Y-201.228 E23.39717
G1 X-181.488 Y-200.497 E23.6881
G1 X-179.997 Y-199.721 E23.95768
G1 X-178.375 Y-198.736 E24.26182
G1 X-177.052 Y-197.809 E24.52088
G1 X-175.741 Y-196.767 E24.78953
G1 X-174.336 Y-195.488 E25.09411
G1 X-172.137 Y-193.064 E25.61887
G1 X-171.026 Y-191.577 E25.91648
G1 X-170.11 Y-190.167 E26.18609
G1 X-169.475 Y-189.035 E26.39421
G1 X-168.95 Y-187.862 E26.60023
G1 X-168.554 Y-186.688 E26.79889
G1 X-168.27 Y-185.494 E26.99569
G1 X-168.093 Y-184.23 E27.20038
G1 X-168.039 Y-182.932 E27.40868
G1 X-168.114 Y-181.619 E27.61947
G1 X-168.294 Y-180.448 E27.80942
G1 X-168.58 Y-179.287 E28.00117
G1 X-168.943 Y-178.222 E28.18164
G1 X-169.422 Y-177.133 E28.37225
G1 X-169.987 Y-176.105 E28.56044
G1 X-171.712 Y-173.545 E29.05543
G1 X-173.69 Y-171.242 E29.54215
G1 E27.54215 F2400
G92 E0
G1 X-179.175 Y-176.534 F3600
G1 E2 F2400
G1 F1800
G1 X-179.562 Y-176.133 E2.08931
G1 X-180.198 Y-175.528 E2.23006
G1 X-180.938 Y-174.893 E2.38639
G1 X-181.704 Y-174.298 E2.54199
G1 X-182.388 Y-173.817 E2.67603
G1 X-183.103 Y-173.359 E2.81208
G1 X-183.958 Y-172.867 E2.97027
G1 X-184.985 Y-172.348 E3.15482
G1 X-186.164 Y-171.843 E3.3604
G1 X-187.399 Y-171.41 E3.57036
G1 X-188.656 Y-171.062 E3.77948
G1 X-189.906 Y-170.804 E3.98404
G1 X-191.049 Y-170.642 E4.1692
G1 X-192.207 Y-170.547 E4.35545
G1 X-193.548 Y-170.525 E4.5705
G1 X-194.369 Y-170.558 E4.70232
G1 X-218.135 Y-172.035 E8.52031
G1 X-219.25 Y-172.264 E8.70288
G1 X-219.976 Y-172.543 E8.82756
G1 X-220.696 Y-172.934 E8.95878
G1 X-221.26 Y-173.338 E9.0701
G1 X-221.796 Y-173.827 E9.18646
G1 X-222.544 Y-174.786 E9.38153
G1 X-222.959 Y-175.553 E9.52128
G1 X-223.245 Y-176.327 E9.65358
G1 X-223.424 Y-177.126 E9.78491
G1 X-223.498 Y-177.904 E9.91011
G1 X-223.473 Y-188.544 E11.61626
G1 X-223.261 Y-189.689 E11.80293
G1 X-223.021 Y-190.367 E11.91812
G1 X-222.678 Y-191.062 E12.04256
G1 X-222.203 Y-191.765 E12.17852
G1 X-221.673 Y-192.358 E12.30604
G1 X-220.881 Y-193.007 E12.47031
G1 X-220.174 Y-193.425 E12.60195
G1 X-219.305 Y-193.782 E12.75253
G1 X-217.892 Y-194.059 E12.98335
G1 X-194.322 Y-195.509 E16.76972
G1 X-193.11 Y-195.541 E16.96426
G1 X-191.871 Y-195.497 E17.16299
G1 X-190.663 Y-195.376 E17.35771
G1 X-189.548 Y-195.195 E17.53876
G1 X-188.144 Y-194.871 E17.76973
G1 X-186.898 Y-194.489 E17.97873
G1 X-185.703 Y-194.034 E18.18373
G1 X-184.561 Y-193.51 E18.38524
G1 X-183.375 Y-192.868 E18.60147
G1 X-182.304 Y-192.19 E18.80478
G1 X-181.281 Y-191.445 E19.00765
G1 X-180.297 Y-190.624 E19.21315
G1 X-179.396 Y-189.765 E19.41271
G1 X-178.522 Y-188.816 E19.61955
G1 X-177.729 Y-187.834 E19.82194
G1 X-177.003 Y-186.802 E20.02428
G1 X-176.35 Y-185.732 E20.22518
G1 X-175.854 Y-184.472 E20.44237
G1 X-175.669 Y-183.248 E20.6408
G1 X-175.742 Y-182.105 E20.82457
G1 X-175.894 Y-181.455 E20.9315
G1 X-176.227 Y-180.579 E21.08181
G1 X-176.775 Y-179.619 E21.25906
G1 X-177.341 Y-178.763 E21.42356
G1 X-177.89 Y-178.019 E21.57187
G1 X-178.411 Y-177.376 E21.70452
G1 X-179.071 Y-176.641 E21.86284
G1 X-179.765 Y-177.311 F3600
G1 F1800
G1 X-180.248 Y-176.81 E21.97445
G1 X-180.853 Y-176.237 E22.10811
G1 X-181.557 Y-175.632 E22.25685
G1 X-182.269 Y-175.08 E22.40132
G1 X-182.934 Y-174.611 E22.53182
G1 X-183.612 Y-174.178 E22.6609
G1 X-184.405 Y-173.721 E22.80757
G1 X-185.379 Y-173.228 E22.98259
G1 X-186.528 Y-172.736 E23.18299
G1 X-187.702 Y-172.326 E23.38247
G1 X-188.868 Y-172.003 E23.5764
G1 X-190.056 Y-171.756 E23.771
G1 X-191.17 Y-171.598 E23.95131
G1 X-192.269 Y-171.51 E24.12812
G1 X-193.523 Y-171.489 E24.32925
G1 X-194.315 Y-171.521 E24.45634
G1 X-217.979 Y-172.986 E28.25797
G1 X-218.948 Y-173.18 E28.41634
G1 X-219.55 Y-173.409 E28.51962
G1 X-220.16 Y-173.736 E28.63058
G1 X-220.673 Y-174.104 E28.73187
G1 X-221.112 Y-174.507 E28.82741
G1 X-221.754 Y-175.34 E28.99601
G1 X-222.09 Y-175.973 E29.11094
G1 X-222.327 Y-176.624 E29.22201
G1 X-222.476 Y-177.301 E29.33314
G1 X-222.535 Y-177.967 E29.44027
G1 X-222.516 Y-188.416 E31.11582
G1 X-222.337 Y-189.41 E31.27764
G1 X-222.141 Y-189.972 E31.37312
G1 X-221.857 Y-190.556 E31.47729
G1 X-221.461 Y-191.148 E31.59153
G1 X-220.981 Y-191.685 E31.70701
G1 X-220.305 Y-192.233 E31.84655
G1 X-219.721 Y-192.574 E31.95491
G1 X-218.988 Y-192.87 E32.08159
G1 X-217.803 Y-193.099 E32.27517
G1 X-194.271 Y-194.546 E36.05534
G1 X-193.128 Y-194.577 E36.23874
G1 X-191.95 Y-194.536 E36.42768
G1 X-190.801 Y-194.422 E36.61282
G1 X-189.748 Y-194.251 E36.78387
G1 X-188.409 Y-193.943 E37.00415
G1 X-187.225 Y-193.582 E37.20274
G1 X-186.089 Y-193.151 E37.39748
G1 X-185.005 Y-192.655 E37.58869
G1 X-183.876 Y-192.044 E37.79447
G1 X-182.857 Y-191.4 E37.98768
G1 X-181.886 Y-190.694 E38.1803
G1 X-180.95 Y-189.914 E38.37569
G1 X-180.093 Y-189.1 E38.56512
G1 X-179.262 Y-188.198 E38.76172
G1 X-178.49 Y-187.241 E38.959
G1 X-177.818 Y-186.287 E39.14612
G1 X-177.194 Y-185.264 E39.33807
G1 X-176.797 Y-184.265 E39.51057
G1 X-176.634 Y-183.249 E39.67549
G1 X-176.691 Y-182.277 E39.83159
G1 X-176.808 Y-181.765 E39.91587
G1 X-177.114 Y-180.959 E40.05414
G1 X-177.601 Y-180.115 E40.21031
G1 X-178.137 Y-179.306 E40.36589
G1 X-178.659 Y-178.601 E40.50654
G1 X-179.141 Y-178.007 E40.62921
G1 X-179.66 Y-177.419 E40.75503
G1 X-180.37 Y-178.071 F3600
G1 F1800
G1 X-180.934 Y-177.488 E40.88512
G1 X-181.507 Y-176.945 E41.0117
G1 X-182.175 Y-176.372 E41.15285
G1 X-182.85 Y-175.849 E41.28969
G1 X-183.48 Y-175.406 E41.41318
G1 X-184.103 Y-175.008 E41.53182
G1 X-184.875 Y-174.563 E41.67458
G1 X-185.8 Y-174.096 E41.84082
G1 X-186.862 Y-173.641 E42.02611
G1 X-187.976 Y-173.25 E42.21533
G1 X-189.08 Y-172.943 E42.39912
G1 X-190.208 Y-172.708 E42.58375
G1 X-191.262 Y-172.558 E42.75451
G1 X-192.331 Y-172.472 E42.92644
G1 X-193.498 Y-172.453 E43.11365
G1 X-194.261 Y-172.483 E43.23604
G1 X-217.828 Y-173.939 E47.02203
G1 X-218.651 Y-174.098 E47.15641
G1 X-219.129 Y-174.277 E47.23822
G1 X-219.63 Y-174.542 E47.32911
G1 X-220.045 Y-174.836 E47.41056
G1 X-220.427 Y-175.187 E47.49384
G1 X-220.959 Y-175.888 E47.63488
G1 X-221.218 Y-176.386 E47.72491
G1 X-221.407 Y-176.916 E47.81512
G1 X-221.526 Y-177.47 E47.90611
G1 X-221.573 Y-178.025 E47.99541
G1 X-221.559 Y-188.293 E49.64175
G1 X-221.413 Y-189.131 E49.77809
G1 X-221.241 Y-189.626 E49.86208
G1 X-221.008 Y-190.098 E49.94649
G1 X-220.683 Y-190.578 E50.03945
G1 X-220.294 Y-191.008 E50.13239
G1 X-219.734 Y-191.455 E50.24727
G1 X-219.274 Y-191.719 E50.33232
G1 X-218.677 Y-191.957 E50.43544
G1 X-217.715 Y-192.138 E50.59243
G1 X-194.22 Y-193.583 E54.36661
G1 X-193.146 Y-193.613 E54.53897
G1 X-192.029 Y-193.574 E54.71814
G1 X-190.939 Y-193.467 E54.89371
G1 X-189.948 Y-193.308 E55.05477
G1 X-188.674 Y-193.016 E55.2642
G1 X-187.522 Y-192.664 E55.45744
G1 X-186.475 Y-192.267 E55.63692
G1 X-185.448 Y-191.798 E55.8179
G1 X-184.376 Y-191.22 E56.01324
G1 X-183.411 Y-190.61 E56.19634
G1 X-182.49 Y-189.943 E56.3786
G1 X-181.579 Y-189.183 E56.56876
G1 X-180.77 Y-188.412 E56.74805
G1 X-180.002 Y-187.58 E56.92962
G1 X-179.268 Y-186.672 E57.11684
G1 X-178.632 Y-185.771 E57.29365
G1 X-178.038 Y-184.796 E57.47675
G1 X-177.737 Y-184.049 E57.60584
G1 X-177.6 Y-183.242 E57.73703
G1 X-177.642 Y-182.442 E57.86546
G1 X-177.725 Y-182.065 E57.92734
G1 X-177.97 Y-181.403 E58.04057
G1 X-178.414 Y-180.635 E58.18286
G1 X-178.92 Y-179.869 E58.33004
G1 X-179.415 Y-179.2 E58.4635
G1 X-179.883 Y-178.622 E58.58274
G1 X-180.271 Y-178.184 E58.67654
G1 X-180.992 Y-178.823 F3600
G1 F1800
G1 X-181.619 Y-178.166 E58.8221
G1 X-182.161 Y-177.654 E58.94158
G1 X-182.793 Y-177.112 E59.07513
G1 X-183.431 Y-176.619 E59.20439
G1 X-184.009 Y-176.213 E59.31763
G1 X-184.595 Y-175.837 E59.42919
G1 X-185.344 Y-175.405 E59.56795
G1 X-186.22 Y-174.963 E59.72529
G1 X-187.226 Y-174.534 E59.90067
G1 X-188.25 Y-174.175 E60.07466
G1 X-189.294 Y-173.884 E60.24836
G1 X-190.36 Y-173.661 E60.42303
G1 X-191.355 Y-173.518 E60.58415
G1 X-192.393 Y-173.434 E60.75115
G1 X-193.474 Y-173.417 E60.92445
G1 X-194.207 Y-173.446 E61.04215
G1 X-217.683 Y-174.893 E64.81348
G1 X-218.355 Y-175.017 E64.92303
G1 X-218.76 Y-175.168 E64.99224
G1 X-219.143 Y-175.374 E65.06198
G1 X-219.454 Y-175.599 E65.12356
G1 X-219.736 Y-175.861 E65.18532
G1 X-220.159 Y-176.427 E65.29862
G1 X-220.342 Y-176.788 E65.36357
G1 X-220.486 Y-177.2 E65.4335
G1 X-220.576 Y-177.633 E65.50438
G1 X-220.61 Y-178.08 E65.57619
G1 X-220.602 Y-188.175 E67.19492
G1 X-220.487 Y-188.86 E67.30629
G1 X-220.362 Y-189.228 E67.36866
G1 X-220.159 Y-189.638 E67.4419
G1 X-219.91 Y-190.001 E67.51246
G1 X-219.61 Y-190.327 E67.58347
G1 X-219.216 Y-190.641 E67.66431
G1 X-218.882 Y-190.837 E67.7265
G1 X-218.365 Y-191.043 E67.81561
G1 X-217.628 Y-191.178 E67.9358
G1 X-194.169 Y-192.62 E71.7043
G1 X-193.164 Y-192.648 E71.86559
G1 X-192.077 Y-192.611 E72.03986
G1 X-191.077 Y-192.513 E72.20107
G1 X-190.146 Y-192.364 E72.35221
G1 X-188.939 Y-192.089 E72.55068
G1 X-187.819 Y-191.747 E72.73854
G1 X-186.86 Y-191.383 E72.90287
G1 X-185.891 Y-190.942 E73.07365
G1 X-184.877 Y-190.395 E73.2584
G1 X-183.938 Y-189.803 E73.43632
G1 X-183.095 Y-189.192 E73.60326
G1 X-182.209 Y-188.453 E73.78818
G1 X-181.447 Y-187.726 E73.95718
G1 X-180.722 Y-186.939 E74.12872
G1 X-180.029 Y-186.079 E74.30585
G1 X-179.43 Y-185.229 E74.4725
G1 X-178.881 Y-184.327 E74.64189
G1 X-178.675 Y-183.821 E74.72936
G1 X-178.566 Y-183.226 E74.82644
G1 X-178.594 Y-182.598 E74.92729
G1 X-178.645 Y-182.356 E74.9669
G1 X-178.828 Y-181.846 E75.05382
G1 X-179.242 Y-181.129 E75.18647
G1 X-179.703 Y-180.432 E75.3206
G1 X-180.171 Y-179.798 E75.44688
G1 X-180.893 Y-178.935 E75.62729
G1 X-181.614 Y-179.575 F3600
G1 F1800
G1 X-182.304 Y-178.844 E75.78839
G1 X-182.798 Y-178.378 E75.89722
G1 X-183.393 Y-177.867 E76.02307
G1 X-183.995 Y-177.401 E76.14513
G1 X-184.537 Y-177.019 E76.25147
G1 X-185.105 Y-176.656 E76.35952
G1 X-185.791 Y-176.26 E76.48646
G1 X-186.641 Y-175.831 E76.63912
G1 X-187.589 Y-175.427 E76.80442
G1 X-188.553 Y-175.09 E76.96813
G1 X-189.536 Y-174.817 E77.13175
G1 X-190.541 Y-174.608 E77.29634
G1 X-191.475 Y-174.475 E77.44765
G1 X-192.454 Y-174.396 E77.60508
G1 X-193.449 Y-174.381 E77.76462
G1 X-194.153 Y-174.409 E77.87763
G1 X-217.546 Y-175.847 E81.63549
G1 X-218.07 Y-175.939 E81.72082
G1 X-218.344 Y-176.038 E81.76746
G1 X-218.608 Y-176.178 E81.81546
G1 X-218.863 Y-176.361 E81.86571
G1 X-219.038 Y-176.527 E81.90447
G1 X-219.352 Y-176.956 E81.98969
G1 X-219.46 Y-177.178 E82.02922
G1 X-219.562 Y-177.477 E82.07996
G1 X-219.623 Y-177.787 E82.13061
G1 X-219.647 Y-178.128 E82.18534
G1 X-219.637 Y-188.134 E83.78982
G1 X-219.562 Y-188.586 E83.8633
G1 X-219.46 Y-188.884 E83.91367
G1 X-219.317 Y-189.169 E83.96481
G1 X-219.143 Y-189.415 E84.01315
G1 X-218.933 Y-189.641 E84.06264
G1 X-218.69 Y-189.834 E84.11239
G1 X-218.485 Y-189.957 E84.15077
G1 X-218.057 Y-190.128 E84.22465
G1 X-217.544 Y-190.217 E84.30804
G1 X-194.118 Y-191.658 E88.07137
G1 X-193.181 Y-191.684 E88.22159
G1 X-192.126 Y-191.648 E88.39092
G1 X-191.213 Y-191.558 E88.5379
G1 X-190.343 Y-191.42 E88.67916
G1 X-189.204 Y-191.162 E88.86655
G1 X-188.116 Y-190.83 E89.0489
G1 X-187.218 Y-190.488 E89.20297
G1 X-186.333 Y-190.085 E89.35884
G1 X-185.377 Y-189.571 E89.53296
G1 X-184.466 Y-188.996 E89.70558
G1 X-183.675 Y-188.422 E89.86228
G1 X-182.84 Y-187.724 E90.03676
G1 X-182.124 Y-187.04 E90.19558
G1 X-181.462 Y-186.321 E90.35233
G1 X-180.807 Y-185.51 E90.51946
G1 X-180.245 Y-184.714 E90.67568
G1 X-179.728 Y-183.863 E90.83537
G1 X-179.592 Y-183.52 E90.89445
G1 X-179.526 Y-183.128 E90.95822
G1 X-179.563 Y-182.652 E91.03483
G1 X-179.719 Y-182.217 E91.10895
G1 X-180.051 Y-181.653 E91.2139
G1 X-180.5 Y-180.974 E91.34432
G1 X-180.927 Y-180.397 E91.45948
G1 X-181.515 Y-179.687 E91.60726
G1 E89.60726 F2400
G92 E0
G1 X-200.591 Y-183.72 F3600
G1 E2 F2400
;TYPE:External perimeter
G1 F1800
G1 X-200.591 Y-184.461 E2.11884
G1 X-199.87 Y-184.421 E2.23475
G1 X-199.644 Y-184.377 E2.27159
G1 X-199.564 Y-184.346 E2.28534
G1 X-199.456 Y-184.264 E2.30713
G1 X-199.31 Y-184.029 E2.35141
G1 X-199.236 Y-183.82 E2.387
G1 X-199.167 Y-183.441 E2.44882
G1 X-199.153 Y-182.943 E2.52859
G1 X-199.183 Y-182.616 E2.58137
G1 X-199.271 Y-182.248 E2.64196
G1 X-199.349 Y-182.07 E2.67308
G1 X-199.474 Y-181.896 E2.70747
G1 X-199.595 Y-181.802 E2.73202
G1 X-199.751 Y-181.739 E2.75907
G1 X-200.101 Y-181.686 E2.81577
G1 X-200.599 Y-181.671 E2.89565
G1 X-200.591 Y-183.57 E3.20004
G1 X-199.903 Y-183.643 F3600
;TYPE:Gap fill
;WIDTH:0.497571
G1 F1800
G1 X-199.921 Y-183.748 E3.20733
G1 X-199.903 Y-183.643 F3600
;WIDTH:0.546846
G1 F1800
G1 X-199.878 Y-183.367 E3.2286
;WIDTH:0.557872
G1 X-199.872 Y-182.966 E3.2601
;WIDTH:0.557873
G1 X-199.883 Y-182.731 E3.27856
;WIDTH:0.536448
G1 X-199.899 Y-182.597 E3.28866
;WIDTH:0.50462
G1 X-199.914 Y-182.463 E3.29805
;WIDTH:0.472791
G1 X-199.928 Y-182.399 E3.30223
;WIDTH:0.446297
G1 X-199.937 Y-182.372 E3.30399
;WIDTH:0.428295
G1 X-199.891 Y-182.296 E3.30902
;WIDTH:0.385027
G1 X-199.845 Y-182.221 E3.31342
G1 E1.31342 F2400
G92 E0
G1 X-185.356 Y-177.69 F3600
G1 E2 F2400
;TYPE:External perimeter
;WIDTH:1.05
G1 F1800
G1 X-186.258 Y-177.152 E2.16838
G1 X-187.079 Y-176.738 E2.31584
G1 X-187.967 Y-176.361 E2.47049
G1 X-188.868 Y-176.047 E2.62347
G1 X-189.788 Y-175.792 E2.77655
G1 X-190.729 Y-175.597 E2.93062
G1 X-191.6 Y-175.474 E3.07177
G1 X-192.487 Y-175.403 E3.21447
G1 X-193.424 Y-175.388 E3.36473
G1 X-194.097 Y-175.414 E3.47272
G1 X-217.458 Y-176.851 E7.22548
G1 X-217.785 Y-176.905 E7.27853
G1 X-218.067 Y-177.027 E7.32783
G1 X-218.311 Y-177.225 E7.37819
G1 X-218.467 Y-177.439 E7.42056
G1 X-218.537 Y-177.583 E7.4464
G1 X-218.627 Y-177.937 E7.50484
G1 X-218.638 Y-182.147 E8.17986
G1 X-218.501 Y-181.531 E8.28094
G1 X-218.293 Y-181.019 E8.36955
G1 X-218.079 Y-180.664 E8.43612
G1 X-217.906 Y-180.443 E8.4811
G1 X-217.714 Y-180.239 E8.52595
G1 X-217.398 Y-179.977 E8.5918
G1 X-216.943 Y-179.716 E8.67594
G1 X-216.672 Y-179.608 E8.72274
G1 X-216.365 Y-179.524 E8.77368
G1 X-216.071 Y-179.474 E8.82152
G1 X-215.613 Y-179.45 E8.89503
G1 X-215.182 Y-179.478 E8.96434
G1 X-214.798 Y-179.553 E9.02714
G1 X-214.448 Y-179.678 E9.0867
G1 X-214.219 Y-179.798 E9.12814
