; generated by PrusaSlicer 2.4.2+win64 on 2022-09-25 at 21:32:48 UTC

; 

; external perimeters extrusion width = 1.12mm
; perimeters extrusion width = 1.12mm
; infill extrusion width = 1.12mm
; solid infill extrusion width = 1.12mm
; top infill extrusion width = 1.00mm
; first layer extrusion width = 1.05mm

; external perimeters extrusion width = 1.12mm
; perimeters extrusion width = 1.12mm
; infill extrusion width = 1.12mm
; solid infill extrusion width = 1.12mm
; top infill extrusion width = 1.00mm
; first layer extrusion width = 1.05mm

; external perimeters extrusion width = 1.12mm
; perimeters extrusion width = 1.12mm
; infill extrusion width = 1.12mm
; solid infill extrusion width = 1.12mm
; top infill extrusion width = 1.00mm
; first layer extrusion width = 1.05mm

; external perimeters extrusion width = 1.12mm
; perimeters extrusion width = 1.12mm
; infill extrusion width = 1.12mm
; solid infill extrusion width = 1.12mm
; top infill extrusion width = 1.00mm
; first layer extrusion width = 1.05mm

; external perimeters extrusion width = 1.12mm
; perimeters extrusion width = 1.12mm
; infill extrusion width = 1.12mm
; solid infill extrusion width = 1.12mm
; top infill extrusion width = 1.00mm
; first layer extrusion width = 1.05mm

; external perimeters extrusion width = 1.12mm
; perimeters extrusion width = 1.12mm
; infill extrusion width = 1.12mm
; solid infill extrusion width = 1.12mm
; top infill extrusion width = 1.00mm
; first layer extrusion width = 1.05mm

; external perimeters extrusion width = 1.12mm
; perimeters extrusion width = 1.12mm
; infill extrusion width = 1.12mm
; solid infill extrusion width = 1.12mm
; top infill extrusion width = 1.00mm
; first layer extrusion width = 1.05mm

; external perimeters extrusion width = 1.12mm
; perimeters extrusion width = 1.12mm
; infill extrusion width = 1.12mm
; solid infill extrusion width = 1.12mm
; top infill extrusion width = 1.00mm
; first layer extrusion width = 1.05mm

; external perimeters extrusion width = 1.12mm
; perimeters extrusion width = 1.12mm
; infill extrusion width = 1.12mm
; solid infill extrusion width = 1.12mm
; top infill extrusion width = 1.00mm
; first layer extrusion width = 1.05mm

M107
M190 S60 ; set bed temperature and wait for it to be reached
M104 S215 ; set temperature
;TYPE:Custom
G28 ; home all axes
G1 Z5 F5000 ; lift nozzle
M109 S215 ; set temperature and wait for it to be reached
G21 ; set units to millimeters
G90 ; use absolute coordinates
M82 ; use absolute distances for extrusion
G92 E0
; Filament gcode
M107
;LAYER_CHANGE
;Z:0.4
;HEIGHT:0.4
G1 Z.4 F600
G1 E-3 F2400
G92 E0
G1 X-123.624 Y-114.46 F4800
G1 E3 F2400
;TYPE:Skirt/Brim
;WIDTH:1.05
G1 F1800
G1 X-125.389 Y-112.905 E3.3771
G1 X-127.57 Y-112.026 E3.7542
G1 X-129.045 Y-111.868 E3.99209
G1 X-257.445 Y-111.868 E24.57978
G1 X-259.763 Y-112.265 E24.95688
G1 X-261.817 Y-113.411 E25.33398
G1 X-263.372 Y-115.175 E25.71108
G1 X-264.251 Y-117.357 E26.08818
G1 X-264.409 Y-118.832 E26.32607
G1 X-264.409 Y-247.232 E46.91376
G1 X-264.012 Y-249.55 E47.29086
G1 X-262.866 Y-251.604 E47.66796
G1 X-261.102 Y-253.159 E48.04506
G1 X-258.92 Y-254.038 E48.42217
G1 X-257.445 Y-254.196 E48.66006
G1 X-129.045 Y-254.196 E69.24774
G1 X-126.727 Y-253.799 E69.62485
G1 X-124.673 Y-252.653 E70.00195
G1 X-123.118 Y-250.889 E70.37905
G1 X-122.239 Y-248.707 E70.75615
G1 X-122.081 Y-247.232 E70.99404
G1 X-122.081 Y-118.832 E91.58173
G1 X-122.478 Y-116.514 E91.95883
G1 X-123.551 Y-114.591 E92.31188
G1 E89.31188 F2400
G92 E0
G1 X-219.17 Y-208.957 F4800
G1 E3 F2400
;TYPE:External perimeter
G1 F1800
G1 X-256.92 Y-208.957 E9.05284
G1 X-256.92 Y-246.707 E15.10569
G1 X-219.17 Y-246.707 E21.15853
G1 X-219.17 Y-209.107 E27.18733
G1 E24.18733 F2400
G92 E0
G1 X-212.12 Y-209.107 F4800
G1 E3 F2400
G1 F1800
G1 X-212.12 Y-246.707 E9.02879
G1 X-174.37 Y-246.707 E15.08164
G1 X-174.37 Y-208.957 E21.13448
G1 X-212.12 Y-208.957 E27.18733
G1 E24.18733 F2400
G92 E0
G1 X-212.12 Y-201.907 F4800
G1 E3 F2400
G1 F1800
G1 X-174.37 Y-201.907 E9.05284
G1 X-174.37 Y-164.157 E15.10569
G1 X-212.12 Y-164.157 E21.15853
G1 X-212.12 Y-201.757 E27.18733
G1 E24.18733 F2400
G92 E0
G1 X-219.17 Y-201.757 F4800
G1 E3 F2400
G1 F1800
G1 X-219.17 Y-164.157 E9.02879
G1 X-256.92 Y-164.157 E15.08164
G1 X-256.92 Y-201.907 E21.13448
G1 X-219.17 Y-201.907 E27.18733
G1 E24.18733 F2400
G92 E0
G1 X-219.17 Y-157.107 F4800
G1 E3 F2400
G1 F1800
G1 X-219.17 Y-119.357 E9.05284
G1 X-256.92 Y-119.357 E15.10569
G1 X-256.92 Y-157.107 E21.15853
G1 X-219.32 Y-157.107 E27.18733
G1 E24.18733 F2400
G92 E0
G1 X-212.12 Y-157.107 F4800
G1 E3 F2400
G1 F1800
G1 X-174.37 Y-157.107 E9.05284
G1 X-174.37 Y-119.357 E15.10569
G1 X-212.12 Y-119.357 E21.15853
G1 X-212.12 Y-156.957 E27.18733
G1 E24.18733 F2400
G92 E0
G1 X-167.32 Y-156.957 F4800
G1 E3 F2400
G1 F1800
G1 X-167.32 Y-157.107 E3.02405
G1 X-129.57 Y-157.107 E9.0769
G1 X-129.57 Y-119.357 E15.12974
G1 X-167.32 Y-119.357 E21.18258
G1 X-167.32 Y-156.807 E27.18733
G1 E24.18733 F2400
G92 E0
G1 X-167.32 Y-164.157 F4800
G1 E3 F2400
G1 F1800
G1 X-167.32 Y-201.907 E9.05284
G1 X-129.57 Y-201.907 E15.10569
G1 X-129.57 Y-164.157 E21.15853
G1 X-167.17 Y-164.157 E27.18733
G1 E24.18733 F2400
G92 E0
G1 X-167.17 Y-208.957 F4800
G1 E3 F2400
G1 F1800
G1 X-167.32 Y-208.957 E3.02405
G1 X-167.32 Y-246.707 E9.0769
G1 X-129.57 Y-246.707 E15.12974
G1 X-129.57 Y-208.957 E21.18258
G1 X-167.02 Y-208.957 E27.18733
;LAYER_CHANGE
;Z:0.8
;HEIGHT:0.4
G1 Z.8 F600
G1 E24.18733 F2400
G92 E0
G1 X-219.205 Y-208.992 F4800
G1 E3 F2400
;WIDTH:1.12
G1 F1800
G1 X-256.885 Y-208.992 E9.48026
G1 X-256.885 Y-246.672 E15.96051
G1 X-219.205 Y-246.672 E22.44077
G1 X-219.205 Y-209.142 E28.89522
G1 E25.89522 F2400
G92 E0
G1 X-212.085 Y-209.142 F4800
G1 E3 F2400
G1 F1800
G1 X-212.085 Y-246.672 E9.45446
G1 X-174.405 Y-246.672 E15.93471
G1 X-174.405 Y-208.992 E22.41497
G1 X-212.085 Y-208.992 E28.89522
G1 E25.89522 F2400
G92 E0
G1 X-212.085 Y-201.872 F4800
G1 E3 F2400
G1 F1800
G1 X-174.405 Y-201.872 E9.48026
G1 X-174.405 Y-164.192 E15.96051
G1 X-212.085 Y-164.192 E22.44077
G1 X-212.085 Y-201.722 E28.89522
G1 E25.89522 F2400
G92 E0
G1 X-219.205 Y-201.722 F4800
G1 E3 F2400
G1 F1800
G1 X-219.205 Y-164.192 E9.45446
G1 X-256.885 Y-164.192 E15.93471
G1 X-256.885 Y-201.872 E22.41497
G1 X-219.205 Y-201.872 E28.89522
G1 E25.89522 F2400
G92 E0
G1 X-219.205 Y-157.072 F4800
G1 E3 F2400
G1 F1800
G1 X-219.205 Y-119.392 E9.48026
G1 X-256.885 Y-119.392 E15.96051
G1 X-256.885 Y-157.072 E22.44077
G1 X-219.355 Y-157.072 E28.89522
G1 E25.89522 F2400
G92 E0
G1 X-212.085 Y-157.072 F4800
G1 E3 F2400
G1 F1800
G1 X-174.405 Y-157.072 E9.48026
G1 X-174.405 Y-119.392 E15.96051
G1 X-212.085 Y-119.392 E22.44077
G1 X-212.085 Y-156.922 E28.89522
G1 E25.89522 F2400
G92 E0
G1 X-167.285 Y-156.922 F4800
G1 E3 F2400
G1 F1800
G1 X-167.285 Y-157.072 E3.0258
G1 X-129.605 Y-157.072 E9.50605
G1 X-129.605 Y-119.392 E15.98631
G1 X-167.285 Y-119.392 E22.46656
G1 X-167.285 Y-156.772 E28.89522
G1 E25.89522 F2400
G92 E0
G1 X-167.285 Y-164.192 F4800
G1 E3 F2400
G1 F1800
G1 X-167.285 Y-201.872 E9.48026
G1 X-129.605 Y-201.872 E15.96051
G1 X-129.605 Y-164.192 E22.44077
G1 X-167.135 Y-164.192 E28.89522
G1 E25.89522 F2400
G92 E0
G1 X-167.135 Y-208.992 F4800
G1 E3 F2400
G1 F1800
G1 X-167.285 Y-208.992 E3.0258
G1 X-167.285 Y-246.672 E9.50605
G1 X-129.605 Y-246.672 E15.98631
G1 X-129.605 Y-208.992 E22.46656
G1 X-166.985 Y-208.992 E28.89522
M106 S221.85
;LAYER_CHANGE
;Z:1.2
;HEIGHT:0.4
G1 Z1.2 F600
G1 E25.89522 F2400
G92 E0
G1 X-219.205 Y-208.992 F4800
G1 E3 F2400
G1 F1800
G1 X-256.885 Y-208.992 E9.48026
G1 X-256.885 Y-246.672 E15.96051
G1 X-219.205 Y-246.672 E22.44077
G1 X-219.205 Y-209.142 E28.89522
G1 E25.89522 F2400
G92 E0
G1 X-212.085 Y-209.142 F4800
G1 E3 F2400
G1 F1800
G1 X-212.085 Y-246.672 E9.45446
G1 X-174.405 Y-246.672 E15.93471
G1 X-174.405 Y-208.992 E22.41497
G1 X-212.085 Y-208.992 E28.89522
G1 E25.89522 F2400
G92 E0
G1 X-212.085 Y-201.872 F4800
G1 E3 F2400
G1 F1800
G1 X-174.405 Y-201.872 E9.48026
G1 X-174.405 Y-164.192 E15.96051
G1 X-212.085 Y-164.192 E22.44077
G1 X-212.085 Y-201.722 E28.89522
G1 E25.89522 F2400
G92 E0
G1 X-219.205 Y-201.722 F4800
G1 E3 F2400
G1 F1800
G1 X-219.205 Y-164.192 E9.45446
G1 X-256.885 Y-164.192 E15.93471
G1 X-256.885 Y-201.872 E22.41497
G1 X-219.205 Y-201.872 E28.89522
G1 E25.89522 F2400
G92 E0
G1 X-219.205 Y-157.072 F4800
G1 E3 F2400
G1 F1800
G1 X-219.205 Y-119.392 E9.48026
G1 X-256.885 Y-119.392 E15.96051
G1 X-256.885 Y-157.072 E22.44077
G1 X-219.355 Y-157.072 E28.89522
G1 E25.89522 F2400
G92 E0
G1 X-212.085 Y-157.072 F4800
G1 E3 F2400
G1 F1800
G1 X-174.405 Y-157.072 E9.48026
G1 X-174.405 Y-119.392 E15.96051
G1 X-212.085 Y-119.392 E22.44077
G1 X-212.085 Y-156.922 E28.89522
G1 E25.89522 F2400
G92 E0
G1 X-167.285 Y-156.922 F4800
G1 E3 F2400
G1 F1800
G1 X-167.285 Y-157.072 E3.0258
G1 X-129.605 Y-157.072 E9.50605
G1 X-129.605 Y-119.392 E15.98631
G1 X-167.285 Y-119.392 E22.46656
G1 X-167.285 Y-156.772 E28.89522
G1 E25.89522 F2400
G92 E0
G1 X-167.285 Y-164.192 F4800
G1 E3 F2400
G1 F1800
G1 X-167.285 Y-201.872 E9.48026
G1 X-129.605 Y-201.872 E15.96051
G1 X-129.605 Y-164.192 E22.44077
G1 X-167.135 Y-164.192 E28.89522
G1 E25.89522 F2400
G92 E0
G1 X-167.135 Y-208.992 F4800
G1 E3 F2400
G1 F1800
G1 X-167.285 Y-208.992 E3.0258
G1 X-167.285 Y-246.672 E9.50605
G1 X-129.605 Y-246.672 E15.98631
G1 X-129.605 Y-208.992 E22.46656
G1 X-166.985 Y-208.992 E28.89522
;LAYER_CHANGE
;Z:1.6
;HEIGHT:0.4
G1 Z1.6 F600
G1 E25.89522 F2400
G92 E0
G1 X-219.205 Y-208.992 F4800
G1 E3 F2400
G1 F1800
G1 X-256.885 Y-208.992 E9.48026
G1 X-256.885 Y-246.672 E15.96051
G1 X-219.205 Y-246.672 E22.44077
G1 X-219.205 Y-209.142 E28.89522
G1 E25.89522 F2400
G92 E0
G1 X-212.085 Y-209.142 F4800
G1 E3 F2400
G1 F1800
G1 X-212.085 Y-246.672 E9.45446
G1 X-174.405 Y-246.672 E15.93471
G1 X-174.405 Y-208.992 E22.41497
G1 X-212.085 Y-208.992 E28.89522
G1 E25.89522 F2400
G92 E0
G1 X-212.085 Y-201.872 F4800
G1 E3 F2400
G1 F1800
G1 X-174.405 Y-201.872 E9.48026
G1 X-174.405 Y-164.192 E15.96051
G1 X-212.085 Y-164.192 E22.44077
G1 X-212.085 Y-201.722 E28.89522
G1 E25.89522 F2400
G92 E0
G1 X-219.205 Y-201.722 F4800
G1 E3 F2400
G1 F1800
G1 X-219.205 Y-164.192 E9.45446
G1 X-256.885 Y-164.192 E15.93471
G1 X-256.885 Y-201.872 E22.41497
G1 X-219.205 Y-201.872 E28.89522
G1 E25.89522 F2400
G92 E0
G1 X-219.205 Y-157.072 F4800
G1 E3 F2400
G1 F1800
G1 X-219.205 Y-119.392 E9.48026
G1 X-256.885 Y-119.392 E15.96051
G1 X-256.885 Y-157.072 E22.44077
G1 X-219.355 Y-157.072 E28.89522
G1 E25.89522 F2400
G92 E0
G1 X-212.085 Y-157.072 F4800
G1 E3 F2400
G1 F1800
G1 X-174.405 Y-157.072 E9.48026
G1 X-174.405 Y-119.392 E15.96051
G1 X-212.085 Y-119.392 E22.44077
G1 X-212.085 Y-156.922 E28.89522
G1 E25.89522 F2400
G92 E0
G1 X-167.285 Y-156.922 F4800
G1 E3 F2400
G1 F1800
G1 X-167.285 Y-157.072 E3.0258
G1 X-129.605 Y-157.072 E9.50605
G1 X-129.605 Y-119.392 E15.98631
G1 X-167.285 Y-119.392 E22.46656
G1 X-167.285 Y-156.772 E28.89522
G1 E25.89522 F2400
G92 E0
G1 X-167.285 Y-164.192 F4800
G1 E3 F2400
G1 F1800
G1 X-167.285 Y-201.872 E9.48026
G1 X-129.605 Y-201.872 E15.96051
G1 X-129.605 Y-164.192 E22.44077
G1 X-167.135 Y-164.192 E28.89522
G1 E25.89522 F2400
G92 E0
G1 X-167.135 Y-208.992 F4800
G1 E3 F2400
G1 F1800
G1 X-167.285 Y-208.992 E3.0258
G1 X-167.285 Y-246.672 E9.50605
G1 X-129.605 Y-246.672 E15.98631
G1 X-129.605 Y-208.992 E22.46656
G1 X-166.985 Y-208.992 E28.89522
;LAYER_CHANGE
;Z:2
;HEIGHT:0.4
G1 Z2 F600
G1 E25.89522 F2400
G92 E0
G1 X-219.205 Y-208.992 F4800
G1 E3 F2400
G1 F1800
G1 X-256.885 Y-208.992 E9.48026
G1 X-256.885 Y-246.672 E15.96051
G1 X-219.205 Y-246.672 E22.44077
G1 X-219.205 Y-209.142 E28.89522
G1 E25.89522 F2400
G92 E0
G1 X-212.085 Y-209.142 F4800
G1 E3 F2400
G1 F1800
G1 X-212.085 Y-246.672 E9.45446
G1 X-174.405 Y-246.672 E15.93471
G1 X-174.405 Y-208.992 E22.41497
G1 X-212.085 Y-208.992 E28.89522
G1 E25.89522 F2400
G92 E0
G1 X-212.085 Y-201.872 F4800
G1 E3 F2400
G1 F1800
G1 X-174.405 Y-201.872 E9.48026
G1 X-174.405 Y-164.192 E15.96051
G1 X-212.085 Y-164.192 E22.44077
G1 X-212.085 Y-201.722 E28.89522
G1 E25.89522 F2400
G92 E0
G1 X-219.205 Y-201.722 F4800
G1 E3 F2400
G1 F1800
G1 X-219.205 Y-164.192 E9.45446
G1 X-256.885 Y-164.192 E15.93471
G1 X-256.885 Y-201.872 E22.41497
G1 X-219.205 Y-201.872 E28.89522
G1 E25.89522 F2400
G92 E0
G1 X-219.205 Y-157.072 F4800
G1 E3 F2400
G1 F1800
G1 X-219.205 Y-119.392 E9.48026
G1 X-256.885 Y-119.392 E15.96051
G1 X-256.885 Y-157.072 E22.44077
G1 X-219.355 Y-157.072 E28.89522
G1 E25.89522 F2400
G92 E0
G1 X-212.085 Y-157.072 F4800
G1 E3 F2400
G1 F1800
G1 X-174.405 Y-157.072 E9.48026
G1 X-174.405 Y-119.392 E15.96051
G1 X-212.085 Y-119.392 E22.44077
G1 X-212.085 Y-156.922 E28.89522
G1 E25.89522 F2400
G92 E0
G1 X-167.285 Y-156.922 F4800
G1 E3 F2400
G1 F1800
G1 X-167.285 Y-157.072 E3.0258
G1 X-129.605 Y-157.072 E9.50605
G1 X-129.605 Y-119.392 E15.98631
G1 X-167.285 Y-119.392 E22.46656
G1 X-167.285 Y-156.772 E28.89522
G1 E25.89522 F2400
G92 E0
G1 X-167.285 Y-164.192 F4800
G1 E3 F2400
G1 F1800
G1 X-167.285 Y-201.872 E9.48026
G1 X-129.605 Y-201.872 E15.96051
G1 X-129.605 Y-164.192 E22.44077
G1 X-167.135 Y-164.192 E28.89522
G1 E25.89522 F2400
G92 E0
G1 X-167.135 Y-208.992 F4800
G1 E3 F2400
G1 F1800
G1 X-167.285 Y-208.992 E3.0258
G1 X-167.285 Y-246.672 E9.50605
G1 X-129.605 Y-246.672 E15.98631
G1 X-129.605 Y-208.992 E22.46656
G1 X-166.985 Y-208.992 E28.89522
;LAYER_CHANGE
;Z:2.4
;HEIGHT:0.4
G1 Z2.4 F600
G1 E25.89522 F2400
G92 E0
G1 X-219.205 Y-208.992 F4800
G1 E3 F2400
G1 F1800
G1 X-256.885 Y-208.992 E9.48026
G1 X-256.885 Y-246.672 E15.96051
G1 X-219.205 Y-246.672 E22.44077
G1 X-219.205 Y-209.142 E28.89522
G1 E25.89522 F2400
G92 E0
G1 X-212.085 Y-209.142 F4800
G1 E3 F2400
G1 F1800
G1 X-212.085 Y-246.672 E9.45446
G1 X-174.405 Y-246.672 E15.93471
G1 X-174.405 Y-208.992 E22.41497
G1 X-212.085 Y-208.992 E28.89522
G1 E25.89522 F2400
G92 E0
G1 X-212.085 Y-201.872 F4800
G1 E3 F2400
G1 F1800
G1 X-174.405 Y-201.872 E9.48026
G1 X-174.405 Y-164.192 E15.96051
G1 X-212.085 Y-164.192 E22.44077
G1 X-212.085 Y-201.722 E28.89522
G1 E25.89522 F2400
G92 E0
G1 X-219.205 Y-201.722 F4800
G1 E3 F2400
G1 F1800
G1 X-219.205 Y-164.192 E9.45446
G1 X-256.885 Y-164.192 E15.93471
G1 X-256.885 Y-201.872 E22.41497
G1 X-219.205 Y-201.872 E28.89522
G1 E25.89522 F2400
G92 E0
G1 X-219.205 Y-157.072 F4800
G1 E3 F2400
G1 F1800
G1 X-219.205 Y-119.392 E9.48026
G1 X-256.885 Y-119.392 E15.96051
G1 X-256.885 Y-157.072 E22.44077
G1 X-219.355 Y-157.072 E28.89522
G1 E25.89522 F2400
G92 E0
G1 X-212.085 Y-157.072 F4800
G1 E3 F2400
G1 F1800
G1 X-174.405 Y-157.072 E9.48026
G1 X-174.405 Y-119.392 E15.96051
G1 X-212.085 Y-119.392 E22.44077
G1 X-212.085 Y-156.922 E28.89522
G1 E25.89522 F2400
G92 E0
G1 X-167.285 Y-156.922 F4800
G1 E3 F2400
G1 F1800
G1 X-167.285 Y-157.072 E3.0258
G1 X-129.605 Y-157.072 E9.50605
G1 X-129.605 Y-119.392 E15.98631
G1 X-167.285 Y-119.392 E22.46656
G1 X-167.285 Y-156.772 E28.89522
G1 E25.89522 F2400
G92 E0
G1 X-167.285 Y-164.192 F4800
G1 E3 F2400
G1 F1800
G1 X-167.285 Y-201.872 E9.48026
G1 X-129.605 Y-201.872 E15.96051
G1 X-129.605 Y-164.192 E22.44077
G1 X-167.135 Y-164.192 E28.89522
G1 E25.89522 F2400
G92 E0
G1 X-167.135 Y-208.992 F4800
G1 E3 F2400
G1 F1800
G1 X-167.285 Y-208.992 E3.0258
G1 X-167.285 Y-246.672 E9.50605
G1 X-129.605 Y-246.672 E15.98631
G1 X-129.605 Y-208.992 E22.46656
G1 X-166.985 Y-208.992 E28.89522
;LAYER_CHANGE
;Z:2.8
;HEIGHT:0.4
G1 Z2.8 F600
G1 E25.89522 F2400
G92 E0
G1 X-219.205 Y-208.992 F4800
G1 E3 F2400
G1 F1800
G1 X-256.885 Y-208.992 E9.48026
G1 X-256.885 Y-246.672 E15.96051
G1 X-219.205 Y-246.672 E22.44077
G1 X-219.205 Y-209.142 E28.89522
G1 E25.89522 F2400
G92 E0
G1 X-212.085 Y-209.142 F4800
G1 E3 F2400
G1 F1800
G1 X-212.085 Y-246.672 E9.45446
G1 X-174.405 Y-246.672 E15.93471
G1 X-174.405 Y-208.992 E22.41497
G1 X-212.085 Y-208.992 E28.89522
G1 E25.89522 F2400
G92 E0
G1 X-212.085 Y-201.872 F4800
G1 E3 F2400
G1 F1800
G1 X-174.405 Y-201.872 E9.48026
G1 X-174.405 Y-164.192 E15.96051
G1 X-212.085 Y-164.192 E22.44077
G1 X-212.085 Y-201.722 E28.89522
G1 E25.89522 F2400
G92 E0
G1 X-219.205 Y-201.722 F4800
G1 E3 F2400
G1 F1800
