; generated by PrusaSlicer 2.4.2+win64 on 2022-09-25 at 21:09:43 UTC

; 

; external perimeters extrusion width = 1.12mm
; perimeters extrusion width = 1.12mm
; infill extrusion width = 1.12mm
; solid infill extrusion width = 1.12mm
; top infill extrusion width = 1.00mm
; first layer extrusion width = 1.05mm

; external perimeters extrusion width = 1.12mm
; perimeters extrusion width = 1.12mm
; infill extrusion width = 1.12mm
; solid infill extrusion width = 1.12mm
; top infill extrusion width = 1.00mm
; first layer extrusion width = 1.05mm

; external perimeters extrusion width = 1.12mm
; perimeters extrusion width = 1.12mm
; infill extrusion width = 1.12mm
; solid infill extrusion width = 1.12mm
; top infill extrusion width = 1.00mm
; first layer extrusion width = 1.05mm

; external perimeters extrusion width = 1.12mm
; perimeters extrusion width = 1.12mm
; infill extrusion width = 1.12mm
; solid infill extrusion width = 1.12mm
; top infill extrusion width = 1.00mm
; first layer extrusion width = 1.05mm

; external perimeters extrusion width = 1.12mm
; perimeters extrusion width = 1.12mm
; infill extrusion width = 1.12mm
; solid infill extrusion width = 1.12mm
; top infill extrusion width = 1.00mm
; first layer extrusion width = 1.05mm

; external perimeters extrusion width = 1.12mm
; perimeters extrusion width = 1.12mm
; infill extrusion width = 1.12mm
; solid infill extrusion width = 1.12mm
; top infill extrusion width = 1.00mm
; first layer extrusion width = 1.05mm

M107
M190 S60 ; set bed temperature and wait for it to be reached
M104 S215 ; set temperature
;TYPE:Custom
G28 ; home all axes
G1 Z5 F5000 ; lift nozzle
M109 S215 ; set temperature and wait for it to be reached
G21 ; set units to millimeters
G90 ; use absolute coordinates
M82 ; use absolute distances for extrusion
G92 E0
; Filament gcode
M107
;LAYER_CHANGE
;Z:0.4
;HEIGHT:0.4
G1 Z.4 F600
G1 E-1 F2400
G92 E0
G1 X-123.624 Y-136.86 F4800
G1 E1 F2400
;TYPE:Skirt/Brim
;WIDTH:1.05
G1 F1800
G1 X-125.389 Y-135.305 E1.3771
G1 X-127.57 Y-134.426 E1.7542
G1 X-129.045 Y-134.268 E1.99209
G1 X-257.445 Y-134.268 E22.57978
G1 X-259.763 Y-134.665 E22.95688
G1 X-261.817 Y-135.811 E23.33398
G1 X-263.372 Y-137.575 E23.71108
G1 X-264.251 Y-139.757 E24.08818
G1 X-264.409 Y-141.232 E24.32607
G1 X-264.409 Y-224.832 E37.73052
G1 X-264.012 Y-227.15 E38.10762
G1 X-262.866 Y-229.204 E38.48472
G1 X-261.102 Y-230.759 E38.86182
G1 X-258.92 Y-231.638 E39.23892
G1 X-257.445 Y-231.796 E39.47681
G1 X-129.045 Y-231.796 E60.0645
G1 X-126.727 Y-231.399 E60.4416
G1 X-124.673 Y-230.253 E60.8187
G1 X-123.118 Y-228.489 E61.1958
G1 X-122.239 Y-226.307 E61.5729
G1 X-122.081 Y-224.832 E61.81079
G1 X-122.081 Y-141.232 E75.21524
G1 X-122.478 Y-138.914 E75.59234
G1 X-123.551 Y-136.991 E75.94539
G1 E74.94539 F2400
G92 E0
G1 X-129.57 Y-186.557 F4800
G1 E1 F2400
;TYPE:External perimeter
G1 F1800
G1 X-167.32 Y-186.557 E7.05284
G1 X-167.32 Y-224.307 E13.10569
G1 X-129.57 Y-224.307 E19.15853
G1 X-129.57 Y-186.707 E25.18733
G1 E24.18733 F2400
G92 E0
G1 X-131.833 Y-224.018 F4800
G1 E1 F2400
;TYPE:Solid infill
;WIDTH:1.06185
G1 F1800
G1 X-130.293 Y-222.478 E1.35355
G1 X-130.293 Y-221.097 E1.57759
G1 X-132.78 Y-223.584 E2.14838
G1 X-134.16 Y-223.584 E2.37242
G1 X-130.293 Y-219.717 E3.26005
G1 X-130.293 Y-218.337 E3.48409
G1 X-135.54 Y-223.584 E4.68855
G1 X-136.921 Y-223.584 E4.91259
G1 X-130.293 Y-216.956 E6.4339
G1 X-130.293 Y-215.576 E6.65793
G1 X-138.301 Y-223.584 E8.49607
G1 X-139.681 Y-223.584 E8.72011
G1 X-130.293 Y-214.196 E10.87509
G1 X-130.293 Y-212.815 E11.09913
G1 X-141.062 Y-223.584 E13.57095
G1 X-142.442 Y-223.584 E13.79498
G1 X-130.293 Y-211.435 E16.58364
G1 X-130.293 Y-210.055 E16.80767
G1 X-143.822 Y-223.584 E19.91316
G1 X-145.203 Y-223.584 E20.1372
G1 X-130.293 Y-208.675 E23.55953
G1 X-130.293 Y-207.294 E23.78357
G1 X-146.583 Y-223.584 E27.52273
G1 X-147.963 Y-223.584 E27.74677
G1 X-130.293 Y-205.914 E31.80277
G1 X-130.293 Y-204.534 E32.02681
G1 X-149.343 Y-223.584 E36.39965
G1 X-150.724 Y-223.584 E36.62369
G1 X-130.293 Y-203.153 E41.31336
G1 X-130.293 Y-201.773 E41.5374
G1 X-152.104 Y-223.584 E46.54391
G1 X-153.484 Y-223.584 E46.76795
G1 X-130.293 Y-200.393 E52.0913
G1 X-130.293 Y-199.013 E52.31534
G1 X-154.865 Y-223.584 E57.95553
G1 X-156.245 Y-223.584 E58.17956
G1 X-130.293 Y-197.632 E64.13659
G1 X-130.293 Y-196.252 E64.36063
G1 X-157.625 Y-223.584 E70.63449
G1 X-159.005 Y-223.584 E70.85853
G1 X-130.293 Y-194.872 E77.44923
G1 X-130.293 Y-193.491 E77.67326
G1 X-160.386 Y-223.584 E84.5808
G1 X-161.766 Y-223.584 E84.80484
G1 X-130.293 Y-192.111 E92.02921
G1 X-130.293 Y-190.731 E92.25325
G1 X-163.146 Y-223.584 E99.79446
G1 X-164.527 Y-223.584 E100.0185
G1 X-130.293 Y-189.35 E107.87654
G1 X-130.293 Y-187.97 E108.10058
G1 X-165.907 Y-223.584 E116.27547
G1 X-166.597 Y-223.584 E116.38748
G1 X-166.597 Y-222.894 E116.4995
G1 X-130.983 Y-187.28 E124.67437
G1 X-132.364 Y-187.28 E124.89841
G1 X-166.597 Y-221.513 E132.75644
G1 X-166.597 Y-220.133 E132.98048
G1 X-133.744 Y-187.28 E140.52167
G1 X-135.124 Y-187.28 E140.74571
G1 X-166.597 Y-218.753 E147.97007
G1 X-166.597 Y-217.373 E148.1941
G1 X-136.505 Y-187.28 E155.10162
G1 X-137.885 Y-187.28 E155.32566
G1 X-166.597 Y-215.992 E161.91634
G1 X-166.597 Y-214.612 E162.14038
G1 X-139.265 Y-187.28 E168.41423
G1 X-140.645 Y-187.28 E168.63826
G1 X-166.597 Y-213.232 E174.59527
G1 X-166.597 Y-211.851 E174.81931
G1 X-142.026 Y-187.28 E180.45948
G1 X-143.406 Y-187.28 E180.68352
G1 X-166.597 Y-210.471 E186.00685
G1 X-166.597 Y-209.091 E186.23089
G1 X-144.786 Y-187.28 E191.23738
G1 X-146.167 Y-187.28 E191.46142
G1 X-166.597 Y-207.71 E196.15108
G1 X-166.597 Y-206.33 E196.37512
G1 X-147.547 Y-187.28 E200.74794
G1 X-148.927 Y-187.28 E200.97198
G1 X-166.597 Y-204.95 E205.02796
G1 X-166.597 Y-203.57 E205.252
G1 X-150.308 Y-187.28 E208.99115
G1 X-151.688 Y-187.28 E209.21519
G1 X-166.597 Y-202.189 E212.6375
G1 X-166.597 Y-200.809 E212.86154
G1 X-153.068 Y-187.28 E215.96701
G1 X-154.448 Y-187.28 E216.19105
G1 X-166.597 Y-199.429 E218.97968
G1 X-166.597 Y-198.048 E219.20372
G1 X-155.829 Y-187.28 E221.67552
G1 X-157.209 Y-187.28 E221.89956
G1 X-166.597 Y-196.668 E224.05452
G1 X-166.597 Y-195.288 E224.27856
G1 X-158.589 Y-187.28 E226.11668
G1 X-159.97 Y-187.28 E226.34072
G1 X-166.597 Y-193.908 E227.86201
G1 X-166.597 Y-192.527 E228.08604
G1 X-161.35 Y-187.28 E229.2905
G1 X-162.73 Y-187.28 E229.51453
G1 X-166.597 Y-191.147 E230.40215
G1 X-166.597 Y-189.767 E230.62618
G1 X-164.11 Y-187.28 E231.19696
G1 X-165.491 Y-187.28 E231.421
G1 X-167.031 Y-188.82 E231.77453
G1 E230.77453 F2400
G92 E0
G1 X-174.37 Y-186.557 F4800
G1 E1 F2400
;TYPE:External perimeter
;WIDTH:1.05
G1 F1800
G1 X-212.12 Y-186.557 E7.05284
G1 X-212.12 Y-224.307 E13.10569
G1 X-174.37 Y-224.307 E19.15853
G1 X-174.37 Y-186.707 E25.18733
G1 E24.18733 F2400
G92 E0
G1 X-176.633 Y-224.018 F4800
G1 E1 F2400
;TYPE:Solid infill
;WIDTH:1.06185
G1 F1800
G1 X-175.093 Y-222.478 E1.35355
G1 X-175.093 Y-221.097 E1.57759
G1 X-177.58 Y-223.584 E2.14838
G1 X-178.96 Y-223.584 E2.37242
G1 X-175.093 Y-219.717 E3.26005
G1 X-175.093 Y-218.337 E3.48409
G1 X-180.34 Y-223.584 E4.68855
G1 X-181.721 Y-223.584 E4.91259
G1 X-175.093 Y-216.956 E6.4339
G1 X-175.093 Y-215.576 E6.65793
G1 X-183.101 Y-223.584 E8.49607
G1 X-184.481 Y-223.584 E8.72011
G1 X-175.093 Y-214.196 E10.87509
G1 X-175.093 Y-212.815 E11.09913
G1 X-185.862 Y-223.584 E13.57095
G1 X-187.242 Y-223.584 E13.79498
G1 X-175.093 Y-211.435 E16.58364
G1 X-175.093 Y-210.055 E16.80767
G1 X-188.622 Y-223.584 E19.91316
G1 X-190.002 Y-223.584 E20.1372
G1 X-175.093 Y-208.675 E23.55953
G1 X-175.093 Y-207.294 E23.78357
G1 X-191.383 Y-223.584 E27.52273
G1 X-192.763 Y-223.584 E27.74677
G1 X-175.093 Y-205.914 E31.80277
G1 X-175.093 Y-204.534 E32.02681
G1 X-194.143 Y-223.584 E36.39965
G1 X-195.524 Y-223.584 E36.62369
G1 X-175.093 Y-203.153 E41.31336
G1 X-175.093 Y-201.773 E41.5374
G1 X-196.904 Y-223.584 E46.54391
G1 X-198.284 Y-223.584 E46.76795
G1 X-175.093 Y-200.393 E52.0913
G1 X-175.093 Y-199.013 E52.31534
G1 X-199.665 Y-223.584 E57.95553
G1 X-201.045 Y-223.584 E58.17956
G1 X-175.093 Y-197.632 E64.13659
G1 X-175.093 Y-196.252 E64.36063
G1 X-202.425 Y-223.584 E70.63449
G1 X-203.805 Y-223.584 E70.85853
G1 X-175.093 Y-194.872 E77.44923
G1 X-175.093 Y-193.491 E77.67326
G1 X-205.186 Y-223.584 E84.5808
G1 X-206.566 Y-223.584 E84.80484
G1 X-175.093 Y-192.111 E92.02921
G1 X-175.093 Y-190.731 E92.25325
G1 X-207.946 Y-223.584 E99.79446
G1 X-209.327 Y-223.584 E100.0185
G1 X-175.093 Y-189.35 E107.87654
G1 X-175.093 Y-187.97 E108.10058
G1 X-210.707 Y-223.584 E116.27547
G1 X-211.397 Y-223.584 E116.38748
G1 X-211.397 Y-222.894 E116.4995
G1 X-175.783 Y-187.28 E124.67437
G1 X-177.164 Y-187.28 E124.89841
G1 X-211.397 Y-221.513 E132.75644
G1 X-211.397 Y-220.133 E132.98048
G1 X-178.544 Y-187.28 E140.52167
G1 X-179.924 Y-187.28 E140.74571
G1 X-211.397 Y-218.753 E147.97007
G1 X-211.397 Y-217.373 E148.1941
G1 X-181.305 Y-187.28 E155.10162
G1 X-182.685 Y-187.28 E155.32566
G1 X-211.397 Y-215.992 E161.91634
G1 X-211.397 Y-214.612 E162.14038
G1 X-184.065 Y-187.28 E168.41423
G1 X-185.445 Y-187.28 E168.63826
G1 X-211.397 Y-213.232 E174.59527
G1 X-211.397 Y-211.851 E174.81931
G1 X-186.826 Y-187.28 E180.45948
G1 X-188.206 Y-187.28 E180.68352
G1 X-211.397 Y-210.471 E186.00685
G1 X-211.397 Y-209.091 E186.23089
G1 X-189.586 Y-187.28 E191.23738
G1 X-190.967 Y-187.28 E191.46142
G1 X-211.397 Y-207.71 E196.15108
G1 X-211.397 Y-206.33 E196.37512
G1 X-192.347 Y-187.28 E200.74794
G1 X-193.727 Y-187.28 E200.97198
G1 X-211.397 Y-204.95 E205.02796
G1 X-211.397 Y-203.57 E205.252
G1 X-195.107 Y-187.28 E208.99115
G1 X-196.488 Y-187.28 E209.21519
G1 X-211.397 Y-202.189 E212.6375
G1 X-211.397 Y-200.809 E212.86154
G1 X-197.868 Y-187.28 E215.96701
G1 X-199.248 Y-187.28 E216.19105
G1 X-211.397 Y-199.429 E218.97968
G1 X-211.397 Y-198.048 E219.20372
G1 X-200.629 Y-187.28 E221.67552
G1 X-202.009 Y-187.28 E221.89956
G1 X-211.397 Y-196.668 E224.05452
G1 X-211.397 Y-195.288 E224.27856
G1 X-203.389 Y-187.28 E226.11668
G1 X-204.77 Y-187.28 E226.34072
G1 X-211.397 Y-193.908 E227.86201
G1 X-211.397 Y-192.527 E228.08604
G1 X-206.15 Y-187.28 E229.2905
G1 X-207.53 Y-187.28 E229.51453
G1 X-211.397 Y-191.147 E230.40215
G1 X-211.397 Y-189.767 E230.62618
G1 X-208.91 Y-187.28 E231.19696
G1 X-210.291 Y-187.28 E231.421
G1 X-211.831 Y-188.82 E231.77453
G1 E230.77453 F2400
G92 E0
G1 X-219.17 Y-186.557 F4800
G1 E1 F2400
;TYPE:External perimeter
;WIDTH:1.05
G1 F1800
G1 X-256.92 Y-186.557 E7.05284
G1 X-256.92 Y-224.307 E13.10569
G1 X-219.17 Y-224.307 E19.15853
G1 X-219.17 Y-186.707 E25.18733
G1 E24.18733 F2400
G92 E0
G1 X-221.433 Y-224.018 F4800
G1 E1 F2400
;TYPE:Solid infill
;WIDTH:1.06185
G1 F1800
G1 X-219.893 Y-222.478 E1.35355
G1 X-219.893 Y-221.097 E1.57759
G1 X-222.38 Y-223.584 E2.14838
G1 X-223.76 Y-223.584 E2.37242
G1 X-219.893 Y-219.717 E3.26005
G1 X-219.893 Y-218.337 E3.48409
G1 X-225.14 Y-223.584 E4.68855
G1 X-226.521 Y-223.584 E4.91259
G1 X-219.893 Y-216.956 E6.4339
G1 X-219.893 Y-215.576 E6.65793
G1 X-227.901 Y-223.584 E8.49607
G1 X-229.281 Y-223.584 E8.72011
G1 X-219.893 Y-214.196 E10.87509
G1 X-219.893 Y-212.815 E11.09913
G1 X-230.662 Y-223.584 E13.57095
G1 X-232.042 Y-223.584 E13.79498
G1 X-219.893 Y-211.435 E16.58364
G1 X-219.893 Y-210.055 E16.80767
G1 X-233.422 Y-223.584 E19.91316
G1 X-234.802 Y-223.584 E20.1372
G1 X-219.893 Y-208.675 E23.55953
G1 X-219.893 Y-207.294 E23.78357
G1 X-236.183 Y-223.584 E27.52273
G1 X-237.563 Y-223.584 E27.74677
G1 X-219.893 Y-205.914 E31.80277
G1 X-219.893 Y-204.534 E32.02681
G1 X-238.943 Y-223.584 E36.39965
G1 X-240.324 Y-223.584 E36.62369
G1 X-219.893 Y-203.153 E41.31336
G1 X-219.893 Y-201.773 E41.5374
G1 X-241.704 Y-223.584 E46.54391
G1 X-243.084 Y-223.584 E46.76795
G1 X-219.893 Y-200.393 E52.0913
G1 X-219.893 Y-199.013 E52.31534
G1 X-244.465 Y-223.584 E57.95553
G1 X-245.845 Y-223.584 E58.17956
G1 X-219.893 Y-197.632 E64.13659
G1 X-219.893 Y-196.252 E64.36063
G1 X-247.225 Y-223.584 E70.63449
G1 X-248.605 Y-223.584 E70.85853
G1 X-219.893 Y-194.872 E77.44923
G1 X-219.893 Y-193.491 E77.67326
G1 X-249.986 Y-223.584 E84.5808
G1 X-251.366 Y-223.584 E84.80484
G1 X-219.893 Y-192.111 E92.02921
G1 X-219.893 Y-190.731 E92.25325
G1 X-252.746 Y-223.584 E99.79446
G1 X-254.127 Y-223.584 E100.0185
G1 X-219.893 Y-189.35 E107.87654
G1 X-219.893 Y-187.97 E108.10058
G1 X-255.507 Y-223.584 E116.27547
G1 X-256.197 Y-223.584 E116.38748
G1 X-256.197 Y-222.894 E116.4995
G1 X-220.583 Y-187.28 E124.67437
G1 X-221.964 Y-187.28 E124.89841
G1 X-256.197 Y-221.513 E132.75644
G1 X-256.197 Y-220.133 E132.98048
G1 X-223.344 Y-187.28 E140.52167
G1 X-224.724 Y-187.28 E140.74571
G1 X-256.197 Y-218.753 E147.97007
G1 X-256.197 Y-217.373 E148.1941
G1 X-226.105 Y-187.28 E155.10162
G1 X-227.485 Y-187.28 E155.32566
G1 X-256.197 Y-215.992 E161.91634
G1 X-256.197 Y-214.612 E162.14038
G1 X-228.865 Y-187.28 E168.41423
G1 X-230.245 Y-187.28 E168.63826
G1 X-256.197 Y-213.232 E174.59527
G1 X-256.197 Y-211.851 E174.81931
G1 X-231.626 Y-187.28 E180.45948
G1 X-233.006 Y-187.28 E180.68352
G1 X-256.197 Y-210.471 E186.00685
G1 X-256.197 Y-209.091 E186.23089
G1 X-234.386 Y-187.28 E191.23738
G1 X-235.767 Y-187.28 E191.46142
G1 X-256.197 Y-207.71 E196.15108
G1 X-256.197 Y-206.33 E196.37512
G1 X-237.147 Y-187.28 E200.74794
G1 X-238.527 Y-187.28 E200.97198
G1 X-256.197 Y-204.95 E205.02796
G1 X-256.197 Y-203.57 E205.252
G1 X-239.907 Y-187.28 E208.99115
G1 X-241.288 Y-187.28 E209.21519
G1 X-256.197 Y-202.189 E212.6375
G1 X-256.197 Y-200.809 E212.86154
G1 X-242.668 Y-187.28 E215.96701
G1 X-244.048 Y-187.28 E216.19105
G1 X-256.197 Y-199.429 E218.97968
G1 X-256.197 Y-198.048 E219.20372
G1 X-245.429 Y-187.28 E221.67552
G1 X-246.809 Y-187.28 E221.89956
G1 X-256.197 Y-196.668 E224.05452
G1 X-256.197 Y-195.288 E224.27856
G1 X-248.189 Y-187.28 E226.11668
G1 X-249.57 Y-187.28 E226.34072
G1 X-256.197 Y-193.908 E227.86201
G1 X-256.197 Y-192.527 E228.08604
G1 X-250.95 Y-187.28 E229.2905
G1 X-252.33 Y-187.28 E229.51453
G1 X-256.197 Y-191.147 E230.40215
G1 X-256.197 Y-189.767 E230.62618
G1 X-253.71 Y-187.28 E231.19696
G1 X-255.091 Y-187.28 E231.421
G1 X-256.631 Y-188.82 E231.77453
G1 E230.77453 F2400
G92 E0
G1 X-256.631 Y-179.507 F4800
G1 E1 F2400
;TYPE:External perimeter
;WIDTH:1.05
G1 F1800
G1 X-219.17 Y-179.507 E7.00647
G1 X-219.17 Y-141.757 E13.05931
G1 X-256.92 Y-141.757 E19.11216
G1 X-256.92 Y-179.507 E25.165
G1 X-256.781 Y-179.507 E25.18733
G1 E24.18733 F2400
G92 E0
G1 X-221.433 Y-179.218 F4800
G1 E1 F2400
;TYPE:Solid infill
;WIDTH:1.06185
G1 F1800
G1 X-219.893 Y-177.678 E1.35355
G1 X-219.893 Y-176.297 E1.57759
G1 X-222.38 Y-178.784 E2.14838
G1 X-223.76 Y-178.784 E2.37242
G1 X-219.893 Y-174.917 E3.26005
G1 X-219.893 Y-173.537 E3.48409
G1 X-225.14 Y-178.784 E4.68855
G1 X-226.521 Y-178.784 E4.91259
G1 X-219.893 Y-172.156 E6.4339
G1 X-219.893 Y-170.776 E6.65793
G1 X-227.901 Y-178.784 E8.49607
G1 X-229.281 Y-178.784 E8.72011
G1 X-219.893 Y-169.396 E10.87509
G1 X-219.893 Y-168.015 E11.09913
G1 X-230.662 Y-178.784 E13.57095
G1 X-232.042 Y-178.784 E13.79498
G1 X-219.893 Y-166.635 E16.58364
G1 X-219.893 Y-165.255 E16.80767
G1 X-233.422 Y-178.784 E19.91316
G1 X-234.802 Y-178.784 E20.1372
G1 X-219.893 Y-163.875 E23.55953
G1 X-219.893 Y-162.494 E23.78357
G1 X-236.183 Y-178.784 E27.52273
G1 X-237.563 Y-178.784 E27.74677
G1 X-219.893 Y-161.114 E31.80277
G1 X-219.893 Y-159.734 E32.02681
G1 X-238.943 Y-178.784 E36.39965
G1 X-240.324 Y-178.784 E36.62369
G1 X-219.893 Y-158.353 E41.31336
G1 X-219.893 Y-156.973 E41.5374
G1 X-241.704 Y-178.784 E46.54391
G1 X-243.084 Y-178.784 E46.76795
G1 X-219.893 Y-155.593 E52.0913
G1 X-219.893 Y-154.213 E52.31534
G1 X-244.465 Y-178.784 E57.95553
G1 X-245.845 Y-178.784 E58.17956
G1 X-219.893 Y-152.832 E64.13659
G1 X-219.893 Y-151.452 E64.36063
G1 X-247.225 Y-178.784 E70.63449
G1 X-248.605 Y-178.784 E70.85853
G1 X-219.893 Y-150.072 E77.44923
G1 X-219.893 Y-148.691 E77.67326
G1 X-249.986 Y-178.784 E84.5808
G1 X-251.366 Y-178.784 E84.80484
G1 X-219.893 Y-147.311 E92.02921
G1 X-219.893 Y-145.931 E92.25325
G1 X-252.746 Y-178.784 E99.79446
