; generated by PrusaSlicer 2.4.2+win64 on 2022-08-27 at 23:29:56 UTC

; 

; external perimeters extrusion width = 1.12mm
; perimeters extrusion width = 1.12mm
; infill extrusion width = 1.12mm
; solid infill extrusion width = 1.12mm
; top infill extrusion width = 1.00mm
; first layer extrusion width = 1.05mm

M107
M190 S60 ; set bed temperature and wait for it to be reached
M104 S215 ; set temperature
;TYPE:Custom
G28 ; home all axes
G1 Z5 F5000 ; lift nozzle
M109 S215 ; set temperature and wait for it to be reached
G21 ; set units to millimeters
G90 ; use absolute coordinates
M82 ; use absolute distances for extrusion
G92 E0
; Filament gcode
M107
;LAYER_CHANGE
;Z:0.4
;HEIGHT:0.4
G1 Z.4 F600
G1 E-1 F2400
G92 E0
G1 X-20.231 Y-25.386 F4800
G1 E1 F2400
;TYPE:Skirt/Brim
;WIDTH:1.05
G1 F1800
G1 X-21.396 Y-24.535 E1.2312
G1 X-22.579 Y-23.832 E1.45198
G1 X-24.797 Y-22.868 E1.83965
G1 X-27.039 Y-22.292 E2.21092
G1 X-28.45 Y-22.113 E2.43895
G1 X-29.608 Y-22.065 E2.62471
G1 X-328.628 Y-22.065 E50.56969
G1 X-330.286 Y-22.159 E50.83597
G1 X-332.1 Y-22.476 E51.13124
G1 X-333.897 Y-23.025 E51.4325
G1 X-335.162 Y-23.57 E51.6534
G1 X-336.46 Y-24.28 E51.89054
G1 X-337.982 Y-25.352 E52.18914
G1 X-339.029 Y-26.273 E52.41262
G1 X-340.295 Y-27.661 E52.71391
G1 X-341.133 Y-28.814 E52.94247
G1 X-341.825 Y-29.98 E53.1599
G1 X-342.783 Y-32.182 E53.54488
G1 X-343.365 Y-34.44 E53.91879
G1 X-343.544 Y-35.851 E54.14688
G1 X-343.592 Y-37.029 E54.33584
G1 X-343.592 Y-221.029 E83.83846
G1 X-343.533 Y-223.006 E84.15557
G1 X-343.34 Y-225.194 E84.50775
G1 X-343.01 Y-227.365 E84.85988
G1 X-342.436 Y-229.935 E85.28217
G1 X-341.945 Y-231.624 E85.5642
G1 X-341.214 Y-233.695 E85.91636
G1 X-340.354 Y-235.717 E86.26855
G1 X-339.37 Y-237.68 E86.62067
G1 X-338.263 Y-239.577 E86.97285
G1 X-337.08 Y-241.343 E87.31372
G1 X-335.426 Y-243.482 E87.74724
G1 X-334.263 Y-244.802 E88.02929
G1 X-332.72 Y-246.364 E88.38145
G1 X-330.744 Y-248.106 E88.80371
G1 X-329 Y-249.441 E89.15588
G1 X-327.545 Y-250.43 E89.43794
G1 X-325.662 Y-251.56 E89.79006
G1 X-323.711 Y-252.569 E90.14223
G1 X-321.294 Y-253.615 E90.56451
G1 X-319.223 Y-254.346 E90.91666
G1 X-317.534 Y-254.837 E91.1987
G1 X-315.394 Y-255.329 E91.55087
G1 X-312.793 Y-255.741 E91.97313
G1 X-311.041 Y-255.907 E92.25519
G1 X-308.847 Y-255.99 E92.60731
G1 X-49.409 Y-255.99 E134.20563
G1 X-47.651 Y-255.934 E134.48767
G1 X-45.463 Y-255.741 E134.83981
G1 X-42.862 Y-255.329 E135.26207
G1 X-40.722 Y-254.837 E135.61425
G1 X-39.032 Y-254.346 E135.89629
G1 X-36.961 Y-253.615 E136.24843
G1 X-34.94 Y-252.755 E136.6006
G1 X-32.594 Y-251.56 E137.02288
G1 X-31.08 Y-250.664 E137.30493
G1 X-29.256 Y-249.441 E137.65706
G1 X-27.175 Y-247.827 E138.07934
G1 X-25.855 Y-246.664 E138.36138
G1 X-24.292 Y-245.121 E138.71353
G1 X-22.551 Y-243.145 E139.13581
G1 X-21.473 Y-241.755 E139.41785
G1 X-20.227 Y-239.946 E139.77
G1 X-18.886 Y-237.68 E140.19227
G1 X-18.088 Y-236.112 E140.47431
G1 X-17.203 Y-234.102 E140.82648
G1 X-16.311 Y-231.624 E141.24873
G1 X-15.711 Y-229.511 E141.60089
G1 X-15.327 Y-227.795 E141.88293
G1 X-14.97 Y-225.628 E142.23509
G1 X-14.75 Y-223.442 E142.5873
G1 X-14.664 Y-221.029 E142.97449
G1 X-14.667 Y-36.81 E172.51223
G1 X-14.808 Y-34.973 E172.80762
G1 X-15.083 Y-33.521 E173.04458
G1 X-15.467 Y-32.198 E173.26547
G1 X-16.169 Y-30.494 E173.56091
G1 X-16.869 Y-29.214 E173.79478
G1 X-17.938 Y-27.691 E174.09317
G1 X-18.847 Y-26.655 E174.31417
G1 X-20.121 Y-25.487 E174.59128
G1 E173.59128 F2400
G92 E0
G1 X-24.863 Y-31.269 F4800
G1 E1 F2400
;TYPE:External perimeter
G1 F1800
G1 X-25.234 Y-30.982 E1.07529
G1 X-25.623 Y-30.718 E1.15058
G1 X-26.027 Y-30.479 E1.22588
G1 X-26.428 Y-30.274 E1.29804
G1 X-26.877 Y-30.079 E1.37656
G1 X-27.318 Y-29.92 E1.45174
G1 X-27.769 Y-29.789 E1.52703
G1 X-28.227 Y-29.687 E1.60233
G1 X-28.691 Y-29.613 E1.67761
G1 X-29.159 Y-29.569 E1.75291
G1 X-29.636 Y-29.554 E1.82953
G1 X-328.62 Y-29.554 E49.76863
G1 X-329.097 Y-29.569 E49.84525
G1 X-329.565 Y-29.613 E49.92055
G1 X-330.009 Y-29.683 E49.99272
G1 X-330.487 Y-29.789 E50.07122
G1 X-330.938 Y-29.92 E50.14642
G1 X-331.38 Y-30.079 E50.22171
G1 X-331.793 Y-30.258 E50.29388
G1 X-332.229 Y-30.479 E50.37239
G1 X-332.633 Y-30.718 E50.44758
G1 X-333.021 Y-30.982 E50.52287
G1 X-333.392 Y-31.269 E50.59816
G1 X-333.745 Y-31.58 E50.67345
G1 X-334.077 Y-31.912 E50.74874
G1 X-334.387 Y-32.264 E50.82404
G1 X-334.675 Y-32.635 E50.89933
G1 X-334.939 Y-33.024 E50.97462
G1 X-335.178 Y-33.428 E51.04991
G1 X-335.391 Y-33.846 E51.1252
G1 X-335.578 Y-34.277 E51.2005
G1 X-335.737 Y-34.719 E51.27578
G1 X-335.868 Y-35.17 E51.35107
G1 X-335.97 Y-35.628 E51.42637
G1 X-336.044 Y-36.092 E51.50166
G1 X-336.088 Y-36.559 E51.57695
G1 X-336.103 Y-37.037 E51.65357
G1 X-336.103 Y-221.021 E81.15354
G1 X-336.048 Y-222.754 E81.43161
G1 X-335.886 Y-224.472 E81.70836
G1 X-335.616 Y-226.177 E81.98511
G1 X-335.239 Y-227.862 E82.26186
G1 X-334.758 Y-229.519 E82.53861
G1 X-334.173 Y-231.143 E82.81536
G1 X-333.488 Y-232.727 E83.0921
G1 X-332.704 Y-234.265 E83.36885
G1 X-331.826 Y-235.751 E83.6456
G1 X-330.855 Y-237.178 E83.92235
G1 X-329.798 Y-238.542 E84.1991
G1 X-328.656 Y-239.837 E84.47585
G1 X-327.436 Y-241.057 E84.7526
G1 X-326.141 Y-242.198 E85.02934
G1 X-324.777 Y-243.256 E85.30609
G1 X-323.35 Y-244.227 E85.58284
G1 X-321.864 Y-245.105 E85.85959
G1 X-320.326 Y-245.889 E86.13634
G1 X-318.742 Y-246.574 E86.41308
G1 X-317.118 Y-247.159 E86.68983
G1 X-315.461 Y-247.64 E86.96658
G1 X-313.776 Y-248.017 E87.24333
G1 X-312.071 Y-248.287 E87.52007
G1 X-310.353 Y-248.449 E87.79682
G1 X-308.62 Y-248.504 E88.0749
G1 X-304.636 Y-248.504 E88.71361
G1 X-302.972 Y-248.452 E88.9805
G1 X-301.184 Y-248.287 E89.26851
G1 X-299.48 Y-248.017 E89.54516
G1 X-297.795 Y-247.64 E89.82191
G1 X-296.138 Y-247.159 E90.09865
G1 X-294.514 Y-246.574 E90.3754
G1 X-292.93 Y-245.889 E90.65215
G1 X-291.392 Y-245.105 E90.9289
G1 X-289.906 Y-244.227 E91.20565
G1 X-288.479 Y-243.256 E91.4824
G1 X-287.115 Y-242.198 E91.75914
G1 X-285.82 Y-241.057 E92.03589
G1 X-284.6 Y-239.837 E92.31264
G1 X-283.458 Y-238.542 E92.58939
G1 X-282.4 Y-237.178 E92.86614
G1 X-281.469 Y-235.808 E93.13171
G1 X-280.551 Y-234.264 E93.41971
G1 X-279.768 Y-232.727 E93.69636
G1 X-279.083 Y-231.143 E93.97311
G1 X-278.498 Y-229.519 E94.24986
G1 X-278.016 Y-227.862 E94.5266
G1 X-277.64 Y-226.177 E94.80335
G1 X-277.37 Y-224.472 E95.0801
G1 X-277.207 Y-222.754 E95.35685
G1 X-277.153 Y-221.021 E95.63491
G1 X-277.153 Y-112.021 E113.11201
G1 X-277.097 Y-110.238 E113.39802
G1 X-276.928 Y-108.454 E113.68535
G1 X-276.648 Y-106.684 E113.97268
G1 X-276.257 Y-104.935 E114.26001
G1 X-275.757 Y-103.214 E114.54734
G1 X-275.15 Y-101.528 E114.83467
G1 X-274.438 Y-99.883 E115.122
G1 X-273.625 Y-98.287 E115.40933
G1 X-272.713 Y-96.744 E115.69666
G1 X-271.705 Y-95.262 E115.98399
G1 X-270.607 Y-93.846 E116.27132
G1 X-269.422 Y-92.502 E116.55865
G1 X-268.155 Y-91.235 E116.84598
G1 X-266.811 Y-90.05 E117.13331
G1 X-265.395 Y-88.951 E117.42064
G1 X-263.913 Y-87.944 E117.70797
G1 X-262.37 Y-87.032 E117.9953
G1 X-260.773 Y-86.218 E118.28263
G1 X-259.129 Y-85.507 E118.56996
G1 X-257.443 Y-84.9 E118.85729
G1 X-255.722 Y-84.4 E119.14462
G1 X-253.973 Y-84.009 E119.43195
G1 X-252.203 Y-83.729 E119.71928
G1 X-250.419 Y-83.56 E120.00661
G1 X-248.636 Y-83.504 E120.29262
G1 X-109.62 Y-83.504 E142.58257
G1 X-107.837 Y-83.56 E142.86858
G1 X-106.053 Y-83.729 E143.1559
G1 X-104.283 Y-84.009 E143.44323
G1 X-102.534 Y-84.4 E143.73056
G1 X-100.813 Y-84.9 E144.01789
G1 X-99.127 Y-85.507 E144.30522
G1 X-97.482 Y-86.218 E144.59255
G1 X-95.886 Y-87.032 E144.87988
G1 X-94.343 Y-87.944 E145.16721
G1 X-92.861 Y-88.951 E145.45454
G1 X-91.445 Y-90.05 E145.74187
G1 X-90.101 Y-91.235 E146.0292
G1 X-88.834 Y-92.502 E146.31653
G1 X-87.649 Y-93.846 E146.60386
G1 X-86.55 Y-95.262 E146.89119
G1 X-85.543 Y-96.744 E147.17852
G1 X-84.631 Y-98.287 E147.46585
G1 X-83.817 Y-99.883 E147.75318
G1 X-83.106 Y-101.528 E148.04051
G1 X-82.499 Y-103.214 E148.32784
G1 X-81.999 Y-104.935 E148.61517
G1 X-81.608 Y-106.684 E148.9025
G1 X-81.328 Y-108.454 E149.18983
G1 X-81.159 Y-110.238 E149.47716
G1 X-81.103 Y-112.021 E149.76317
G1 X-81.103 Y-221.021 E167.24027
G1 X-81.048 Y-222.754 E167.51833
G1 X-80.886 Y-224.472 E167.79509
G1 X-80.616 Y-226.177 E168.07183
G1 X-80.239 Y-227.862 E168.34858
G1 X-79.758 Y-229.519 E168.62533
G1 X-79.173 Y-231.143 E168.90208
G1 X-78.488 Y-232.727 E169.17882
G1 X-77.704 Y-234.265 E169.45557
G1 X-76.826 Y-235.751 E169.73232
G1 X-75.855 Y-237.178 E170.00907
G1 X-74.798 Y-238.542 E170.28581
G1 X-73.656 Y-239.837 E170.56257
G1 X-72.436 Y-241.057 E170.83932
G1 X-71.141 Y-242.198 E171.11606
G1 X-69.777 Y-243.256 E171.39281
G1 X-68.35 Y-244.227 E171.66956
G1 X-66.864 Y-245.105 E171.9463
G1 X-65.326 Y-245.889 E172.22305
G1 X-63.742 Y-246.574 E172.4998
G1 X-62.118 Y-247.159 E172.77655
G1 X-60.461 Y-247.64 E173.0533
G1 X-58.776 Y-248.017 E173.33004
G1 X-57.071 Y-248.287 E173.6068
G1 X-55.353 Y-248.449 E173.88354
G1 X-53.62 Y-248.504 E174.16162
G1 X-49.636 Y-248.504 E174.80033
G1 X-47.903 Y-248.449 E175.0784
G1 X-46.184 Y-248.287 E175.35515
G1 X-44.48 Y-248.017 E175.6319
G1 X-42.795 Y-247.64 E175.90865
G1 X-41.138 Y-247.159 E176.18539
G1 X-39.514 Y-246.574 E176.46214
G1 X-37.93 Y-245.889 E176.73889
G1 X-36.392 Y-245.105 E177.01564
G1 X-34.906 Y-244.227 E177.29239
G1 X-33.479 Y-243.256 E177.56913
G1 X-32.115 Y-242.198 E177.84589
G1 X-30.82 Y-241.057 E178.12262
G1 X-29.6 Y-239.837 E178.39938
G1 X-28.458 Y-238.542 E178.67613
G1 X-27.4 Y-237.178 E178.95288
G1 X-26.43 Y-235.751 E179.22962
G1 X-25.552 Y-234.265 E179.50637
G1 X-24.768 Y-232.727 E179.78312
G1 X-24.083 Y-231.143 E180.05987
G1 X-23.498 Y-229.519 E180.33662
G1 X-23.016 Y-227.862 E180.61336
G1 X-22.64 Y-226.177 E180.89011
G1 X-22.37 Y-224.472 E181.16686
G1 X-22.207 Y-222.754 E181.44361
G1 X-22.153 Y-221.021 E181.72168
G1 X-22.153 Y-37.037 E211.22165
G1 X-22.168 Y-36.559 E211.29827
G1 X-22.212 Y-36.092 E211.37356
G1 X-22.286 Y-35.628 E211.44886
G1 X-22.388 Y-35.17 E211.52415
G1 X-22.519 Y-34.719 E211.59944
G1 X-22.678 Y-34.277 E211.67473
G1 X-22.865 Y-33.846 E211.75002
G1 X-23.078 Y-33.428 E211.82532
G1 X-23.317 Y-33.024 E211.90061
G1 X-23.581 Y-32.635 E211.9759
G1 X-23.869 Y-32.264 E212.05119
G1 X-24.179 Y-31.912 E212.12648
G1 X-24.751 Y-31.369 E212.25295
G1 E211.25295 F2400
G92 E0
G1 X-297.418 Y-55.897 F4800
G1 E1 F2400
G1 F1800
G1 X-297.51 Y-55.18 E1.11585
G1 X-297.646 Y-54.475 E1.23103
G1 X-297.826 Y-53.78 E1.3462
G1 X-298.042 Y-53.124 E1.45689
G1 X-298.317 Y-52.431 E1.57645
G1 X-298.626 Y-51.782 E1.69173
G1 X-298.962 Y-51.178 E1.80241
G1 X-299.363 Y-50.55 E1.92198
G1 X-299.79 Y-49.971 E2.03726
G1 X-300.233 Y-49.442 E2.14794
G1 X-300.747 Y-48.901 E2.2675
G1 X-301.275 Y-48.414 E2.38279
G1 X-301.832 Y-47.961 E2.49797
G1 X-302.417 Y-47.544 E2.61314
G1 X-303.028 Y-47.165 E2.72832
G1 X-303.661 Y-46.826 E2.8435
G1 X-304.314 Y-46.528 E2.95868
G1 X-304.985 Y-46.271 E3.07386
G1 X-305.671 Y-46.058 E3.18903
G1 X-306.369 Y-45.889 E3.30421
G1 X-307.077 Y-45.764 E3.41939
G1 X-307.791 Y-45.684 E3.53457
G1 X-308.508 Y-45.65 E3.64975
G1 X-309.227 Y-45.661 E3.76493
G1 X-309.943 Y-45.718 E3.88011
G1 X-310.654 Y-45.821 E3.99529
G1 X-311.357 Y-45.968 E4.11046
G1 X-312.049 Y-46.159 E4.22564
G1 X-312.728 Y-46.394 E4.34082
G1 X-313.391 Y-46.672 E4.456
G1 X-314.034 Y-46.991 E4.57118
G1 X-314.656 Y-47.35 E4.68635
G1 X-315.254 Y-47.748 E4.80154
G1 X-315.826 Y-48.183 E4.91671
G1 X-316.369 Y-48.653 E5.03189
G1 X-316.881 Y-49.157 E5.14707
G1 X-317.36 Y-49.692 E5.26225
G1 X-317.804 Y-50.257 E5.37743
G1 X-318.211 Y-50.849 E5.4926
G1 X-318.58 Y-51.465 E5.60778
G1 X-318.909 Y-52.103 E5.72296
G1 X-319.197 Y-52.762 E5.83814
G1 X-319.443 Y-53.437 E5.95332
G1 X-319.645 Y-54.126 E6.0685
G1 X-319.797 Y-54.799 E6.17918
G1 X-319.917 Y-55.535 E6.29874
G1 X-319.985 Y-56.251 E6.41402
G1 X-320.008 Y-56.969 E6.5292
G1 X-319.985 Y-57.687 E6.64438
G1 X-319.917 Y-58.402 E6.75956
G1 X-319.804 Y-59.111 E6.87474
G1 X-319.645 Y-59.812 E6.98991
G1 X-319.443 Y-60.501 E7.10509
G1 X-319.197 Y-61.176 E7.22027
G1 X-318.909 Y-61.834 E7.33545
G1 X-318.593 Y-62.448 E7.44613
G1 X-318.211 Y-63.089 E7.5657
G1 X-317.804 Y-63.681 E7.68098
G1 X-317.36 Y-64.245 E7.79616
G1 X-316.881 Y-64.781 E7.91133
G1 X-316.369 Y-65.285 E8.02651
G1 X-315.826 Y-65.755 E8.14169
G1 X-315.254 Y-66.19 E8.25687
G1 X-314.656 Y-66.588 E8.37205
G1 X-314.058 Y-66.933 E8.48273
G1 X-313.391 Y-67.266 E8.6023
G1 X-312.728 Y-67.544 E8.71757
G1 X-312.049 Y-67.779 E8.83275
G1 X-311.357 Y-67.97 E8.94793
G1 X-310.654 Y-68.117 E9.06311
G1 X-309.943 Y-68.219 E9.17829
G1 X-309.227 Y-68.276 E9.29347
G1 X-308.536 Y-68.287 E9.40415
G1 X-307.791 Y-68.254 E9.52371
G1 X-307.077 Y-68.174 E9.63899
G1 X-306.369 Y-68.049 E9.75417
G1 X-305.671 Y-67.88 E9.86935
G1 X-304.985 Y-67.667 E9.98453
G1 X-304.314 Y-67.41 E10.09971
G1 X-303.661 Y-67.112 E10.21489
G1 X-303.028 Y-66.772 E10.33006
G1 X-302.417 Y-66.394 E10.44524
G1 X-301.832 Y-65.977 E10.56042
G1 X-301.275 Y-65.524 E10.6756
G1 X-300.747 Y-65.037 E10.79078
G1 X-300.251 Y-64.517 E10.90596
G1 X-299.808 Y-63.988 E11.01664
G1 X-299.364 Y-63.389 E11.1362
G1 X-298.975 Y-62.784 E11.25148
G1 X-298.626 Y-62.156 E11.36666
G1 X-298.317 Y-61.507 E11.48184
G1 X-298.05 Y-60.841 E11.59702
G1 X-297.826 Y-60.158 E11.7122
G1 X-297.646 Y-59.463 E11.82737
G1 X-297.51 Y-58.757 E11.94255
G1 X-297.418 Y-58.041 E12.0584
G1 X-297.367 Y-56.969 E12.23047
G1 X-297.411 Y-56.047 E12.37848
G1 E11.37848 F2400
G92 E0
G1 X-307.791 Y-209.804 F4800
G1 E1 F2400
G1 F1800
G1 X-308.508 Y-209.77 E1.11518
G1 X-309.227 Y-209.781 E1.23036
G1 X-309.943 Y-209.838 E1.34554
G1 X-310.654 Y-209.941 E1.46071
G1 X-311.357 Y-210.088 E1.5759
G1 X-312.049 Y-210.279 E1.69107
G1 X-312.728 Y-210.514 E1.80625
G1 X-313.391 Y-210.792 E1.92143
G1 X-314.034 Y-211.111 E2.03661
G1 X-314.656 Y-211.47 E2.15179
G1 X-315.254 Y-211.868 E2.26696
G1 X-315.826 Y-212.303 E2.38214
G1 X-316.369 Y-212.773 E2.49732
G1 X-316.881 Y-213.277 E2.6125
G1 X-317.36 Y-213.812 E2.72768
G1 X-317.804 Y-214.377 E2.84286
G1 X-318.211 Y-214.969 E2.95804
G1 X-318.58 Y-215.585 E3.07321
G1 X-318.909 Y-216.223 E3.18839
G1 X-319.197 Y-216.882 E3.30357
G1 X-319.443 Y-217.557 E3.41875
G1 X-319.645 Y-218.246 E3.53393
G1 X-319.804 Y-218.946 E3.64911
G1 X-319.917 Y-219.656 E3.76429
G1 X-319.985 Y-220.371 E3.87946
G1 X-320.008 Y-221.089 E3.99464
G1 X-319.985 Y-221.807 E4.10982
G1 X-319.917 Y-222.522 E4.225
G1 X-319.804 Y-223.231 E4.34018
G1 X-319.645 Y-223.932 E4.45536
G1 X-319.443 Y-224.621 E4.57053
G1 X-319.197 Y-225.296 E4.68571
G1 X-318.909 Y-225.954 E4.80089
G1 X-318.593 Y-226.568 E4.91157
G1 X-318.211 Y-227.209 E5.03114
G1 X-317.804 Y-227.801 E5.14642
G1 X-317.36 Y-228.365 E5.2616
G1 X-316.881 Y-228.901 E5.37678
G1 X-316.369 Y-229.405 E5.49195
G1 X-315.826 Y-229.875 E5.60713
G1 X-315.254 Y-230.31 E5.72231
G1 X-314.656 Y-230.708 E5.83748
G1 X-314.058 Y-231.053 E5.94817
G1 X-313.391 Y-231.386 E6.06773
G1 X-312.728 Y-231.664 E6.18301
G1 X-312.049 Y-231.899 E6.29819
G1 X-311.357 Y-232.09 E6.41337
G1 X-310.654 Y-232.237 E6.52855
G1 X-309.943 Y-232.339 E6.64373
G1 X-309.227 Y-232.396 E6.75891
G1 X-308.536 Y-232.407 E6.86959
G1 X-307.791 Y-232.374 E6.98915
G1 X-307.077 Y-232.294 E7.10443
G1 X-306.369 Y-232.169 E7.21961
G1 X-305.671 Y-232 E7.33479
G1 X-304.985 Y-231.787 E7.44997
G1 X-304.314 Y-231.53 E7.56515
G1 X-303.661 Y-231.232 E7.68033
G1 X-303.028 Y-230.893 E7.7955
G1 X-302.417 Y-230.514 E7.91069
G1 X-301.832 Y-230.097 E8.02586
G1 X-301.275 Y-229.644 E8.14104
G1 X-300.747 Y-229.157 E8.25622
G1 X-300.251 Y-228.637 E8.37139
G1 X-299.79 Y-228.087 E8.48657
G1 X-299.364 Y-227.508 E8.60176
G1 X-298.975 Y-226.904 E8.71693
G1 X-298.626 Y-226.276 E8.83211
G1 X-298.317 Y-225.628 E8.94729
G1 X-298.05 Y-224.961 E9.06247
G1 X-297.826 Y-224.278 E9.17764
G1 X-297.646 Y-223.583 E9.29283
G1 X-297.51 Y-222.877 E9.408
G1 X-297.418 Y-222.161 E9.52385
G1 X-297.367 Y-221.089 E9.69592
G1 X-297.418 Y-220.017 E9.86798
G1 X-297.51 Y-219.3 E9.98383
G1 X-297.646 Y-218.595 E10.09901
G1 X-297.826 Y-217.9 E10.21418
G1 X-298.042 Y-217.244 E10.32487
G1 X-298.317 Y-216.551 E10.44443
G1 X-298.626 Y-215.902 E10.55972
