; generated by PrusaSlicer 2.4.2+win64 on 2022-08-27 at 22:45:11 UTC

; 

; external perimeters extrusion width = 1.12mm
; perimeters extrusion width = 1.12mm
; infill extrusion width = 1.12mm
; solid infill extrusion width = 1.12mm
; top infill extrusion width = 1.00mm
; first layer extrusion width = 1.05mm

M107
M190 S60 ; set bed temperature and wait for it to be reached
M104 S215 ; set temperature
;TYPE:Custom
G28 ; home all axes
G1 Z5 F5000 ; lift nozzle
M109 S215 ; set temperature and wait for it to be reached
G21 ; set units to millimeters
G90 ; use absolute coordinates
M82 ; use absolute distances for extrusion
G92 E0
; Filament gcode
M107
;LAYER_CHANGE
;Z:0.4
;HEIGHT:0.4
G1 Z.4 F600
G1 E-1 F2400
G92 E0
G1 X-31.079 Y-30.693 F4800
G1 E1 F2400
;TYPE:Skirt/Brim
;WIDTH:1.05
G1 F1800
G1 X-31.992 Y-29.768 E1.20839
G1 X-33.63 Y-28.306 E1.5605
G1 X-35.357 Y-26.949 E1.91269
G1 X-37.166 Y-25.703 E2.26484
G1 X-39.433 Y-24.362 E2.6871
G1 X-41 Y-23.564 E2.96914
G1 X-43.01 Y-22.679 E3.3213
G1 X-45.072 Y-21.922 E3.67348
G1 X-47.601 Y-21.187 E4.09573
G1 X-49.747 Y-20.722 E4.44789
G1 X-51.919 Y-20.392 E4.80005
G1 X-53.67 Y-20.226 E5.08212
G1 X-55.865 Y-20.143 E5.43425
G1 X-315.302 Y-20.143 E47.03254
G1 X-317.497 Y-20.226 E47.3847
G1 X-319.248 Y-20.392 E47.66674
G1 X-321.42 Y-20.722 E48.0189
G1 X-323.566 Y-21.187 E48.37106
G1 X-325.679 Y-21.787 E48.72322
G1 X-327.75 Y-22.518 E49.07537
G1 X-330.167 Y-23.564 E49.49765
G1 X-332.118 Y-24.573 E49.8498
G1 X-334.001 Y-25.703 E50.20196
G1 X-335.81 Y-26.949 E50.55414
G1 X-337.2 Y-28.027 E50.83618
G1 X-338.856 Y-29.469 E51.18833
G1 X-340.419 Y-31.012 E51.54049
G1 X-341.882 Y-32.651 E51.89266
G1 X-343.239 Y-34.378 E52.2448
G1 X-344.485 Y-36.187 E52.59698
G1 X-345.614 Y-38.07 E52.94913
G1 X-346.81 Y-40.416 E53.37139
G1 X-347.67 Y-42.438 E53.72356
G1 X-348.266 Y-44.093 E54.0056
G1 X-348.891 Y-46.198 E54.35775
G1 X-349.384 Y-48.338 E54.70993
G1 X-349.796 Y-50.939 E55.13218
G1 X-349.989 Y-53.127 E55.48434
G1 X-355.045 Y-225.56 E83.14422
G1 X-355.019 Y-240.128 E85.48003
G1 X-354.859 Y-241.823 E85.75296
G1 X-354.363 Y-244.28 E86.15489
G1 X-354 Y-245.48 E86.35597
G1 X-353.24 Y-247.4 E86.68698
G1 X-352.478 Y-248.897 E86.95639
G1 X-351.82 Y-249.984 E87.16011
G1 X-351.103 Y-251.014 E87.36121
G1 X-349.784 Y-252.609 E87.69312
G1 X-348.588 Y-253.804 E87.96428
G1 X-346.998 Y-255.121 E88.29529
G1 X-345.608 Y-256.066 E88.5647
G1 X-344.508 Y-256.701 E88.76846
G1 X-342.65 Y-257.576 E89.09767
G1 X-341.475 Y-258.015 E89.29875
G1 X-340.265 Y-258.382 E89.50156
G1 X-338.625 Y-258.749 E89.77101
G1 X-336.555 Y-259.012 E90.10556
G1 X-335.094 Y-259.068 E90.33997
G1 X-35.865 Y-259.065 E138.31855
G1 X-33.815 Y-258.936 E138.64779
G1 X-32.145 Y-258.673 E138.91897
G1 X-30.123 Y-258.155 E139.25356
G1 X-28.532 Y-257.582 E139.52472
G1 X-26.659 Y-256.701 E139.85662
G1 X-25.203 Y-255.84 E140.1278
G1 X-23.191 Y-254.344 E140.52978
G1 X-21.694 Y-252.939 E140.85898
G1 X-20.564 Y-251.659 E141.13282
G1 X-19.353 Y-249.993 E141.463
G1 X-18.487 Y-248.529 E141.73589
G1 X-17.607 Y-246.661 E142.0669
G1 X-17.032 Y-245.064 E142.33902
G1 X-16.52 Y-243.07 E142.66916
G1 X-16.253 Y-241.389 E142.9421
G1 X-16.12 Y-239.115 E143.30728
G1 X-16.122 Y-225.56 E145.48065
G1 X-21.206 Y-52.691 E173.21061
G1 X-21.426 Y-50.505 E173.56279
G1 X-21.701 Y-48.768 E173.84483
G1 X-22.276 Y-46.198 E174.26711
G1 X-22.901 Y-44.092 E174.61927
G1 X-23.658 Y-42.031 E174.97141
G1 X-24.357 Y-40.416 E175.25345
G1 X-25.342 Y-38.453 E175.60563
G1 X-26.448 Y-36.556 E175.95779
G1 X-27.671 Y-34.732 E176.30994
G1 X-29.285 Y-32.651 E176.7322
G1 X-30.448 Y-31.331 E177.01423
G1 X-30.973 Y-30.8 E177.134
G1 E176.134 F2400
G92 E0
G1 X-28.609 Y-217.245 F4800
G1 E1 F2400
;TYPE:External perimeter
G1 F1800
G1 X-28.609 Y-55.112 E26.99636
G1 X-28.663 Y-53.379 E27.27444
G1 X-28.825 Y-51.661 E27.55118
G1 X-29.095 Y-49.956 E27.82793
G1 X-29.472 Y-48.271 E28.10468
G1 X-29.953 Y-46.614 E28.38143
G1 X-30.538 Y-44.99 E28.65818
G1 X-31.224 Y-43.406 E28.93493
G1 X-32.007 Y-41.868 E29.21167
G1 X-32.886 Y-40.382 E29.48843
G1 X-33.856 Y-38.955 E29.76517
G1 X-34.914 Y-37.591 E30.04192
G1 X-36.055 Y-36.296 E30.31867
G1 X-37.276 Y-35.076 E30.59542
G1 X-38.57 Y-33.934 E30.87216
G1 X-39.934 Y-32.876 E31.14891
G1 X-41.362 Y-31.906 E31.42566
G1 X-42.847 Y-31.028 E31.70241
G1 X-44.385 Y-30.244 E31.97916
G1 X-45.969 Y-29.559 E32.25591
G1 X-47.593 Y-28.974 E32.53266
G1 X-49.251 Y-28.492 E32.8094
G1 X-50.935 Y-28.116 E33.08615
G1 X-52.64 Y-27.846 E33.3629
G1 X-54.358 Y-27.683 E33.63965
G1 X-56.092 Y-27.629 E33.91772
G1 X-60.075 Y-27.629 E34.55643
G1 X-61.809 Y-27.683 E34.83451
G1 X-63.527 Y-27.846 E35.11125
G1 X-65.232 Y-28.116 E35.388
G1 X-66.916 Y-28.492 E35.66475
G1 X-68.574 Y-28.974 E35.9415
G1 X-70.198 Y-29.559 E36.21825
G1 X-71.782 Y-30.244 E36.495
G1 X-73.32 Y-31.028 E36.77174
G1 X-74.805 Y-31.906 E37.04849
G1 X-76.233 Y-32.876 E37.32524
G1 X-77.597 Y-33.934 E37.60199
G1 X-78.891 Y-35.076 E37.87874
G1 X-80.112 Y-36.296 E38.15548
G1 X-81.253 Y-37.591 E38.43223
G1 X-82.311 Y-38.955 E38.70898
G1 X-83.281 Y-40.382 E38.98573
G1 X-84.16 Y-41.868 E39.26248
G1 X-84.943 Y-43.406 E39.53923
G1 X-85.629 Y-44.99 E39.81597
G1 X-86.214 Y-46.614 E40.09272
G1 X-86.695 Y-48.271 E40.36947
G1 X-87.072 Y-49.956 E40.64622
G1 X-87.342 Y-51.661 E40.92297
G1 X-87.504 Y-53.379 E41.19971
G1 X-87.559 Y-55.112 E41.47779
G1 X-87.559 Y-164.112 E58.95488
G1 X-87.615 Y-165.895 E59.24089
G1 X-87.783 Y-167.679 E59.52822
G1 X-88.063 Y-169.449 E59.81555
G1 X-88.454 Y-171.198 E60.10288
G1 X-88.954 Y-172.919 E60.39021
G1 X-89.561 Y-174.605 E60.67754
G1 X-90.273 Y-176.249 E60.96487
G1 X-91.087 Y-177.846 E61.2522
G1 X-91.999 Y-179.389 E61.53953
G1 X-93.006 Y-180.871 E61.82686
G1 X-94.104 Y-182.287 E62.11419
G1 X-95.289 Y-183.631 E62.40152
G1 X-96.557 Y-184.898 E62.68885
G1 X-97.901 Y-186.083 E62.97618
G1 X-99.317 Y-187.181 E63.26351
G1 X-100.799 Y-188.189 E63.55084
G1 X-102.341 Y-189.101 E63.83817
G1 X-103.939 Y-189.915 E64.1256
G1 X-105.649 Y-190.65 E64.42419
G1 X-107.269 Y-191.233 E64.70013
G1 X-108.99 Y-191.733 E64.98746
G1 X-110.738 Y-192.124 E65.27479
G1 X-112.508 Y-192.404 E65.56213
G1 X-114.292 Y-192.573 E65.84945
G1 X-116.075 Y-192.629 E66.13546
G1 X-255.092 Y-192.629 E88.42541
G1 X-256.875 Y-192.573 E88.71142
G1 X-258.659 Y-192.404 E88.99875
G1 X-260.429 Y-192.124 E89.28608
G1 X-262.177 Y-191.733 E89.57341
G1 X-263.898 Y-191.233 E89.86074
G1 X-265.585 Y-190.626 E90.14817
G1 X-267.292 Y-189.882 E90.44676
G1 X-268.826 Y-189.101 E90.72271
G1 X-270.368 Y-188.189 E91.01004
G1 X-271.85 Y-187.181 E91.29737
G1 X-273.266 Y-186.083 E91.5847
G1 X-274.61 Y-184.898 E91.87203
G1 X-275.878 Y-183.631 E92.15936
G1 X-277.063 Y-182.287 E92.44668
G1 X-278.161 Y-180.87 E92.73412
G1 X-279.204 Y-179.328 E93.03271
G1 X-280.08 Y-177.846 E93.30865
G1 X-280.894 Y-176.249 E93.59598
G1 X-281.606 Y-174.605 E93.88331
G1 X-282.213 Y-172.919 E94.17064
G1 X-282.713 Y-171.198 E94.45797
G1 X-283.104 Y-169.449 E94.7453
G1 X-283.384 Y-167.679 E95.03263
G1 X-283.552 Y-165.895 E95.31996
G1 X-283.609 Y-164.112 E95.60597
G1 X-283.609 Y-55.112 E113.08307
G1 X-283.663 Y-53.379 E113.36114
G1 X-283.825 Y-51.661 E113.63788
G1 X-284.095 Y-49.956 E113.91463
G1 X-284.472 Y-48.271 E114.19138
G1 X-284.953 Y-46.614 E114.46813
G1 X-285.538 Y-44.99 E114.74488
G1 X-286.224 Y-43.406 E115.02163
G1 X-287.007 Y-41.868 E115.29838
G1 X-287.886 Y-40.382 E115.57512
G1 X-288.856 Y-38.955 E115.85187
G1 X-289.914 Y-37.591 E116.12862
G1 X-291.055 Y-36.296 E116.40537
G1 X-292.276 Y-35.076 E116.68212
G1 X-293.57 Y-33.934 E116.95886
G1 X-294.934 Y-32.876 E117.23561
G1 X-296.304 Y-31.946 E117.50118
G1 X-297.848 Y-31.027 E117.78919
G1 X-299.385 Y-30.244 E118.06583
G1 X-300.969 Y-29.559 E118.34259
G1 X-302.593 Y-28.974 E118.61933
G1 X-304.251 Y-28.492 E118.89608
G1 X-305.935 Y-28.116 E119.17283
G1 X-307.64 Y-27.846 E119.44958
G1 X-309.358 Y-27.683 E119.72633
G1 X-311.092 Y-27.629 E120.0044
G1 X-315.075 Y-27.629 E120.64311
G1 X-316.809 Y-27.683 E120.92118
G1 X-318.527 Y-27.846 E121.19793
G1 X-320.232 Y-28.116 E121.47468
G1 X-321.916 Y-28.492 E121.75143
G1 X-323.574 Y-28.974 E122.02818
G1 X-325.198 Y-29.559 E122.30492
G1 X-326.782 Y-30.244 E122.58167
G1 X-328.32 Y-31.028 E122.85842
G1 X-329.805 Y-31.906 E123.13517
G1 X-331.233 Y-32.876 E123.41192
G1 X-332.597 Y-33.934 E123.68867
G1 X-333.891 Y-35.076 E123.96541
G1 X-335.112 Y-36.296 E124.24216
G1 X-336.253 Y-37.591 E124.51891
G1 X-337.311 Y-38.955 E124.79566
G1 X-338.281 Y-40.382 E125.07241
G1 X-339.16 Y-41.868 E125.34916
G1 X-339.943 Y-43.406 E125.6259
G1 X-340.629 Y-44.99 E125.90265
G1 X-341.214 Y-46.614 E126.1794
G1 X-341.695 Y-48.271 E126.45615
G1 X-342.072 Y-49.956 E126.73289
G1 X-342.342 Y-51.661 E127.00965
G1 X-342.504 Y-53.379 E127.28639
G1 X-342.559 Y-55.112 E127.56446
G1 X-342.559 Y-217.245 E153.56083
G1 X-347.559 Y-225.905 E155.16423
G1 X-347.559 Y-239.096 E157.27925
G1 X-347.534 Y-239.887 E157.40624
G1 X-347.46 Y-240.668 E157.53189
G1 X-347.337 Y-241.442 E157.65755
G1 X-347.166 Y-242.206 E157.7832
G1 X-346.948 Y-242.959 E157.90886
G1 X-346.686 Y-243.686 E158.0328
G1 X-346.371 Y-244.416 E158.1602
G1 X-346.015 Y-245.114 E158.28582
G1 X-345.616 Y-245.788 E158.41148
G1 X-345.176 Y-246.436 E158.53713
G1 X-344.695 Y-247.056 E158.66279
G1 X-344.177 Y-247.644 E158.78844
G1 X-343.623 Y-248.198 E158.9141
G1 X-343.035 Y-248.716 E159.03975
G1 X-342.416 Y-249.196 E159.16541
G1 X-341.768 Y-249.637 E159.29107
G1 X-341.093 Y-250.036 E159.41672
G1 X-340.395 Y-250.391 E159.54238
G1 X-339.686 Y-250.699 E159.66633
G1 X-338.938 Y-250.968 E159.79372
G1 X-338.186 Y-251.187 E159.91934
G1 X-337.421 Y-251.358 E160.045
G1 X-336.647 Y-251.48 E160.17066
G1 X-335.867 Y-251.554 E160.29631
G1 X-335.075 Y-251.579 E160.4233
G1 X-36.092 Y-251.579 E208.3624
G1 X-35.311 Y-251.554 E208.48767
G1 X-34.52 Y-251.48 E208.61507
G1 X-33.746 Y-251.358 E208.74069
G1 X-32.981 Y-251.187 E208.86635
G1 X-32.229 Y-250.968 E208.992
G1 X-31.491 Y-250.703 E209.11766
G1 X-30.772 Y-250.391 E209.24332
G1 X-30.074 Y-250.036 E209.36897
G1 X-29.399 Y-249.637 E209.49462
G1 X-28.751 Y-249.196 E209.62028
G1 X-28.132 Y-248.716 E209.74594
G1 X-27.544 Y-248.198 E209.8716
G1 X-26.99 Y-247.644 E209.99725
G1 X-26.472 Y-247.056 E210.1229
G1 X-25.991 Y-246.436 E210.24856
G1 X-25.551 Y-245.788 E210.37421
G1 X-25.152 Y-245.114 E210.49987
G1 X-24.796 Y-244.415 E210.62553
G1 X-24.485 Y-243.696 E210.75118
G1 X-24.219 Y-242.959 E210.87684
G1 X-24.001 Y-242.206 E211.0025
G1 X-23.83 Y-241.442 E211.12815
G1 X-23.707 Y-240.668 E211.25381
G1 X-23.633 Y-239.887 E211.37946
G1 X-23.609 Y-239.096 E211.50645
G1 X-23.609 Y-225.905 E213.62146
G1 X-28.534 Y-217.375 E215.20082
G1 E214.20082 F2400
G92 E0
G1 X-305.431 Y-60.859 F4800
G1 E1 F2400
G1 F1800
G1 X-305.082 Y-60.231 E1.11518
G1 X-304.773 Y-59.583 E1.23036
G1 X-304.506 Y-58.916 E1.34554
G1 X-304.282 Y-58.233 E1.46072
G1 X-304.101 Y-57.538 E1.57589
G1 X-303.965 Y-56.833 E1.69107
G1 X-303.874 Y-56.116 E1.80692
G1 X-303.823 Y-55.044 E1.97899
G1 X-303.874 Y-53.972 E2.15105
G1 X-303.965 Y-53.255 E2.2669
G1 X-304.101 Y-52.55 E2.38208
G1 X-304.282 Y-51.855 E2.49726
G1 X-304.497 Y-51.199 E2.60794
G1 X-304.773 Y-50.506 E2.7275
G1 X-305.082 Y-49.857 E2.84278
G1 X-305.417 Y-49.254 E2.95347
G1 X-305.819 Y-48.625 E3.07303
G1 X-306.245 Y-48.046 E3.18831
G1 X-306.707 Y-47.496 E3.30349
G1 X-307.203 Y-46.976 E3.41867
G1 X-307.73 Y-46.489 E3.53385
G1 X-308.288 Y-46.036 E3.64903
G1 X-308.873 Y-45.619 E3.7642
G1 X-309.483 Y-45.24 E3.87938
G1 X-310.117 Y-44.901 E3.99456
G1 X-310.77 Y-44.603 E4.10974
G1 X-311.441 Y-44.346 E4.22492
G1 X-312.127 Y-44.133 E4.34009
G1 X-312.825 Y-43.964 E4.45527
G1 X-313.532 Y-43.839 E4.57045
G1 X-314.246 Y-43.759 E4.68563
G1 X-314.964 Y-43.725 E4.80081
G1 X-315.682 Y-43.737 E4.91599
G1 X-316.398 Y-43.794 E5.03117
G1 X-317.109 Y-43.896 E5.14634
G1 X-317.812 Y-44.043 E5.26152
G1 X-318.505 Y-44.234 E5.3767
G1 X-319.184 Y-44.469 E5.49188
G1 X-319.846 Y-44.747 E5.60706
G1 X-320.49 Y-45.066 E5.72224
G1 X-321.112 Y-45.425 E5.83742
G1 X-321.71 Y-45.823 E5.95259
G1 X-322.282 Y-46.258 E6.06777
G1 X-322.824 Y-46.728 E6.18295
G1 X-323.336 Y-47.232 E6.29813
G1 X-323.815 Y-47.767 E6.41331
G1 X-324.259 Y-48.332 E6.52849
G1 X-324.667 Y-48.924 E6.64366
G1 X-325.036 Y-49.54 E6.75884
G1 X-325.365 Y-50.179 E6.87402
G1 X-325.653 Y-50.837 E6.9892
G1 X-325.899 Y-51.512 E7.10438
G1 X-326.101 Y-52.201 E7.21956
G1 X-326.253 Y-52.874 E7.33024
G1 X-326.373 Y-53.61 E7.4498
G1 X-326.441 Y-54.326 E7.56508
G1 X-326.464 Y-55.044 E7.68026
G1 X-326.441 Y-55.762 E7.79544
G1 X-326.373 Y-56.477 E7.91062
G1 X-326.259 Y-57.186 E8.0258
G1 X-326.101 Y-57.887 E8.14097
G1 X-325.899 Y-58.576 E8.25615
G1 X-325.653 Y-59.251 E8.37133
G1 X-325.365 Y-59.909 E8.48651
G1 X-325.036 Y-60.548 E8.60169
G1 X-324.667 Y-61.164 E8.71687
G1 X-324.259 Y-61.756 E8.83204
G1 X-323.833 Y-62.298 E8.94273
G1 X-323.337 Y-62.855 E9.06229
G1 X-322.824 Y-63.36 E9.17757
G1 X-322.282 Y-63.83 E9.29275
G1 X-321.71 Y-64.265 E9.40793
G1 X-321.112 Y-64.663 E9.52311
G1 X-320.49 Y-65.022 E9.63828
G1 X-319.846 Y-65.341 E9.75347
G1 X-319.184 Y-65.619 E9.86865
G1 X-318.505 Y-65.854 E9.98382
G1 X-317.812 Y-66.045 E10.099
G1 X-317.109 Y-66.192 E10.21418
G1 X-316.398 Y-66.295 E10.32936
G1 X-315.682 Y-66.351 E10.44454
G1 X-314.992 Y-66.362 E10.55522
G1 X-314.247 Y-66.329 E10.67478
G1 X-313.532 Y-66.249 E10.79006
G1 X-312.825 Y-66.124 E10.90524
G1 X-312.127 Y-65.955 E11.02042
G1 X-311.441 Y-65.742 E11.1356
G1 X-310.77 Y-65.485 E11.25078
G1 X-310.117 Y-65.187 E11.36595
G1 X-309.483 Y-64.848 E11.48113
G1 X-308.873 Y-64.469 E11.59631
G1 X-308.288 Y-64.052 E11.71149
G1 X-307.73 Y-63.599 E11.82667
G1 X-307.203 Y-63.112 E11.94185
G1 X-306.707 Y-62.592 E12.05702
G1 X-306.263 Y-62.063 E12.16771
G1 X-305.82 Y-61.464 E12.28727
G1 X-305.512 Y-60.985 E12.3785
G1 E11.3785 F2400
G92 E0
G1 X-314.246 Y-207.879 F4800
G1 E1 F2400
G1 F1800
G1 X-314.964 Y-207.845 E1.11518
G1 X-315.682 Y-207.857 E1.23036
G1 X-316.398 Y-207.914 E1.34554
G1 X-317.109 Y-208.016 E1.46072
G1 X-317.812 Y-208.163 E1.57589
G1 X-318.505 Y-208.354 E1.69107
G1 X-319.184 Y-208.589 E1.80625
G1 X-319.846 Y-208.867 E1.92143
G1 X-320.49 Y-209.186 E2.03661
G1 X-321.112 Y-209.545 E2.15178
G1 X-321.71 Y-209.943 E2.26697
G1 X-322.282 Y-210.378 E2.38214
G1 X-322.824 Y-210.848 E2.49732
G1 X-323.336 Y-211.352 E2.6125
G1 X-323.797 Y-211.867 E2.72318
G1 X-324.259 Y-212.452 E2.84275
G1 X-324.667 Y-213.044 E2.95802
G1 X-325.036 Y-213.66 E3.07321
G1 X-325.365 Y-214.299 E3.18838
G1 X-325.653 Y-214.957 E3.30356
G1 X-325.899 Y-215.632 E3.41874
G1 X-326.101 Y-216.321 E3.53392
G1 X-326.253 Y-216.994 E3.6446
G1 X-326.373 Y-217.73 E3.76416
G1 X-326.441 Y-218.446 E3.87945
G1 X-326.464 Y-219.164 E3.99462
G1 X-326.441 Y-219.882 E4.1098
G1 X-326.373 Y-220.597 E4.22498
G1 X-326.259 Y-221.306 E4.34016
G1 X-326.101 Y-222.007 E4.45534
G1 X-325.899 Y-222.696 E4.57052
G1 X-325.653 Y-223.371 E4.68569
G1 X-325.365 Y-224.029 E4.80087
G1 X-325.049 Y-224.643 E4.91156
G1 X-324.667 Y-225.284 E5.03112
G1 X-324.259 Y-225.876 E5.1464
G1 X-323.833 Y-226.419 E5.25708
G1 X-323.337 Y-226.975 E5.37665
G1 X-322.824 Y-227.48 E5.49193
G1 X-322.282 Y-227.95 E5.60711
G1 X-321.71 Y-228.385 E5.72228
G1 X-321.112 Y-228.783 E5.83746
G1 X-320.49 Y-229.142 E5.95264
G1 X-319.846 Y-229.461 E6.06782
G1 X-319.184 Y-229.739 E6.183
G1 X-318.505 Y-229.974 E6.29818
G1 X-317.812 Y-230.165 E6.41335
G1 X-317.109 Y-230.312 E6.52853
G1 X-316.398 Y-230.415 E6.64371
G1 X-315.682 Y-230.471 E6.75889
G1 X-314.992 Y-230.482 E6.86957
G1 X-314.247 Y-230.449 E6.98914
G1 X-313.532 Y-230.369 E7.10441
G1 X-312.825 Y-230.244 E7.21959
G1 X-312.127 Y-230.075 E7.33478
G1 X-311.441 Y-229.862 E7.44995
G1 X-310.77 Y-229.605 E7.56513
G1 X-310.117 Y-229.307 E7.68031
G1 X-309.483 Y-228.968 E7.79549
G1 X-308.873 Y-228.589 E7.91066
G1 X-308.288 Y-228.172 E8.02584
G1 X-307.73 Y-227.719 E8.14102
G1 X-307.203 Y-227.232 E8.2562
G1 X-306.707 Y-226.712 E8.37138
G1 X-306.263 Y-226.183 E8.48206
G1 X-305.82 Y-225.584 E8.60162
G1 X-305.431 Y-224.979 E8.71691
G1 X-305.082 Y-224.351 E8.83209
G1 X-304.773 Y-223.703 E8.94726
G1 X-304.506 Y-223.036 E9.06244
G1 X-304.282 Y-222.353 E9.17762
