; generated by PrusaSlicer 2.4.2+win64 on 2022-08-27 at 23:05:08 UTC

; 

; external perimeters extrusion width = 1.12mm
; perimeters extrusion width = 1.12mm
; infill extrusion width = 1.12mm
; solid infill extrusion width = 1.12mm
; top infill extrusion width = 1.00mm
; first layer extrusion width = 1.05mm

M107
M190 S60 ; set bed temperature and wait for it to be reached
M104 S215 ; set temperature
;TYPE:Custom
G28 ; home all axes
G1 Z5 F5000 ; lift nozzle
M109 S215 ; set temperature and wait for it to be reached
G21 ; set units to millimeters
G90 ; use absolute coordinates
M82 ; use absolute distances for extrusion
G92 E0
; Filament gcode
M107
;LAYER_CHANGE
;Z:0.4
;HEIGHT:0.4
G1 Z.4 F600
G1 E-1 F2400
G92 E0
G1 X-31.079 Y-30.693 F4800
G1 E1 F2400
;TYPE:Skirt/Brim
;WIDTH:1.05
G1 F1800
G1 X-31.992 Y-29.768 E1.20839
G1 X-33.63 Y-28.306 E1.5605
G1 X-35.357 Y-26.949 E1.91269
G1 X-37.166 Y-25.703 E2.26484
G1 X-39.433 Y-24.362 E2.6871
G1 X-41 Y-23.564 E2.96914
G1 X-43.01 Y-22.679 E3.3213
G1 X-45.072 Y-21.922 E3.67348
G1 X-47.601 Y-21.187 E4.09573
G1 X-49.747 Y-20.722 E4.44789
G1 X-51.919 Y-20.392 E4.80005
G1 X-53.67 Y-20.226 E5.08212
G1 X-55.865 Y-20.143 E5.43425
G1 X-315.302 Y-20.143 E47.03254
G1 X-317.497 Y-20.226 E47.3847
G1 X-319.248 Y-20.392 E47.66674
G1 X-321.42 Y-20.722 E48.0189
G1 X-323.566 Y-21.187 E48.37106
G1 X-325.679 Y-21.787 E48.72322
G1 X-327.75 Y-22.518 E49.07537
G1 X-330.167 Y-23.564 E49.49765
G1 X-332.118 Y-24.573 E49.8498
G1 X-334.001 Y-25.703 E50.20196
G1 X-335.81 Y-26.949 E50.55414
G1 X-337.2 Y-28.027 E50.83618
G1 X-338.856 Y-29.469 E51.18833
G1 X-340.419 Y-31.012 E51.54049
G1 X-341.882 Y-32.651 E51.89266
G1 X-343.239 Y-34.378 E52.2448
G1 X-344.485 Y-36.187 E52.59698
G1 X-345.614 Y-38.07 E52.94913
G1 X-346.81 Y-40.416 E53.37139
G1 X-347.67 Y-42.438 E53.72356
G1 X-348.266 Y-44.093 E54.0056
G1 X-348.891 Y-46.198 E54.35775
G1 X-349.384 Y-48.338 E54.70993
G1 X-349.796 Y-50.939 E55.13218
G1 X-349.989 Y-53.127 E55.48434
G1 X-355.045 Y-225.56 E83.14422
G1 X-355.019 Y-240.128 E85.48003
G1 X-354.859 Y-241.823 E85.75296
G1 X-354.363 Y-244.28 E86.15489
G1 X-354 Y-245.48 E86.35597
G1 X-353.24 Y-247.4 E86.68698
G1 X-352.478 Y-248.897 E86.95639
G1 X-351.82 Y-249.984 E87.16011
G1 X-351.103 Y-251.014 E87.36121
G1 X-349.784 Y-252.609 E87.69312
G1 X-348.588 Y-253.804 E87.96428
G1 X-346.998 Y-255.121 E88.29529
G1 X-345.608 Y-256.066 E88.5647
G1 X-344.508 Y-256.701 E88.76846
G1 X-342.65 Y-257.576 E89.09767
G1 X-341.475 Y-258.015 E89.29875
G1 X-340.265 Y-258.382 E89.50156
G1 X-338.625 Y-258.749 E89.77101
G1 X-336.555 Y-259.012 E90.10556
G1 X-335.094 Y-259.068 E90.33997
G1 X-35.865 Y-259.065 E138.31855
G1 X-33.815 Y-258.936 E138.64779
G1 X-32.145 Y-258.673 E138.91897
G1 X-30.123 Y-258.155 E139.25356
G1 X-28.532 Y-257.582 E139.52472
G1 X-26.659 Y-256.701 E139.85662
G1 X-25.203 Y-255.84 E140.1278
G1 X-23.191 Y-254.344 E140.52978
G1 X-21.694 Y-252.939 E140.85898
G1 X-20.564 Y-251.659 E141.13282
G1 X-19.353 Y-249.993 E141.463
G1 X-18.487 Y-248.529 E141.73589
G1 X-17.607 Y-246.661 E142.0669
G1 X-17.032 Y-245.064 E142.33902
G1 X-16.52 Y-243.07 E142.66916
G1 X-16.253 Y-241.389 E142.9421
G1 X-16.12 Y-239.115 E143.30728
G1 X-16.122 Y-225.56 E145.48065
G1 X-21.206 Y-52.691 E173.21061
G1 X-21.426 Y-50.505 E173.56279
G1 X-21.701 Y-48.768 E173.84483
G1 X-22.276 Y-46.198 E174.26711
G1 X-22.901 Y-44.092 E174.61927
G1 X-23.658 Y-42.031 E174.97141
G1 X-24.357 Y-40.416 E175.25345
G1 X-25.342 Y-38.453 E175.60563
G1 X-26.448 Y-36.556 E175.95779
G1 X-27.671 Y-34.732 E176.30994
G1 X-29.285 Y-32.651 E176.7322
G1 X-30.448 Y-31.331 E177.01423
G1 X-30.973 Y-30.8 E177.134
G1 E176.134 F2400
G92 E0
G1 X-28.609 Y-217.245 F4800
G1 E1 F2400
;TYPE:External perimeter
G1 F1800
G1 X-28.609 Y-55.112 E26.99636
G1 X-28.663 Y-53.379 E27.27444
G1 X-28.825 Y-51.661 E27.55118
G1 X-29.095 Y-49.956 E27.82793
G1 X-29.472 Y-48.271 E28.10468
G1 X-29.953 Y-46.614 E28.38143
G1 X-30.538 Y-44.99 E28.65818
G1 X-31.224 Y-43.406 E28.93493
G1 X-32.007 Y-41.868 E29.21167
G1 X-32.886 Y-40.382 E29.48843
G1 X-33.856 Y-38.955 E29.76517
G1 X-34.914 Y-37.591 E30.04192
G1 X-36.055 Y-36.296 E30.31867
G1 X-37.276 Y-35.076 E30.59542
G1 X-38.57 Y-33.934 E30.87216
G1 X-39.934 Y-32.876 E31.14891
G1 X-41.362 Y-31.906 E31.42566
G1 X-42.847 Y-31.028 E31.70241
G1 X-44.385 Y-30.244 E31.97916
G1 X-45.969 Y-29.559 E32.25591
G1 X-47.593 Y-28.974 E32.53266
G1 X-49.251 Y-28.492 E32.8094
G1 X-50.935 Y-28.116 E33.08615
G1 X-52.64 Y-27.846 E33.3629
G1 X-54.358 Y-27.683 E33.63965
G1 X-56.092 Y-27.629 E33.91772
G1 X-60.075 Y-27.629 E34.55643
G1 X-61.809 Y-27.683 E34.83451
G1 X-63.527 Y-27.846 E35.11125
G1 X-65.232 Y-28.116 E35.388
G1 X-66.916 Y-28.492 E35.66475
G1 X-68.574 Y-28.974 E35.9415
G1 X-70.198 Y-29.559 E36.21825
G1 X-71.782 Y-30.244 E36.495
G1 X-73.32 Y-31.028 E36.77174
G1 X-74.805 Y-31.906 E37.04849
G1 X-76.233 Y-32.876 E37.32524
G1 X-77.597 Y-33.934 E37.60199
G1 X-78.891 Y-35.076 E37.87874
G1 X-80.112 Y-36.296 E38.15548
G1 X-81.253 Y-37.591 E38.43223
G1 X-82.311 Y-38.955 E38.70898
G1 X-83.281 Y-40.382 E38.98573
G1 X-84.16 Y-41.868 E39.26248
G1 X-84.943 Y-43.406 E39.53923
G1 X-85.629 Y-44.99 E39.81597
G1 X-86.214 Y-46.614 E40.09272
G1 X-86.695 Y-48.271 E40.36947
G1 X-87.072 Y-49.956 E40.64622
G1 X-87.342 Y-51.661 E40.92297
G1 X-87.504 Y-53.379 E41.19971
G1 X-87.559 Y-55.112 E41.47779
G1 X-87.559 Y-164.112 E58.95488
G1 X-87.615 Y-165.895 E59.24089
G1 X-87.783 Y-167.679 E59.52822
G1 X-88.063 Y-169.449 E59.81555
G1 X-88.454 Y-171.198 E60.10288
G1 X-88.954 Y-172.919 E60.39021
G1 X-89.561 Y-174.605 E60.67754
G1 X-90.273 Y-176.249 E60.96487
G1 X-91.087 Y-177.846 E61.2522
G1 X-91.999 Y-179.389 E61.53953
G1 X-93.006 Y-180.871 E61.82686
G1 X-94.104 Y-182.287 E62.11419
G1 X-95.289 Y-183.631 E62.40152
G1 X-96.557 Y-184.898 E62.68885
G1 X-97.901 Y-186.083 E62.97618
G1 X-99.317 Y-187.181 E63.26351
G1 X-100.799 Y-188.189 E63.55084
G1 X-102.341 Y-189.101 E63.83817
G1 X-103.939 Y-189.915 E64.1256
G1 X-105.649 Y-190.65 E64.42419
G1 X-107.269 Y-191.233 E64.70013
G1 X-108.99 Y-191.733 E64.98746
G1 X-110.738 Y-192.124 E65.27479
G1 X-112.508 Y-192.404 E65.56213
G1 X-114.292 Y-192.573 E65.84945
G1 X-116.075 Y-192.629 E66.13546
G1 X-255.092 Y-192.629 E88.42541
G1 X-256.875 Y-192.573 E88.71142
G1 X-258.659 Y-192.404 E88.99875
G1 X-260.429 Y-192.124 E89.28608
G1 X-262.177 Y-191.733 E89.57341
G1 X-263.898 Y-191.233 E89.86074
G1 X-265.585 Y-190.626 E90.14817
G1 X-267.292 Y-189.882 E90.44676
G1 X-268.826 Y-189.101 E90.72271
G1 X-270.368 Y-188.189 E91.01004
G1 X-271.85 Y-187.181 E91.29737
G1 X-273.266 Y-186.083 E91.5847
G1 X-274.61 Y-184.898 E91.87203
G1 X-275.878 Y-183.631 E92.15936
G1 X-277.063 Y-182.287 E92.44668
G1 X-278.161 Y-180.87 E92.73412
G1 X-279.204 Y-179.328 E93.03271
G1 X-280.08 Y-177.846 E93.30865
G1 X-280.894 Y-176.249 E93.59598
G1 X-281.606 Y-174.605 E93.88331
G1 X-282.213 Y-172.919 E94.17064
G1 X-282.713 Y-171.198 E94.45797
G1 X-283.104 Y-169.449 E94.7453
G1 X-283.384 Y-167.679 E95.03263
G1 X-283.552 Y-165.895 E95.31996
G1 X-283.609 Y-164.112 E95.60597
G1 X-283.609 Y-55.112 E113.08307
G1 X-283.663 Y-53.379 E113.36114
G1 X-283.825 Y-51.661 E113.63788
G1 X-284.095 Y-49.956 E113.91463
G1 X-284.472 Y-48.271 E114.19138
G1 X-284.953 Y-46.614 E114.46813
G1 X-285.538 Y-44.99 E114.74488
G1 X-286.224 Y-43.406 E115.02163
G1 X-287.007 Y-41.868 E115.29838
G1 X-287.886 Y-40.382 E115.57512
G1 X-288.856 Y-38.955 E115.85187
G1 X-289.914 Y-37.591 E116.12862
G1 X-291.055 Y-36.296 E116.40537
G1 X-292.276 Y-35.076 E116.68212
G1 X-293.57 Y-33.934 E116.95886
G1 X-294.934 Y-32.876 E117.23561
G1 X-296.304 Y-31.946 E117.50118
G1 X-297.848 Y-31.027 E117.78919
G1 X-299.385 Y-30.244 E118.06583
G1 X-300.969 Y-29.559 E118.34259
G1 X-302.593 Y-28.974 E118.61933
G1 X-304.251 Y-28.492 E118.89608
G1 X-305.935 Y-28.116 E119.17283
G1 X-307.64 Y-27.846 E119.44958
G1 X-309.358 Y-27.683 E119.72633
G1 X-311.092 Y-27.629 E120.0044
G1 X-315.075 Y-27.629 E120.64311
G1 X-316.809 Y-27.683 E120.92118
G1 X-318.527 Y-27.846 E121.19793
G1 X-320.232 Y-28.116 E121.47468
G1 X-321.916 Y-28.492 E121.75143
G1 X-323.574 Y-28.974 E122.02818
G1 X-325.198 Y-29.559 E122.30492
G1 X-326.782 Y-30.244 E122.58167
G1 X-328.32 Y-31.028 E122.85842
G1 X-329.805 Y-31.906 E123.13517
G1 X-331.233 Y-32.876 E123.41192
G1 X-332.597 Y-33.934 E123.68867
G1 X-333.891 Y-35.076 E123.96541
G1 X-335.112 Y-36.296 E124.24216
G1 X-336.253 Y-37.591 E124.51891
G1 X-337.311 Y-38.955 E124.79566
G1 X-338.281 Y-40.382 E125.07241
G1 X-339.16 Y-41.868 E125.34916
G1 X-339.943 Y-43.406 E125.6259
G1 X-340.629 Y-44.99 E125.90265
G1 X-341.214 Y-46.614 E126.1794
G1 X-341.695 Y-48.271 E126.45615
G1 X-342.072 Y-49.956 E126.73289
G1 X-342.342 Y-51.661 E127.00965
G1 X-342.504 Y-53.379 E127.28639
G1 X-342.559 Y-55.112 E127.56446
G1 X-342.559 Y-217.245 E153.56083
G1 X-347.559 Y-225.905 E155.16423
G1 X-347.559 Y-239.096 E157.27925
G1 X-347.534 Y-239.887 E157.40624
G1 X-347.46 Y-240.668 E157.53189
G1 X-347.337 Y-241.442 E157.65755
G1 X-347.166 Y-242.206 E157.7832
G1 X-346.948 Y-242.959 E157.90886
G1 X-346.686 Y-243.686 E158.0328
G1 X-346.371 Y-244.416 E158.1602
G1 X-346.015 Y-245.114 E158.28582
G1 X-345.616 Y-245.788 E158.41148
G1 X-345.176 Y-246.436 E158.53713
G1 X-344.695 Y-247.056 E158.66279
G1 X-344.177 Y-247.644 E158.78844
G1 X-343.623 Y-248.198 E158.9141
G1 X-343.035 Y-248.716 E159.03975
G1 X-342.416 Y-249.196 E159.16541
G1 X-341.768 Y-249.637 E159.29107
G1 X-341.093 Y-250.036 E159.41672
G1 X-340.395 Y-250.391 E159.54238
G1 X-339.686 Y-250.699 E159.66633
G1 X-338.938 Y-250.968 E159.79372
G1 X-338.186 Y-251.187 E159.91934
G1 X-337.421 Y-251.358 E160.045
G1 X-336.647 Y-251.48 E160.17066
G1 X-335.867 Y-251.554 E160.29631
G1 X-335.075 Y-251.579 E160.4233
G1 X-36.092 Y-251.579 E208.3624
G1 X-35.311 Y-251.554 E208.48767
G1 X-34.52 Y-251.48 E208.61507
G1 X-33.746 Y-251.358 E208.74069
G1 X-32.981 Y-251.187 E208.86635
G1 X-32.229 Y-250.968 E208.992
G1 X-31.491 Y-250.703 E209.11766
G1 X-30.772 Y-250.391 E209.24332
G1 X-30.074 Y-250.036 E209.36897
G1 X-29.399 Y-249.637 E209.49462
G1 X-28.751 Y-249.196 E209.62028
G1 X-28.132 Y-248.716 E209.74594
G1 X-27.544 Y-248.198 E209.8716
G1 X-26.99 Y-247.644 E209.99725
G1 X-26.472 Y-247.056 E210.1229
G1 X-25.991 Y-246.436 E210.24856
G1 X-25.551 Y-245.788 E210.37421
G1 X-25.152 Y-245.114 E210.49987
G1 X-24.796 Y-244.415 E210.62553
G1 X-24.485 Y-243.696 E210.75118
G1 X-24.219 Y-242.959 E210.87684
G1 X-24.001 Y-242.206 E211.0025
G1 X-23.83 Y-241.442 E211.12815
G1 X-23.707 Y-240.668 E211.25381
G1 X-23.633 Y-239.887 E211.37946
G1 X-23.609 Y-239.096 E211.50645
G1 X-23.609 Y-225.905 E213.62146
G1 X-28.534 Y-217.375 E215.20082
G1 X-29.51 Y-216.811 F4800
G1 X-29.368 Y-217.857
;TYPE:Perimeter
G1 F1800
G1 X-29.573 Y-217.503 E215.26629
G1 X-29.573 Y-55.127 E241.30165
G1 X-29.626 Y-53.439 E241.57244
G1 X-29.782 Y-51.781 E241.83947
G1 X-30.043 Y-50.137 E242.1065
G1 X-30.406 Y-48.511 E242.37353
G1 X-30.871 Y-46.912 E242.64056
G1 X-31.435 Y-45.345 E242.9076
G1 X-32.096 Y-43.817 E243.17463
G1 X-32.853 Y-42.333 E243.44165
G1 X-33.7 Y-40.899 E243.70869
G1 X-34.636 Y-39.522 E243.97572
G1 X-35.657 Y-38.206 E244.24275
G1 X-36.758 Y-36.957 E244.50978
G1 X-37.936 Y-35.779 E244.77682
G1 X-39.185 Y-34.678 E245.04385
G1 X-40.501 Y-33.657 E245.31088
G1 X-41.879 Y-32.721 E245.57791
G1 X-43.312 Y-31.873 E245.84494
G1 X-44.796 Y-31.117 E246.11197
G1 X-46.324 Y-30.456 E246.37901
G1 X-47.891 Y-29.891 E246.64604
G1 X-49.491 Y-29.427 E246.91307
G1 X-51.116 Y-29.063 E247.1801
G1 X-52.761 Y-28.803 E247.44713
G1 X-54.419 Y-28.646 E247.71417
G1 X-56.107 Y-28.593 E247.98495
G1 X-60.06 Y-28.593 E248.61881
G1 X-61.748 Y-28.646 E248.88959
G1 X-63.406 Y-28.803 E249.15662
G1 X-65.051 Y-29.063 E249.42366
G1 X-66.676 Y-29.427 E249.69069
G1 X-68.276 Y-29.891 E249.95772
G1 X-69.843 Y-30.456 E250.22475
G1 X-71.371 Y-31.117 E250.49178
G1 X-72.855 Y-31.873 E250.75881
G1 X-74.288 Y-32.721 E251.02584
G1 X-75.666 Y-33.657 E251.29287
G1 X-76.982 Y-34.678 E251.55991
G1 X-78.231 Y-35.779 E251.82694
G1 X-79.409 Y-36.957 E252.09397
G1 X-80.51 Y-38.206 E252.361
G1 X-81.531 Y-39.522 E252.62803
G1 X-82.467 Y-40.899 E252.89506
G1 X-83.314 Y-42.333 E253.1621
G1 X-84.071 Y-43.817 E253.42913
G1 X-84.732 Y-45.345 E253.69616
G1 X-85.296 Y-46.912 E253.96319
G1 X-85.761 Y-48.511 E254.23022
G1 X-86.124 Y-50.137 E254.49725
G1 X-86.385 Y-51.781 E254.76429
G1 X-86.541 Y-53.439 E255.03132
G1 X-86.594 Y-55.127 E255.3021
G1 X-86.594 Y-164.127 E272.7792
G1 X-86.652 Y-165.956 E273.07249
G1 X-86.826 Y-167.8 E273.36954
G1 X-87.116 Y-169.63 E273.66659
G1 X-87.52 Y-171.438 E273.96363
G1 X-88.037 Y-173.217 E274.26068
G1 X-88.665 Y-174.96 E274.55773
G1 X-89.4 Y-176.66 E274.85477
G1 X-90.241 Y-178.311 E275.15182
G1 X-91.184 Y-179.905 E275.44886
G1 X-92.226 Y-181.438 E275.74591
G1 X-93.361 Y-182.902 E276.04296
G1 X-94.586 Y-184.291 E276.34
G1 X-95.896 Y-185.601 E276.63705
G1 X-97.286 Y-186.826 E276.93409
G1 X-98.75 Y-187.962 E277.23114
G1 X-100.282 Y-189.003 E277.52819
G1 X-101.877 Y-189.946 E277.82524
G1 X-103.529 Y-190.788 E278.12257
G1 X-105.295 Y-191.547 E278.43088
G1 X-106.971 Y-192.151 E278.71635
G1 X-108.75 Y-192.667 E279.0134
G1 X-110.558 Y-193.072 E279.31045
G1 X-112.387 Y-193.361 E279.6075
G1 X-114.232 Y-193.536 E279.90454
G1 X-116.06 Y-193.593 E280.19783
G1 X-255.107 Y-193.593 E302.49264
G1 X-256.935 Y-193.536 E302.78593
G1 X-258.78 Y-193.361 E303.08298
G1 X-260.609 Y-193.072 E303.38003
G1 X-262.417 Y-192.667 E303.67708
G1 X-264.196 Y-192.151 E303.97412
G1 X-265.941 Y-191.522 E304.27146
G1 X-267.704 Y-190.755 E304.57976
G1 X-269.29 Y-189.946 E304.86524
G1 X-270.885 Y-189.003 E305.16229
G1 X-272.417 Y-187.962 E305.45933
G1 X-273.881 Y-186.826 E305.75638
G1 X-275.271 Y-185.601 E306.05342
G1 X-276.581 Y-184.291 E306.35047
G1 X-277.806 Y-182.902 E306.64752
G1 X-278.942 Y-181.436 E306.94485
G1 X-280.019 Y-179.843 E307.25316
G1 X-280.926 Y-178.311 E307.53864
G1 X-281.767 Y-176.66 E307.83568
G1 X-282.503 Y-174.96 E308.13273
G1 X-283.13 Y-173.217 E308.42978
G1 X-283.647 Y-171.438 E308.72682
G1 X-284.051 Y-169.63 E309.02387
G1 X-284.341 Y-167.8 E309.32091
G1 X-284.515 Y-165.956 E309.61796
G1 X-284.573 Y-164.127 E309.91126
G1 X-284.573 Y-55.127 E327.38836
G1 X-284.626 Y-53.439 E327.65913
G1 X-284.782 Y-51.781 E327.92616
G1 X-285.043 Y-50.137 E328.1932
G1 X-285.406 Y-48.511 E328.46023
G1 X-285.871 Y-46.912 E328.72726
G1 X-286.435 Y-45.345 E328.99429
G1 X-287.096 Y-43.817 E329.26133
G1 X-287.853 Y-42.333 E329.52836
G1 X-288.7 Y-40.899 E329.79538
G1 X-289.636 Y-39.522 E330.06242
G1 X-290.657 Y-38.206 E330.32945
G1 X-291.758 Y-36.957 E330.59648
G1 X-292.936 Y-35.779 E330.86352
G1 X-294.185 Y-34.678 E331.13054
G1 X-295.501 Y-33.657 E331.39758
G1 X-296.822 Y-32.759 E331.65361
G1 X-298.314 Y-31.872 E331.93191
G1 X-299.796 Y-31.117 E332.19865
G1 X-301.324 Y-30.456 E332.46569
G1 X-302.891 Y-29.891 E332.73271
G1 X-304.491 Y-29.427 E332.99975
G1 X-306.116 Y-29.063 E333.26677
G1 X-307.761 Y-28.803 E333.53381
G1 X-309.419 Y-28.646 E333.80084
G1 X-311.107 Y-28.593 E334.07163
G1 X-315.06 Y-28.593 E334.70548
G1 X-316.748 Y-28.646 E334.97627
G1 X-318.406 Y-28.803 E335.2433
G1 X-320.051 Y-29.063 E335.51033
G1 X-321.676 Y-29.427 E335.77737
G1 X-323.276 Y-29.891 E336.0444
G1 X-324.843 Y-30.456 E336.31142
G1 X-326.371 Y-31.117 E336.57846
G1 X-327.855 Y-31.873 E336.84549
G1 X-329.288 Y-32.721 E337.11252
G1 X-330.666 Y-33.657 E337.37955
G1 X-331.982 Y-34.678 E337.64659
G1 X-333.231 Y-35.779 E337.91362
G1 X-334.409 Y-36.957 E338.18065
G1 X-335.51 Y-38.206 E338.44768
G1 X-336.531 Y-39.522 E338.71471
G1 X-337.467 Y-40.899 E338.98174
G1 X-338.315 Y-42.333 E339.24878
G1 X-339.071 Y-43.817 E339.5158
G1 X-339.732 Y-45.345 E339.78284
G1 X-340.296 Y-46.912 E340.04987
G1 X-340.761 Y-48.511 E340.3169
G1 X-341.124 Y-50.137 E340.58393
G1 X-341.385 Y-51.781 E340.85097
G1 X-341.541 Y-53.439 E341.118
G1 X-341.594 Y-55.127 E341.38878
G1 X-341.594 Y-217.503 E367.42414
G1 X-346.594 Y-226.163 E369.02755
G1 X-346.594 Y-239.081 E371.09871
G1 X-346.571 Y-239.827 E371.21841
G1 X-346.503 Y-240.547 E371.33434
G1 X-346.39 Y-241.261 E371.45029
G1 X-346.232 Y-241.966 E371.56623
