; generated by PrusaSlicer 2.4.2+win64 on 2022-07-18 at 02:12:48 UTC

; 

; external perimeters extrusion width = 1.12mm
; perimeters extrusion width = 1.12mm
; infill extrusion width = 1.12mm
; solid infill extrusion width = 1.12mm
; top infill extrusion width = 1.00mm
; first layer extrusion width = 1.05mm

M107
M190 S60 ; set bed temperature and wait for it to be reached
M104 S215 ; set temperature
;TYPE:Custom
G28 ; home all axes
G1 Z5 F5000 ; lift nozzle
M109 S215 ; set temperature and wait for it to be reached
G21 ; set units to millimeters
G90 ; use absolute coordinates
M82 ; use absolute distances for extrusion
G92 E0
; Filament gcode
M107
;LAYER_CHANGE
;Z:0.4
;HEIGHT:0.4
G1 Z.4 F600
G1 E-1 F2400
G92 E0
G1 X-77.033 Y-107.737 F4800
G1 E1 F2400
;TYPE:Skirt/Brim
;WIDTH:1.05
G1 F1800
G1 X-78.284 Y-106.891 E1.24223
G1 X-79.563 Y-106.216 E1.47398
G1 X-80.8 Y-105.717 E1.68796
G1 X-82.255 Y-105.302 E1.93057
G1 X-83.68 Y-105.059 E2.16224
G1 X-85.142 Y-104.969 E2.39718
G1 X-302.442 Y-104.969 E37.23906
G1 X-304.587 Y-105.189 E37.58488
G1 X-305.661 Y-105.441 E37.76168
G1 X-306.759 Y-105.806 E37.94721
G1 X-308.721 Y-106.766 E38.29739
G1 X-310.5 Y-108.061 E38.65028
G1 X-311.453 Y-108.984 E38.86299
G1 X-312.278 Y-109.969 E39.069
G1 X-313.007 Y-111.049 E39.27792
G1 X-313.686 Y-112.341 E39.51205
G1 X-314.163 Y-113.554 E39.72098
G1 X-314.517 Y-114.84 E39.93482
G1 X-314.741 Y-116.23 E40.16052
G1 X-314.809 Y-117.483 E40.36186
G1 X-314.806 Y-248.797 E61.41671
G1 X-314.565 Y-250.998 E61.77179
G1 X-313.993 Y-252.987 E62.10358
G1 X-313.072 Y-254.906 E62.44479
G1 X-311.784 Y-256.709 E62.80024
G1 X-310.937 Y-257.604 E62.99767
G1 X-309.914 Y-258.485 E63.21424
G1 X-308.866 Y-259.21 E63.4185
G1 X-307.623 Y-259.887 E63.6455
G1 X-306.406 Y-260.387 E63.85651
G1 X-305.3 Y-260.719 E64.04162
G1 X-303.992 Y-260.974 E64.2552
G1 X-302.686 Y-261.088 E64.46546
G1 X-176.499 Y-261.096 E84.6983
G1 X-103.426 Y-261.069 E96.41494
G1 X-101.973 Y-260.889 E96.64959
G1 X-100.629 Y-260.565 E96.87125
G1 X-99.261 Y-260.065 E97.10479
G1 X-98.027 Y-259.449 E97.32599
G1 X-96.718 Y-258.592 E97.57692
G1 X-95.594 Y-257.643 E97.81273
G1 X-94.7 Y-256.703 E98.02064
G1 X-93.784 Y-255.491 E98.26427
G1 X-93.144 Y-254.414 E98.46522
G1 X-92.575 Y-253.188 E98.68183
G1 X-92.183 Y-252.05 E98.87491
G1 X-91.919 Y-250.965 E99.0539
G1 X-71.799 Y-145.377 E116.28853
G1 X-71.681 Y-143.559 E116.58067
G1 X-71.681 Y-118.505 E120.5979
G1 X-71.738 Y-117.294 E120.79218
G1 X-72.092 Y-115.22 E121.12966
G1 X-72.735 Y-113.291 E121.4556
G1 X-73.695 Y-111.42 E121.79285
G1 X-74.989 Y-109.655 E122.14369
G1 X-75.931 Y-108.672 E122.36195
G1 X-76.918 Y-107.834 E122.56971
G1 E121.56971 F2400
G92 E0
G1 X-81.547 Y-113.889 F4800
G1 E1 F2400
G1 F1800
G1 X-82.556 Y-113.237 E1.19268
G1 X-83.199 Y-112.958 E1.30514
G1 X-83.9 Y-112.747 E1.42252
G1 X-85.132 Y-112.594 E1.62157
G1 X-152.283 Y-112.633 E12.38857
G1 X-152.89 Y-112.76 E12.48792
G1 X-153.443 Y-112.948 E12.58163
G1 X-154.363 Y-113.464 E12.75077
G1 X-154.934 Y-113.949 E12.87084
G1 X-155.364 Y-114.444 E12.97599
G1 X-155.752 Y-115.063 E13.09308
G1 X-156.067 Y-115.814 E13.22367
G1 X-156.275 Y-116.944 E13.40797
G1 X-156.284 Y-121.438 E14.12847
G1 X-156.301 Y-121.842 E14.19339
G1 X-156.342 Y-122.15 E14.2431
G1 X-156.404 Y-122.429 E14.28897
G1 X-156.563 Y-122.899 E14.36856
G1 X-156.826 Y-123.413 E14.46103
G1 X-157.121 Y-123.817 E14.54133
G1 X-157.454 Y-124.163 E14.61835
G1 X-157.824 Y-124.458 E14.6942
G1 X-158.046 Y-124.6 E14.73644
G1 X-158.484 Y-124.817 E14.81489
G1 X-158.925 Y-124.966 E14.88947
G1 X-159.381 Y-125.057 E14.96402
G1 X-159.845 Y-125.087 E15.03859
G1 X-160.309 Y-125.057 E15.11316
G1 X-160.765 Y-124.966 E15.18772
G1 X-161.206 Y-124.817 E15.26228
G1 X-161.654 Y-124.595 E15.34257
G1 X-162.133 Y-124.257 E15.43644
G1 X-162.353 Y-124.055 E15.48439
G1 X-162.564 Y-123.825 E15.53441
G1 X-162.857 Y-123.424 E15.61406
G1 X-163.001 Y-123.175 E15.66019
G1 X-163.127 Y-122.903 E15.70825
G1 X-163.284 Y-122.447 E15.78547
G1 X-163.388 Y-121.853 E15.88227
G1 X-163.406 Y-121.438 E15.94891
G1 X-163.407 Y-117.055 E16.65165
G1 X-163.506 Y-116.288 E16.77561
G1 X-163.67 Y-115.674 E16.87746
G1 X-163.862 Y-115.198 E16.95985
G1 X-164.241 Y-114.555 E17.07958
G1 X-164.537 Y-114.181 E17.15595
G1 X-165.215 Y-113.544 E17.3052
G1 X-165.585 Y-113.284 E17.37766
G1 X-166.102 Y-113.006 E17.47171
G1 X-166.731 Y-112.78 E17.57894
G1 X-167.86 Y-112.593 E17.76247
G1 X-183.778 Y-112.594 E20.3147
G1 X-184.432 Y-112.725 E20.4217
G1 X-185.137 Y-113.027 E20.5447
G1 X-185.535 Y-113.296 E20.62168
G1 X-186.697 Y-114.462 E20.88571
G1 X-186.964 Y-114.865 E20.96316
G1 X-187.285 Y-115.649 E21.09902
G1 X-187.384 Y-116.2 E21.18873
G1 X-187.384 Y-121.437 E22.02847
G1 X-187.401 Y-121.832 E22.09187
G1 X-187.477 Y-122.315 E22.17014
G1 X-187.608 Y-122.761 E22.2448
G1 X-187.849 Y-123.286 E22.33739
G1 X-188.143 Y-123.724 E22.42193
G1 X-188.3 Y-123.911 E22.4611
G1 X-188.653 Y-124.25 E22.5395
G1 X-189.086 Y-124.566 E22.62549
G1 X-189.567 Y-124.812 E22.71214
G1 X-190.025 Y-124.966 E22.78959
G1 X-190.468 Y-125.055 E22.86205
G1 X-190.932 Y-125.087 E22.93658
G1 X-191.403 Y-125.058 E23.01227
G1 X-191.878 Y-124.963 E23.08999
G1 X-192.327 Y-124.809 E23.16612
G1 X-192.585 Y-124.689 E23.2117
G1 X-192.901 Y-124.503 E23.27053
G1 X-193.098 Y-124.364 E23.30923
G1 X-193.464 Y-124.041 E23.3874
G1 X-193.687 Y-123.795 E23.4407
G1 X-193.956 Y-123.425 E23.51399
G1 X-194.093 Y-123.188 E23.55788
G1 X-194.295 Y-122.728 E23.6384
G1 X-194.385 Y-122.443 E23.68638
G1 X-194.489 Y-121.852 E23.78249
G1 X-194.507 Y-121.437 E23.84911
G1 X-194.507 Y-117.039 E24.55433
G1 X-194.61 Y-116.271 E24.67862
G1 X-194.842 Y-115.482 E24.81047
G1 X-195.082 Y-114.966 E24.90172
G1 X-195.521 Y-114.311 E25.02821
G1 X-195.85 Y-113.952 E25.1062
G1 X-196.524 Y-113.395 E25.24635
G1 X-197.473 Y-112.894 E25.41851
G1 X-198.037 Y-112.726 E25.51283
G1 X-198.908 Y-112.599 E25.65395
G1 X-221.579 Y-112.594 E29.28906
G1 X-222.93 Y-112.867 E29.51007
G1 X-223.623 Y-113.183 E29.63215
G1 X-224.167 Y-113.539 E29.73628
G1 X-224.689 Y-114.002 E29.84831
G1 X-225.328 Y-114.841 E30.01735
G1 X-225.751 Y-115.771 E30.1811
G1 X-225.975 Y-116.922 E30.36922
G1 X-225.984 Y-121.437 E31.09315
G1 X-226.001 Y-121.842 E31.15809
G1 X-226.042 Y-122.15 E31.20788
G1 X-226.105 Y-122.437 E31.25502
G1 X-226.215 Y-122.775 E31.31203
G1 X-226.4 Y-123.193 E31.38531
G1 X-226.54 Y-123.435 E31.43016
G1 X-226.829 Y-123.827 E31.50828
G1 X-227.152 Y-124.162 E31.58289
G1 X-227.511 Y-124.448 E31.6565
G1 X-227.903 Y-124.685 E31.72991
G1 X-228.322 Y-124.871 E31.80348
G1 X-228.653 Y-124.973 E31.85897
G1 X-229.08 Y-125.057 E31.92861
G1 X-229.531 Y-125.087 E32.00118
G1 X-230.004 Y-125.058 E32.07709
G1 X-230.465 Y-124.966 E32.15259
G1 X-230.915 Y-124.815 E32.22859
G1 X-231.18 Y-124.691 E32.27547
G1 X-231.583 Y-124.445 E32.35123
G1 X-231.947 Y-124.153 E32.42605
G1 X-232.269 Y-123.816 E32.50085
G1 X-232.55 Y-123.436 E32.57663
G1 X-232.689 Y-123.194 E32.62131
G1 X-232.891 Y-122.74 E32.70097
G1 X-232.985 Y-122.443 E32.75098
G1 X-233.089 Y-121.853 E32.84707
G1 X-233.107 Y-121.437 E32.91375
G1 X-233.107 Y-117.044 E33.61809
G1 X-233.239 Y-116.126 E33.76689
G1 X-233.453 Y-115.46 E33.879
G1 X-233.878 Y-114.652 E34.02536
G1 X-234.484 Y-113.922 E34.17751
G1 X-235.301 Y-113.283 E34.34376
G1 X-236.223 Y-112.841 E34.50783
G1 X-236.755 Y-112.698 E34.59608
G1 X-237.601 Y-112.593 E34.73278
G1 X-264.167 Y-112.594 E38.99244
G1 X-265.51 Y-112.86 E39.21197
G1 X-266.217 Y-113.179 E39.33626
G1 X-266.767 Y-113.539 E39.44158
G1 X-267.29 Y-114.002 E39.55364
G1 X-267.928 Y-114.842 E39.72267
G1 X-268.351 Y-115.771 E39.8864
G1 X-268.575 Y-116.922 E40.07448
G1 X-268.584 Y-121.438 E40.7985
G1 X-268.601 Y-121.842 E40.86345
G1 X-268.643 Y-122.16 E40.91481
G1 X-268.796 Y-122.733 E41.00996
G1 X-268.984 Y-123.16 E41.08478
G1 X-269.138 Y-123.43 E41.13463
G1 X-269.406 Y-123.796 E41.20736
G1 X-269.753 Y-124.164 E41.28838
G1 X-269.973 Y-124.348 E41.33437
G1 X-270.366 Y-124.61 E41.41015
G1 X-270.784 Y-124.817 E41.48495
G1 X-271.225 Y-124.966 E41.55952
G1 X-271.681 Y-125.057 E41.63408
G1 X-272.145 Y-125.087 E41.70865
G1 X-272.609 Y-125.057 E41.78321
G1 X-273.067 Y-124.965 E41.858
G1 X-273.492 Y-124.822 E41.93001
G1 X-273.921 Y-124.612 E42.00657
G1 X-274.202 Y-124.435 E42.05978
G1 X-274.638 Y-124.072 E42.15088
G1 X-274.876 Y-123.812 E42.20736
G1 X-275.217 Y-123.332 E42.30173
G1 X-275.485 Y-122.759 E42.40307
G1 X-275.584 Y-122.443 E42.45628
G1 X-275.688 Y-121.853 E42.5523
G1 X-275.706 Y-121.438 E42.61895
G1 X-275.707 Y-117.039 E43.32424
G1 X-275.81 Y-116.271 E43.4485
G1 X-276.019 Y-115.542 E43.57011
G1 X-276.28 Y-114.969 E43.67094
G1 X-276.671 Y-114.376 E43.78481
G1 X-276.998 Y-114.003 E43.86445
G1 X-277.814 Y-113.336 E44.03342
G1 X-278.76 Y-112.859 E44.20337
G1 X-279.236 Y-112.726 E44.28258
G1 X-280.181 Y-112.593 E44.43554
G1 X-302.425 Y-112.597 E48.00213
G1 X-303.15 Y-112.678 E48.11908
G1 X-303.874 Y-112.87 E48.23919
G1 X-304.703 Y-113.249 E48.38533
G1 X-305.271 Y-113.629 E48.49505
G1 X-305.825 Y-114.131 E48.61483
G1 X-306.481 Y-114.992 E48.7884
G1 X-306.964 Y-116.067 E48.97728
G1 X-307.073 Y-116.506 E49.04981
G1 X-307.184 Y-117.401 E49.19443
G1 X-307.184 Y-174.732 E58.38697
G1 X-307.021 Y-175.562 E58.52259
G1 X-306.967 Y-175.728 E58.55053
G1 X-306.459 Y-176.749 E58.73334
G1 X-305.996 Y-177.317 E58.85084
G1 X-305.256 Y-177.94 E59.00595
G1 X-304.868 Y-178.313 E59.09225
G1 X-304.529 Y-178.698 E59.17459
G1 X-304.224 Y-179.112 E59.25693
G1 X-303.955 Y-179.549 E59.33927
G1 X-303.733 Y-179.99 E59.41839
G1 X-303.584 Y-180.38 E59.48541
G1 X-303.584 Y-184.635 E60.1676
G1 X-303.723 Y-184.989 E60.22867
G1 X-303.952 Y-185.445 E60.31045
G1 X-304.221 Y-185.884 E60.39301
G1 X-304.526 Y-186.299 E60.47556
G1 X-304.866 Y-186.686 E60.55811
G1 X-305.255 Y-187.059 E60.64461
G1 X-305.996 Y-187.684 E60.8
G1 X-306.459 Y-188.252 E60.91748
G1 X-306.967 Y-189.272 E61.10027
G1 X-307.022 Y-189.438 E61.1282
G1 X-307.184 Y-190.268 E61.26381
G1 X-307.184 Y-248.643 E70.62373
G1 X-307.05 Y-249.683 E70.79188
G1 X-306.866 Y-250.267 E70.88996
G1 X-306.564 Y-250.927 E71.00644
G1 X-306.187 Y-251.509 E71.11756
G1 X-305.733 Y-252.03 E71.22836
G1 X-304.966 Y-252.653 E71.38683
G1 X-304.334 Y-253.008 E71.50299
G1 X-303.684 Y-253.257 E71.61461
G1 X-302.679 Y-253.449 E71.7787
G1 X-295.481 Y-253.466 E72.93281
G1 X-294.619 Y-253.35 E73.07226
G1 X-293.879 Y-253.11 E73.197
G1 X-292.929 Y-252.577 E73.37167
G1 X-292.25 Y-251.963 E73.51845
G1 X-291.713 Y-251.245 E73.66225
G1 X-291.404 Y-250.642 E73.77084
G1 X-291.225 Y-250.128 E73.85814
G1 X-291.045 Y-249.025 E74.03726
G1 X-291.045 Y-244.627 E74.74257
G1 X-291.027 Y-244.201 E74.81085
G1 X-290.986 Y-243.889 E74.86135
G1 X-290.893 Y-243.484 E74.928
G1 X-290.818 Y-243.248 E74.96763
G1 X-290.601 Y-242.759 E75.05342
G1 X-290.459 Y-242.513 E75.09902
G1 X-290.156 Y-242.098 E75.18136
G1 X-289.809 Y-241.736 E75.26174
G1 X-289.422 Y-241.424 E75.34145
G1 X-288.984 Y-241.16 E75.42352
G1 X-288.536 Y-240.964 E75.50177
G1 X-288.197 Y-240.86 E75.55871
G1 X-287.729 Y-240.769 E75.63518
G1 X-287.246 Y-240.738 E75.71269
G1 X-286.75 Y-240.77 E75.79236
G1 X-286.249 Y-240.871 E75.87443
G1 X-285.772 Y-241.035 E75.95528
G1 X-285.514 Y-241.155 E76.00082
G1 X-285.069 Y-241.424 E76.08429
G1 X-284.682 Y-241.735 E76.16386
G1 X-284.339 Y-242.093 E76.24343
G1 X-284.031 Y-242.513 E76.32691
G1 X-283.886 Y-242.766 E76.37363
G1 X-283.667 Y-243.265 E76.46094
G1 X-283.508 Y-243.863 E76.56021
G1 X-283.463 Y-244.201 E76.61493
G1 X-283.445 Y-244.627 E76.68321
G1 X-283.445 Y-248.991 E77.38306
G1 X-283.348 Y-249.767 E77.50834
G1 X-283.101 Y-250.607 E77.6487
G1 X-282.668 Y-251.421 E77.79657
G1 X-282.09 Y-252.118 E77.94167
G1 X-281.34 Y-252.734 E78.09739
G1 X-281.188 Y-252.824 E78.1257
G1 X-280.226 Y-253.253 E78.29468
G1 X-279.933 Y-253.332 E78.34328
G1 X-279.021 Y-253.467 E78.49103
G1 X-268.099 Y-253.464 E80.2423
G1 X-267.05 Y-253.291 E80.41278
G1 X-266.109 Y-252.903 E80.57598
G1 X-265.494 Y-252.503 E80.69356
G1 X-264.936 Y-251.993 E80.81487
G1 X-264.365 Y-251.227 E80.96799
G1 X-263.96 Y-250.367 E81.12042
G1 X-263.908 Y-250.195 E81.1492
G1 X-263.708 Y-249.059 E81.33417
G1 X-263.707 Y-244.627 E82.04481
G1 X-263.689 Y-244.212 E82.11146
G1 X-263.588 Y-243.638 E82.20494
G1 X-263.475 Y-243.289 E82.26371
G1 X-263.29 Y-242.871 E82.33699
G1 X-263.153 Y-242.634 E82.38087
G1 X-262.87 Y-242.249 E82.45754
G1 X-262.548 Y-241.911 E82.53242
G1 X-262.172 Y-241.611 E82.60942
G1 X-261.787 Y-241.379 E82.6815
G1 X-261.367 Y-241.193 E82.75519
G1 X-260.893 Y-241.055 E82.83444
G1 X-260.618 Y-241.007 E82.8791
G1 X-260.145 Y-240.977 E82.95512
G1 X-259.672 Y-241.007 E83.03113
G1 X-259.399 Y-241.055 E83.07557
G1 X-258.929 Y-241.191 E83.15403
G1 X-258.502 Y-241.379 E83.22884
G1 X-258.117 Y-241.611 E83.30091
G1 X-257.748 Y-241.906 E83.3767
G1 X-257.409 Y-242.261 E83.45534
G1 X-257.055 Y-242.771 E83.55488
G1 X-256.921 Y-243.029 E83.60145
G1 X-256.808 Y-243.3 E83.64861
G1 X-256.708 Y-243.628 E83.70365
G1 X-256.601 Y-244.224 E83.80065
G1 X-256.584 Y-244.627 E83.86529
G1 X-256.584 Y-249.868 E84.70572
G1 X-256.51 Y-250.326 E84.78014
G1 X-256.198 Y-251.131 E84.9185
G1 X-255.955 Y-251.529 E84.99324
G1 X-254.793 Y-252.719 E85.26004
G1 X-254.416 Y-252.993 E85.33466
G1 X-253.629 Y-253.34 E85.47247
G1 X-252.977 Y-253.47 E85.57909
G1 X-238.616 Y-253.461 E87.88185
G1 X-238.062 Y-253.341 E87.97277
G1 X-237.443 Y-253.084 E88.08016
G1 X-236.966 Y-252.775 E88.17134
G1 X-235.793 Y-251.601 E88.43741
G1 X-235.527 Y-251.199 E88.51481
G1 X-235.235 Y-250.512 E88.63442
G1 X-235.107 Y-249.865 E88.74015
G1 X-235.107 Y-244.625 E89.58029
G1 X-235.089 Y-244.216 E89.64602
G1 X-235.051 Y-243.923 E89.69343
G1 X-234.898 Y-243.341 E89.78985
G1 X-234.784 Y-243.062 E89.83824
G1 X-234.564 Y-242.656 E89.91218
G1 X-234.273 Y-242.25 E89.99224
G1 X-234.098 Y-242.055 E90.03427
G1 X-233.74 Y-241.735 E90.11128
G1 X-233.372 Y-241.483 E90.18283
G1 X-232.942 Y-241.263 E90.26036
G1 X-232.534 Y-241.117 E90.32981
G1 X-232.061 Y-241.015 E90.40743
G1 X-231.625 Y-240.978 E90.47758
G1 X-231.164 Y-240.997 E90.55157
G1 X-230.703 Y-241.078 E90.62648
G1 X-230.244 Y-241.221 E90.70368
G1 X-229.749 Y-241.459 E90.79174
G1 X-229.49 Y-241.629 E90.84136
G1 X-229.11 Y-241.943 E90.92038
G1 X-228.778 Y-242.299 E90.99849
G1 X-228.631 Y-242.494 E91.03759
G1 X-228.365 Y-242.941 E91.1211
G1 X-228.263 Y-243.163 E91.16019
G1 X-228.095 Y-243.668 E91.24554
G1 X-228.001 Y-244.217 E91.33481
G1 X-227.983 Y-244.628 E91.40077
G1 X-227.966 Y-249.234 E92.13929
G1 X-227.764 Y-250.251 E92.30556
G1 X-227.401 Y-251.098 E92.45347
G1 X-226.966 Y-251.746 E92.5785
G1 X-226.475 Y-252.269 E92.69346
G1 X-225.706 Y-252.832 E92.84643
G1 X-224.728 Y-253.265 E93.01787
G1 X-223.57 Y-253.47 E93.20642
G1 X-210.227 Y-253.449 E95.34577
G1 X-209.031 Y-253.19 E95.54208
G1 X-208.58 Y-253 E95.62046
G1 X-208.061 Y-252.7 E95.71664
G1 X-207.603 Y-252.346 E95.80949
G1 X-207.048 Y-251.778 E95.93681
G1 X-206.496 Y-250.929 E96.0991
G1 X-206.227 Y-250.241 E96.21758
G1 X-206.018 Y-249.176 E96.39165
G1 X-206.007 Y-244.627 E97.12099
G1 X-205.989 Y-244.216 E97.18696
G1 X-205.891 Y-243.65 E97.27915
G1 X-205.782 Y-243.305 E97.33712
G1 X-205.597 Y-242.882 E97.41109
G1 X-205.302 Y-242.412 E97.49999
G1 X-204.982 Y-242.041 E97.57858
G1 X-204.64 Y-241.735 E97.65229
G1 X-204.277 Y-241.486 E97.72277
G1 X-203.847 Y-241.265 E97.80034
G1 X-203.433 Y-241.117 E97.87081
G1 X-202.961 Y-241.015 E97.94835
G1 X-202.525 Y-240.978 E98.0185
G1 X-202.064 Y-240.997 E98.09249
G1 X-201.603 Y-241.078 E98.16745
G1 X-201.168 Y-241.213 E98.24052
G1 X-200.867 Y-241.347 E98.2933
G1 X-200.505 Y-241.554 E98.36016
G1 X-200.132 Y-241.833 E98.43491
G1 X-199.804 Y-242.154 E98.50843
G1 X-199.499 Y-242.54 E98.58741
G1 X-199.366 Y-242.751 E98.62738
G1 X-199.14 Y-243.221 E98.71093
G1 X-199.059 Y-243.444 E98.74903
G1 X-198.933 Y-243.963 E98.83462
G1 X-198.884 Y-244.617 E98.93984
G1 X-198.876 Y-249.125 E99.66261
G1 X-198.668 Y-250.238 E99.84414
G1 X-198.285 Y-251.125 E99.99902
G1 X-197.72 Y-251.92 E100.15547
G1 X-197.256 Y-252.372 E100.25937
G1 X-196.74 Y-252.752 E100.36215
G1 X-196.019 Y-253.125 E100.49223
G1 X-195.315 Y-253.347 E100.61058
