; generated by PrusaSlicer 2.4.2+win64 on 2022-07-05 at 02:40:35 UTC

; 

; external perimeters extrusion width = 1.12mm
; perimeters extrusion width = 1.12mm
; infill extrusion width = 1.12mm
; solid infill extrusion width = 1.12mm
; top infill extrusion width = 1.00mm
; first layer extrusion width = 1.05mm

M107
M190 S60 ; set bed temperature and wait for it to be reached
M104 S215 ; set temperature
;TYPE:Custom
G28 ; home all axes
G1 Z5 F5000 ; lift nozzle
M109 S215 ; set temperature and wait for it to be reached
G21 ; set units to millimeters
G90 ; use absolute coordinates
M82 ; use absolute distances for extrusion
G92 E0
; Filament gcode
M107
;LAYER_CHANGE
;Z:0.4
;HEIGHT:0.4
G1 Z.4 F600
G1 E-2 F2400
G92 E0
G1 X-171.712 Y-142.296 F3600
G1 E2 F2400
;TYPE:Skirt/Brim
;WIDTH:1.05
G1 F1800
G1 X-173.788 Y-139.88 E2.51078
G1 X-175.693 Y-138.09 E2.92994
G1 X-177.64 Y-136.58 E3.32502
G1 X-179.746 Y-135.238 E3.72547
G1 X-182.062 Y-134.051 E4.14273
G1 X-184.327 Y-133.146 E4.53371
G1 X-186.854 Y-132.404 E4.95609
G1 X-189.419 Y-131.914 E5.37472
G1 X-191.778 Y-131.686 E5.75481
G1 X-194.66 Y-131.689 E6.2169
G1 X-219.404 Y-133.258 E10.19239
G1 X-221.549 Y-133.747 E10.54502
G1 X-223.559 Y-134.556 E10.89256
G1 X-225.347 Y-135.625 E11.22655
G1 X-226.914 Y-136.918 E11.55234
G1 X-227.82 Y-137.877 E11.76375
G1 X-228.653 Y-138.951 E11.9817
G1 X-229.401 Y-140.152 E12.20857
G1 X-229.977 Y-141.322 E12.4177
G1 X-230.46 Y-142.601 E12.63685
G1 X-230.841 Y-144.051 E12.87736
G1 X-231.054 Y-145.433 E13.10153
G1 X-231.128 Y-146.736 E13.31083
G1 X-231.127 Y-156.921 E14.94382
G1 X-231.055 Y-158.123 E15.13685
G1 X-230.866 Y-159.396 E15.34327
G1 X-230.339 Y-161.324 E15.66365
G1 X-229.584 Y-163.073 E15.96915
G1 X-228.539 Y-164.777 E16.28968
G1 X-227.29 Y-166.274 E16.60217
G1 X-225.545 Y-167.799 E16.97388
G1 X-223.792 Y-168.892 E17.30507
G1 X-221.788 Y-169.744 E17.65429
G1 X-219.743 Y-170.257 E17.99232
G1 X-218.298 Y-170.426 E18.22551
G1 X-193.212 Y-171.919 E22.25492
G1 X-191.401 Y-171.859 E22.54545
G1 X-189.795 Y-171.704 E22.80428
G1 X-188.206 Y-171.454 E23.06221
G1 X-186.415 Y-171.053 E23.35639
G1 X-184.777 Y-170.573 E23.63014
G1 X-183.149 Y-169.98 E23.90795
G1 X-181.488 Y-169.249 E24.19888
G1 X-179.997 Y-168.472 E24.46846
G1 X-178.375 Y-167.488 E24.7726
G1 X-177.052 Y-166.561 E25.03166
G1 X-175.741 Y-165.518 E25.3003
G1 X-174.336 Y-164.24 E25.60489
G1 X-172.137 Y-161.815 E26.12965
G1 X-171.026 Y-160.328 E26.42726
G1 X-170.11 Y-158.918 E26.69687
G1 X-169.475 Y-157.787 E26.90498
G1 X-168.95 Y-156.614 E27.111
G1 X-168.554 Y-155.44 E27.30967
G1 X-168.27 Y-154.246 E27.50646
G1 X-168.093 Y-152.981 E27.71116
G1 X-168.039 Y-151.683 E27.91946
G1 X-168.114 Y-150.371 E28.13024
G1 X-168.294 Y-149.2 E28.32019
G1 X-168.58 Y-148.039 E28.51195
G1 X-168.943 Y-146.973 E28.69242
G1 X-169.422 Y-145.885 E28.88303
G1 X-169.987 Y-144.857 E29.07122
G1 X-171.628 Y-142.421 E29.54215
G1 E27.54215 F2400
G92 E0
G1 X-177.758 Y-146.949 F3600
G1 E2 F2400
G1 F1800
G1 X-178.411 Y-146.128 E2.16823
G1 X-178.954 Y-145.515 E2.29954
G1 X-179.562 Y-144.884 E2.43993
G1 X-180.198 Y-144.28 E2.58069
G1 X-180.938 Y-143.644 E2.73701
G1 X-181.704 Y-143.05 E2.89262
G1 X-182.388 Y-142.568 E3.02665
G1 X-183.103 Y-142.111 E3.16271
G1 X-183.958 Y-141.619 E3.3209
G1 X-184.985 Y-141.1 E3.50544
G1 X-186.164 Y-140.595 E3.71103
G1 X-187.399 Y-140.162 E3.92099
G1 X-188.656 Y-139.814 E4.1301
G1 X-189.906 Y-139.555 E4.33467
G1 X-191.049 Y-139.394 E4.51982
G1 X-192.207 Y-139.299 E4.70607
G1 X-193.548 Y-139.277 E4.92112
G1 X-194.369 Y-139.31 E5.05294
G1 X-218.135 Y-140.786 E8.87093
G1 X-219.25 Y-141.016 E9.0535
G1 X-219.976 Y-141.295 E9.17818
G1 X-220.696 Y-141.685 E9.3094
G1 X-221.26 Y-142.09 E9.42073
G1 X-221.796 Y-142.578 E9.53709
G1 X-222.544 Y-143.538 E9.73215
G1 X-222.959 Y-144.305 E9.87191
G1 X-223.245 Y-145.079 E10.00421
G1 X-223.424 Y-145.878 E10.13553
G1 X-223.498 Y-146.655 E10.26074
G1 X-223.473 Y-157.296 E11.96688
G1 X-223.261 Y-158.441 E12.15356
G1 X-223.021 Y-159.118 E12.26875
G1 X-222.678 Y-159.814 E12.39318
G1 X-222.203 Y-160.517 E12.52915
G1 X-221.673 Y-161.11 E12.65667
G1 X-220.881 Y-161.759 E12.82093
G1 X-220.174 Y-162.177 E12.95257
G1 X-219.305 Y-162.534 E13.10315
G1 X-217.892 Y-162.811 E13.33398
G1 X-194.322 Y-164.261 E17.12035
G1 X-193.11 Y-164.292 E17.31488
G1 X-191.871 Y-164.248 E17.51361
G1 X-190.663 Y-164.128 E17.70833
G1 X-189.548 Y-163.946 E17.88938
G1 X-188.144 Y-163.622 E18.12035
G1 X-186.898 Y-163.241 E18.32935
G1 X-185.703 Y-162.786 E18.53436
G1 X-184.561 Y-162.262 E18.73587
G1 X-183.375 Y-161.62 E18.95209
G1 X-182.304 Y-160.941 E19.1554
G1 X-181.281 Y-160.197 E19.35827
G1 X-180.297 Y-159.375 E19.56378
G1 X-179.396 Y-158.517 E19.76334
G1 X-178.522 Y-157.568 E19.97018
G1 X-177.729 Y-156.586 E20.17257
G1 X-177.003 Y-155.554 E20.3749
G1 X-176.35 Y-154.484 E20.5758
G1 X-175.854 Y-153.224 E20.79299
G1 X-175.669 Y-152 E20.99142
G1 X-175.742 Y-150.856 E21.17519
G1 X-175.894 Y-150.207 E21.28212
G1 X-176.227 Y-149.331 E21.43244
G1 X-176.775 Y-148.371 E21.60968
G1 X-177.341 Y-147.515 E21.77418
G1 X-177.669 Y-147.07 E21.86283
G1 X-178.444 Y-147.643 F3600
G1 F1800
G1 X-179.141 Y-146.758 E22.0434
G1 X-179.655 Y-146.176 E22.16796
G1 X-180.248 Y-145.562 E22.30488
G1 X-180.853 Y-144.988 E22.43854
G1 X-181.557 Y-144.384 E22.58729
G1 X-182.269 Y-143.832 E22.73175
G1 X-182.934 Y-143.363 E22.86225
G1 X-183.612 Y-142.93 E22.99133
G1 X-184.405 Y-142.473 E23.138
G1 X-185.379 Y-141.98 E23.31302
G1 X-186.528 Y-141.488 E23.51342
G1 X-187.702 Y-141.077 E23.7129
G1 X-188.868 Y-140.755 E23.90683
G1 X-190.056 Y-140.508 E24.10143
G1 X-191.17 Y-140.35 E24.28174
G1 X-192.269 Y-140.261 E24.45855
G1 X-193.523 Y-140.241 E24.65968
G1 X-194.315 Y-140.272 E24.78677
G1 X-217.979 Y-141.738 E28.5884
G1 X-218.948 Y-141.932 E28.74677
G1 X-219.55 Y-142.161 E28.85005
G1 X-220.16 Y-142.488 E28.96101
G1 X-220.673 Y-142.856 E29.0623
G1 X-221.112 Y-143.259 E29.15784
G1 X-221.754 Y-144.092 E29.32644
G1 X-222.09 Y-144.725 E29.44137
G1 X-222.327 Y-145.376 E29.55244
G1 X-222.476 Y-146.053 E29.66357
G1 X-222.535 Y-146.718 E29.7707
G1 X-222.516 Y-157.168 E31.44625
G1 X-222.337 Y-158.161 E31.60807
G1 X-222.141 Y-158.724 E31.70355
G1 X-221.857 Y-159.308 E31.80772
G1 X-221.461 Y-159.9 E31.92196
G1 X-220.981 Y-160.437 E32.03744
G1 X-220.305 Y-160.985 E32.17698
G1 X-219.721 Y-161.325 E32.28534
G1 X-218.988 Y-161.622 E32.41202
G1 X-217.803 Y-161.851 E32.6056
G1 X-194.271 Y-163.298 E36.38577
G1 X-193.128 Y-163.328 E36.56917
G1 X-191.95 Y-163.287 E36.75812
G1 X-190.801 Y-163.173 E36.94325
G1 X-189.748 Y-163.003 E37.1143
G1 X-188.409 Y-162.695 E37.33458
G1 X-187.225 Y-162.333 E37.53317
G1 X-186.089 Y-161.903 E37.72791
G1 X-185.005 Y-161.406 E37.91912
G1 X-183.876 Y-160.796 E38.1249
G1 X-182.857 Y-160.152 E38.31811
G1 X-181.886 Y-159.446 E38.51073
G1 X-180.95 Y-158.665 E38.70612
G1 X-180.093 Y-157.851 E38.89555
G1 X-179.262 Y-156.95 E39.09215
G1 X-178.49 Y-155.993 E39.28943
G1 X-177.818 Y-155.038 E39.47655
G1 X-177.194 Y-154.016 E39.6685
G1 X-176.797 Y-153.017 E39.841
G1 X-176.634 Y-152.001 E40.00592
G1 X-176.691 Y-151.029 E40.16202
G1 X-176.808 Y-150.517 E40.2463
G1 X-177.114 Y-149.71 E40.38457
G1 X-177.601 Y-148.867 E40.54074
G1 X-178.137 Y-148.058 E40.69632
G1 X-178.355 Y-147.764 E40.75499
G1 X-179.13 Y-148.337 F3600
G1 F1800
G1 X-179.415 Y-147.951 E40.83183
G1 X-179.883 Y-147.374 E40.95107
G1 X-180.37 Y-146.823 E41.06891
G1 X-180.934 Y-146.239 E41.199
G1 X-181.507 Y-145.697 E41.32558
G1 X-182.175 Y-145.123 E41.46673
G1 X-182.85 Y-144.601 E41.60357
G1 X-183.48 Y-144.158 E41.72706
G1 X-184.103 Y-143.759 E41.84571
G1 X-184.875 Y-143.315 E41.98846
G1 X-185.8 Y-142.847 E42.1547
G1 X-186.862 Y-142.392 E42.33999
G1 X-187.976 Y-142.002 E42.52922
G1 X-189.08 Y-141.695 E42.713
G1 X-190.208 Y-141.46 E42.89764
G1 X-191.262 Y-141.31 E43.0684
G1 X-192.331 Y-141.224 E43.24033
G1 X-193.498 Y-141.205 E43.42753
G1 X-194.261 Y-141.235 E43.54992
G1 X-217.828 Y-142.691 E47.33591
G1 X-218.651 Y-142.85 E47.47029
G1 X-219.129 Y-143.029 E47.5521
G1 X-219.63 Y-143.294 E47.643
G1 X-220.045 Y-143.588 E47.72444
G1 X-220.427 Y-143.939 E47.80773
G1 X-220.959 Y-144.639 E47.94876
G1 X-221.218 Y-145.137 E48.03879
G1 X-221.407 Y-145.667 E48.129
G1 X-221.526 Y-146.222 E48.21999
G1 X-221.573 Y-146.777 E48.3093
G1 X-221.559 Y-157.045 E49.95563
G1 X-221.413 Y-157.883 E50.09197
G1 X-221.241 Y-158.377 E50.17596
G1 X-221.008 Y-158.849 E50.26037
G1 X-220.683 Y-159.33 E50.35333
G1 X-220.294 Y-159.759 E50.44628
G1 X-219.734 Y-160.207 E50.56115
G1 X-219.274 Y-160.47 E50.6462
G1 X-218.677 Y-160.708 E50.74932
G1 X-217.715 Y-160.89 E50.90631
G1 X-194.22 Y-162.335 E54.6805
G1 X-193.146 Y-162.364 E54.85286
G1 X-192.029 Y-162.326 E55.03202
G1 X-190.939 Y-162.219 E55.20759
G1 X-189.948 Y-162.06 E55.36865
G1 X-188.674 Y-161.768 E55.57808
G1 X-187.522 Y-161.416 E55.77133
G1 X-186.475 Y-161.019 E55.95081
G1 X-185.448 Y-160.55 E56.13178
G1 X-184.376 Y-159.971 E56.32712
G1 X-183.411 Y-159.362 E56.51022
G1 X-182.49 Y-158.695 E56.69248
G1 X-181.579 Y-157.935 E56.88264
G1 X-180.77 Y-157.164 E57.06193
G1 X-180.002 Y-156.332 E57.2435
G1 X-179.268 Y-155.424 E57.43073
G1 X-178.632 Y-154.522 E57.60754
G1 X-178.038 Y-153.547 E57.79064
G1 X-177.737 Y-152.801 E57.91972
G1 X-177.6 Y-151.994 E58.05091
G1 X-177.642 Y-151.194 E58.17934
G1 X-177.725 Y-150.817 E58.24122
G1 X-177.97 Y-150.155 E58.35445
G1 X-178.414 Y-149.386 E58.49674
G1 X-179.041 Y-148.458 E58.67646
G1 X-179.817 Y-149.03 F3600
G1 F1800
G1 X-180.171 Y-148.55 E58.77215
G1 X-180.626 Y-147.989 E58.88791
G1 X-181.085 Y-147.47 E58.99897
G1 X-181.619 Y-146.918 E59.12223
G1 X-182.161 Y-146.406 E59.24172
G1 X-182.793 Y-145.864 E59.37526
G1 X-183.431 Y-145.371 E59.50453
G1 X-184.009 Y-144.964 E59.61777
G1 X-184.595 Y-144.589 E59.72933
G1 X-185.344 Y-144.157 E59.86809
G1 X-186.22 Y-143.715 E60.02543
G1 X-187.226 Y-143.285 E60.20081
G1 X-188.25 Y-142.926 E60.3748
G1 X-189.294 Y-142.635 E60.5485
G1 X-190.36 Y-142.412 E60.72316
G1 X-191.355 Y-142.27 E60.88429
G1 X-192.393 Y-142.186 E61.05129
G1 X-193.474 Y-142.169 E61.22459
G1 X-194.207 Y-142.198 E61.34228
G1 X-217.683 Y-143.644 E65.11361
G1 X-218.355 Y-143.769 E65.22317
G1 X-218.76 Y-143.92 E65.29237
G1 X-219.143 Y-144.126 E65.36212
G1 X-219.454 Y-144.35 E65.4237
G1 X-219.736 Y-144.613 E65.48546
G1 X-220.159 Y-145.179 E65.59875
G1 X-220.342 Y-145.54 E65.6637
G1 X-220.486 Y-145.952 E65.73364
G1 X-220.576 Y-146.385 E65.80451
G1 X-220.61 Y-146.831 E65.87633
G1 X-220.602 Y-156.927 E67.49505
G1 X-220.487 Y-157.612 E67.60643
G1 X-220.362 Y-157.98 E67.66879
G1 X-220.159 Y-158.39 E67.74203
G1 X-219.91 Y-158.752 E67.81259
G1 X-219.61 Y-159.079 E67.8836
G1 X-219.216 Y-159.393 E67.96445
G1 X-218.882 Y-159.589 E68.02664
G1 X-218.365 Y-159.795 E68.11574
G1 X-217.628 Y-159.93 E68.23593
G1 X-194.169 Y-161.372 E72.00444
G1 X-193.164 Y-161.4 E72.16573
G1 X-192.077 Y-161.363 E72.34
G1 X-191.077 Y-161.265 E72.50121
G1 X-190.146 Y-161.116 E72.65234
G1 X-188.939 Y-160.841 E72.85081
G1 X-187.819 Y-160.499 E73.03867
G1 X-186.86 Y-160.135 E73.203
G1 X-185.891 Y-159.693 E73.37379
G1 X-184.877 Y-159.147 E73.55854
G1 X-183.938 Y-158.555 E73.73646
G1 X-183.095 Y-157.944 E73.9034
G1 X-182.209 Y-157.205 E74.08831
G1 X-181.447 Y-156.478 E74.25732
G1 X-180.722 Y-155.691 E74.42886
G1 X-180.029 Y-154.831 E74.60598
G1 X-179.43 Y-153.981 E74.77264
G1 X-178.881 Y-153.078 E74.94202
G1 X-178.675 Y-152.573 E75.0295
G1 X-178.566 Y-151.978 E75.12657
G1 X-178.594 Y-151.349 E75.22743
G1 X-178.645 Y-151.108 E75.26704
G1 X-178.828 Y-150.598 E75.35396
G1 X-179.242 Y-149.881 E75.4866
G1 X-179.728 Y-149.151 E75.62726
G1 X-180.503 Y-149.723 F3600
G1 F1800
G1 X-180.927 Y-149.148 E75.74179
G1 X-181.368 Y-148.604 E75.85408
G1 X-181.799 Y-148.118 E75.95828
G1 X-182.304 Y-147.596 E76.07479
G1 X-182.798 Y-147.13 E76.18362
G1 X-183.393 Y-146.618 E76.30946
G1 X-183.995 Y-146.152 E76.43152
G1 X-184.537 Y-145.771 E76.53786
G1 X-185.105 Y-145.407 E76.64591
G1 X-185.791 Y-145.012 E76.77285
G1 X-186.641 Y-144.583 E76.92551
G1 X-187.589 Y-144.179 E77.09081
G1 X-188.553 Y-143.842 E77.25452
G1 X-189.536 Y-143.569 E77.41814
G1 X-190.541 Y-143.359 E77.58273
G1 X-191.475 Y-143.227 E77.73404
G1 X-192.454 Y-143.148 E77.89147
G1 X-193.449 Y-143.133 E78.05101
G1 X-194.153 Y-143.16 E78.16402
G1 X-217.546 Y-144.599 E81.92188
G1 X-218.07 Y-144.691 E82.00721
G1 X-218.344 Y-144.79 E82.05386
G1 X-218.608 Y-144.929 E82.10185
G1 X-218.863 Y-145.113 E82.1521
G1 X-219.038 Y-145.279 E82.19086
G1 X-219.352 Y-145.708 E82.27608
G1 X-219.46 Y-145.93 E82.31561
G1 X-219.562 Y-146.229 E82.36635
G1 X-219.623 Y-146.539 E82.417
G1 X-219.647 Y-146.879 E82.47173
G1 X-219.637 Y-156.886 E84.07621
G1 X-219.562 Y-157.338 E84.14969
G1 X-219.46 Y-157.636 E84.20006
G1 X-219.317 Y-157.92 E84.2512
G1 X-219.143 Y-158.167 E84.29954
G1 X-218.933 Y-158.392 E84.34903
G1 X-218.69 Y-158.585 E84.39878
G1 X-218.485 Y-158.709 E84.43716
G1 X-218.057 Y-158.88 E84.51104
G1 X-217.544 Y-158.969 E84.59443
G1 X-194.118 Y-160.409 E88.35776
G1 X-193.181 Y-160.436 E88.50798
G1 X-192.126 Y-160.4 E88.67731
G1 X-191.213 Y-160.31 E88.82429
G1 X-190.343 Y-160.172 E88.96555
G1 X-189.204 Y-159.913 E89.15294
G1 X-188.116 Y-159.581 E89.33529
G1 X-187.218 Y-159.239 E89.48936
G1 X-186.333 Y-158.837 E89.64523
G1 X-185.377 Y-158.322 E89.81935
G1 X-184.466 Y-157.748 E89.99197
G1 X-183.675 Y-157.174 E90.14867
G1 X-182.84 Y-156.476 E90.32315
G1 X-182.124 Y-155.791 E90.48197
G1 X-181.462 Y-155.072 E90.63872
G1 X-180.807 Y-154.262 E90.80585
G1 X-180.245 Y-153.466 E90.96207
G1 X-179.728 Y-152.615 E91.12176
G1 X-179.592 Y-152.272 E91.18084
G1 X-179.526 Y-151.88 E91.24462
G1 X-179.563 Y-151.403 E91.32123
G1 X-179.719 Y-150.969 E91.39534
G1 X-180.051 Y-150.404 E91.50029
G1 X-180.42 Y-149.848 E91.60729
G1 E89.60729 F2400
G92 E0
G1 X-199.474 Y-150.648 F3600
G1 E2 F2400
;TYPE:External perimeter
G1 F1800
G1 X-199.595 Y-150.553 E2.02455
G1 X-199.751 Y-150.491 E2.0516
G1 X-200.101 Y-150.438 E2.1083
G1 X-200.599 Y-150.423 E2.18818
G1 X-200.591 Y-153.213 E2.63545
G1 X-199.87 Y-153.173 E2.75136
G1 X-199.644 Y-153.129 E2.7882
G1 X-199.564 Y-153.097 E2.80196
G1 X-199.456 Y-153.016 E2.82374
G1 X-199.31 Y-152.781 E2.86802
G1 X-199.236 Y-152.572 E2.90362
G1 X-199.167 Y-152.192 E2.96543
G1 X-199.153 Y-151.695 E3.0452
G1 X-199.183 Y-151.367 E3.09799
G1 X-199.271 Y-151 E3.15858
G1 X-199.386 Y-150.77 E3.19985
G1 X-199.845 Y-150.973 F3600
;TYPE:Gap fill
;WIDTH:0.385027
G1 F1800
G1 X-199.891 Y-151.048 E3.20425
;WIDTH:0.428295
G1 X-199.937 Y-151.123 E3.20928
;WIDTH:0.446297
G1 X-199.928 Y-151.151 E3.21104
;WIDTH:0.472791
G1 X-199.914 Y-151.215 E3.21522
;WIDTH:0.50462
G1 X-199.899 Y-151.349 E3.22461
;WIDTH:0.536448
G1 X-199.883 Y-151.483 E3.23471
;WIDTH:0.557873
G1 X-199.872 Y-151.718 E3.25317
;WIDTH:0.557872
G1 X-199.878 Y-152.119 E3.28467
;WIDTH:0.546846
G1 X-199.903 Y-152.395 E3.30594
;WIDTH:0.497571
G1 X-199.921 Y-152.5 E3.31324
G1 E1.31324 F2400
G92 E0
G1 X-213.329 Y-149.811 F3600
G1 E2 F2400
;TYPE:External perimeter
;WIDTH:1.05
G1 F1800
G1 X-213.466 Y-150.253 E2.07423
G1 X-213.763 Y-150.562 E2.14302
G1 X-214.149 Y-150.737 E2.21095
G1 X-214.477 Y-150.775 E2.26392
G1 X-214.773 Y-150.725 E2.31203
G1 X-214.973 Y-150.634 E2.34726
G1 X-215.137 Y-150.512 E2.38009
G1 X-215.331 Y-150.305 E2.42548
G1 X-215.553 Y-150.253 E2.46205
G1 X-215.783 Y-150.252 E2.49894
G1 X-215.953 Y-150.287 E2.52674
G1 X-216.162 Y-150.378 E2.56336
G1 X-216.313 Y-150.496 E2.59411
G1 X-216.439 Y-150.664 E2.62771
G1 X-216.525 Y-150.85 E2.66062
G1 X-216.596 Y-151.104 E2.70284
G1 X-216.64 Y-151.415 E2.75319
G1 X-216.658 Y-151.86 E2.82467
G1 X-216.636 Y-152.266 E2.88988
G1 X-216.588 Y-152.565 E2.93843
G1 X-216.52 Y-152.798 E2.97742
G1 X-216.44 Y-152.971 E3.00796
G1 X-216.31 Y-153.146 E3.04291
G1 X-216.205 Y-153.235 E3.06492
G1 X-216.066 Y-153.313 E3.09042
G1 X-215.915 Y-153.363 E3.11597
G1 X-215.633 Y-153.382 E3.16127
G1 X-215.548 Y-153.357 E3.1756
G1 X-214.86 Y-152.969 E3.3022
G1 X-214.561 Y-152.874 E3.35246
G1 X-214.253 Y-152.857 E3.40203
G1 X-213.937 Y-152.954 E3.45504
G1 X-213.683 Y-153.148 E3.50617
G1 X-213.53 Y-153.348 E3.54647
G1 X-213.413 Y-153.615 E3.59327
