; generated by PrusaSlicer 2.4.2+win64 on 2022-06-06 at 02:56:05 UTC

; 

; external perimeters extrusion width = 1.12mm
; perimeters extrusion width = 1.12mm
; infill extrusion width = 1.12mm
; solid infill extrusion width = 1.12mm
; top infill extrusion width = 1.00mm
; first layer extrusion width = 1.05mm

M107
M190 S60 ; set bed temperature and wait for it to be reached
M104 S215 ; set temperature
;TYPE:Custom
G28 ; home all axes
G1 Z5 F5000 ; lift nozzle
M109 S215 ; set temperature and wait for it to be reached
G21 ; set units to millimeters
G90 ; use absolute coordinates
M82 ; use absolute distances for extrusion
G92 E0
; Filament gcode
M107
;LAYER_CHANGE
;Z:0.4
;HEIGHT:0.4
G1 Z.4 F600
G1 E-2 F2400
G92 E0
G1 X-107.475 Y-101.658 F3600
G1 E2 F2400
;TYPE:Skirt/Brim
;WIDTH:1.05
G1 F1800
G1 X-110.037 Y-99.04 E2.58735
G1 X-114.916 Y-94.473 E3.65891
G1 X-119.989 Y-90.233 E4.71897
G1 X-122.899 Y-88.009 E5.30634
G1 X-128.381 Y-84.185 E6.37789
G1 X-134.094 Y-80.664 E7.45397
G1 X-139.973 Y-77.487 E8.52554
G1 X-143.269 Y-75.887 E9.1129
G1 X-149.403 Y-73.234 E10.18443
G1 X-155.609 Y-70.956 E11.2445
G1 X-159.1 Y-69.844 E11.83188
G1 X-165.55 Y-68.095 E12.90343
G1 X-172.116 Y-66.709 E13.9795
G1 X-178.723 Y-65.702 E15.05106
G1 X-182.365 Y-65.309 E15.63842
G1 X-189.034 Y-64.882 E16.70997
G1 X-195.645 Y-64.833 E17.77005
G1 X-199.306 Y-64.964 E18.3574
G1 X-205.897 Y-65.487 E19.41747
G1 X-212.518 Y-66.391 E20.48901
G1 X-216.123 Y-67.044 E21.07638
G1 X-222.641 Y-68.522 E22.14794
G1 X-228.995 Y-70.345 E23.20801
G1 X-232.47 Y-71.507 E23.79537
G1 X-238.801 Y-73.941 E24.88293
G1 X-244.828 Y-76.658 E25.94299
G1 X-250.756 Y-79.744 E27.01456
G1 X-253.929 Y-81.575 E27.60191
G1 X-259.565 Y-85.166 E28.67346
G1 X-265.011 Y-89.087 E29.74953
G1 X-270.204 Y-93.294 E30.82109
G1 X-272.948 Y-95.721 E31.40846
G1 X-277.754 Y-100.364 E32.48001
G1 X-282.243 Y-105.219 E33.54007
G1 X-284.611 Y-108.014 E34.12745
G1 X-288.705 Y-113.296 E35.19901
G1 X-292.508 Y-118.826 E36.27507
G1 X-295.977 Y-124.538 E37.34663
G1 X-297.74 Y-127.749 E37.934
G1 X-300.697 Y-133.742 E39.00554
G1 X-303.284 Y-139.826 E40.0656
G1 X-304.569 Y-143.257 E40.65298
G1 X-306.667 Y-149.707 E41.74053
G1 X-308.353 Y-156.1 E42.8006
G1 X-309.691 Y-162.647 E43.87214
G1 X-310.266 Y-166.265 E44.45951
G1 X-311.027 Y-172.904 E45.53105
G1 X-311.409 Y-179.505 E46.59113
G1 X-311.461 Y-183.168 E47.1785
G1 X-311.269 Y-189.776 E48.23857
G1 X-310.699 Y-196.435 E49.3101
G1 X-310.227 Y-200.068 E49.89747
G1 X-309.079 Y-206.651 E50.96903
G1 X-307.552 Y-213.186 E52.0451
G1 X-305.665 Y-219.597 E53.11665
G1 X-304.478 Y-223.063 E53.70402
G1 X-302.039 Y-229.285 E54.77557
G1 X-299.282 Y-235.294 E55.83564
G1 X-297.612 Y-238.555 E56.42301
G1 X-294.309 Y-244.364 E57.49455
G1 X-290.666 Y-250 E58.57063
G1 X-286.725 Y-255.398 E59.64219
G1 X-284.438 Y-258.26 E60.22955
G1 X-280.091 Y-263.241 E61.28962
G1 X-275.42 Y-268.02 E62.36117
G1 X-270.41 Y-272.593 E63.44873
G1 X-267.599 Y-274.941 E64.03609
G1 X-262.345 Y-278.955 E65.09616
G1 X-257.014 Y-282.575 E66.1293
G1 X-253.695 Y-284.628 E66.75507
G1 X-247.922 Y-287.849 E67.81512
G1 X-241.912 Y-290.771 E68.88668
G1 X-238.55 Y-292.227 E69.47405
G1 X-232.308 Y-294.614 E70.5456
G1 X-226.009 Y-296.623 E71.60565
G1 X-222.474 Y-297.584 E72.19304
G1 X-215.955 Y-299.053 E73.2646
G1 X-209.335 Y-300.156 E74.34066
G1 X-202.691 Y-300.877 E75.4122
G1 X-199.035 Y-301.114 E75.99958
G1 X-192.354 Y-301.253 E77.07114
G1 X-185.647 Y-301.013 E78.1472
G1 X-179.231 Y-300.42 E79.18035
G1 X-175.363 Y-299.897 E79.80612
G1 X-168.858 Y-298.716 E80.86617
G1 X-162.36 Y-297.153 E81.93774
G1 X-158.84 Y-296.141 E82.5251
G1 X-152.503 Y-294.017 E83.59666
G1 X-146.271 Y-291.527 E84.67273
G1 X-140.216 Y-288.699 E85.74428
G1 X-136.967 Y-287.006 E86.33165
G1 X-131.182 Y-283.661 E87.4032
G1 X-125.572 Y-279.977 E88.47927
G1 X-120.202 Y-275.998 E89.55084
G1 X-117.357 Y-273.691 E90.1382
G1 X-112.355 Y-269.259 E91.20975
G1 X-107.662 Y-264.603 E92.2698
G1 X-105.176 Y-261.912 E92.85719
G1 X-100.797 Y-256.732 E93.94475
G1 X-96.78 Y-251.391 E95.01629
G1 X-93.11 Y-245.892 E96.07635
G1 X-91.21 Y-242.76 E96.66372
G1 X-87.998 Y-236.899 E97.73528
G1 X-85.152 Y-230.932 E98.79533
G1 X-83.72 Y-227.56 E99.3827
G1 X-81.378 Y-221.301 E100.45426
G1 X-79.414 Y-214.988 E101.51431
G1 X-78.479 Y-211.446 E102.10169
G1 X-77.056 Y-204.917 E103.17323
G1 X-76.001 Y-198.289 E104.2493
G1 X-75.327 Y-191.64 E105.32087
G1 X-75.117 Y-187.983 E105.90823
G1 X-75.025 Y-181.32 E106.97659
G1 X-75.308 Y-174.695 E108.03984
G1 X-75.623 Y-171.045 E108.62722
G1 X-76.487 Y-164.418 E109.69878
G1 X-77.732 Y-157.824 E110.77484
G1 X-79.341 Y-151.337 E111.8464
G1 X-80.378 Y-147.824 E112.43376
G1 X-82.547 Y-141.503 E113.50532
G1 X-85.042 Y-135.38 E114.56539
G1 X-87.953 Y-129.254 E115.65293
G1 X-89.67 Y-126.018 E116.2403
G1 X-93.018 Y-120.317 E117.30037
G1 X-96.723 Y-114.755 E118.37191
G1 X-98.884 Y-111.797 E118.95929
G1 X-103.06 Y-106.579 E120.03083
G1 X-107.375 Y-101.77 E121.06685
G1 E119.06685 F2400
G92 E0
G1 X-112.974 Y-106.943 F3600
G1 E2 F2400
G1 F1800
G1 X-115.288 Y-104.571 E2.53125
G1 X-117.423 Y-102.51 E3.00709
G1 X-119.967 Y-100.185 E3.55969
G1 X-122.343 Y-98.143 E4.06205
G1 X-124.786 Y-96.161 E4.56633
G1 X-127.306 Y-94.234 E5.07506
G1 X-129.88 Y-92.379 E5.58383
G1 X-132.565 Y-90.56 E6.10378
G1 X-135.231 Y-88.865 E6.61029
G1 X-137.944 Y-87.247 E7.1168
G1 X-140.702 Y-85.707 E7.62334
G1 X-143.491 Y-84.252 E8.12766
G1 X-146.408 Y-82.836 E8.64762
G1 X-149.302 Y-81.534 E9.1564
G1 X-152.231 Y-80.316 E9.66514
G1 X-155.182 Y-79.186 E10.17168
G1 X-158.15 Y-78.146 E10.67598
G1 X-161.16 Y-77.187 E11.1825
G1 X-164.196 Y-76.314 E11.689
G1 X-167.337 Y-75.508 E12.20895
G1 X-170.418 Y-74.813 E12.71548
G1 X-173.518 Y-74.205 E13.22198
G1 X-176.621 Y-73.688 E13.72627
G1 X-179.75 Y-73.258 E14.2328
G1 X-182.974 Y-72.91 E14.75276
G1 X-185.929 Y-72.677 E15.22792
G1 X-189.305 Y-72.503 E15.76998
G1 X-192.437 Y-72.436 E16.27234
G1 X-195.582 Y-72.458 E16.77662
G1 X-198.753 Y-72.571 E17.28534
G1 X-201.715 Y-72.761 E17.76118
G1 X-205.147 Y-73.076 E18.31377
G1 X-208.256 Y-73.457 E18.81614
G1 X-211.366 Y-73.929 E19.32042
G1 X-214.557 Y-74.507 E19.84034
G1 X-217.634 Y-75.157 E20.34465
G1 X-220.705 Y-75.898 E20.85116
G1 X-223.753 Y-76.726 E21.35771
G1 X-226.777 Y-77.641 E21.86422
G1 X-229.653 Y-78.603 E22.35049
G1 X-232.761 Y-79.736 E22.88081
G1 X-235.777 Y-80.941 E23.40167
G1 X-238.676 Y-82.198 E23.9082
G1 X-241.537 Y-83.537 E24.41471
G1 X-244.359 Y-84.957 E24.92122
G1 X-247.127 Y-86.45 E25.42554
G1 X-249.935 Y-88.071 E25.94548
G1 X-252.624 Y-89.729 E26.45202
G1 X-255.276 Y-91.471 E26.96076
G1 X-257.866 Y-93.281 E27.46729
G1 X-260.392 Y-95.155 E27.97162
G1 X-262.885 Y-97.117 E28.48035
G1 X-265.31 Y-99.141 E28.98688
G1 X-267.582 Y-101.151 E29.47314
G1 X-269.999 Y-103.409 E30.00346
G1 X-272.284 Y-105.677 E30.51986
G1 X-274.49 Y-107.998 E31.03312
G1 X-276.609 Y-110.359 E31.54188
G1 X-278.659 Y-112.781 E32.0506
G1 X-280.597 Y-115.205 E32.54825
G1 X-282.421 Y-117.627 E33.03447
G1 X-284.339 Y-120.322 E33.56478
G1 X-286.112 Y-122.977 E34.0767
G1 X-287.825 Y-125.714 E34.59445
G1 X-289.43 Y-128.451 E35.10321
G1 X-290.957 Y-131.233 E35.61198
G1 X-292.396 Y-134.045 E36.11849
G1 X-293.749 Y-136.885 E36.62278
G1 X-295.026 Y-139.774 E37.12929
G1 X-296.22 Y-142.699 E37.63581
G1 X-297.358 Y-145.735 E38.15578
G1 X-298.385 Y-148.737 E38.66456
G1 X-299.326 Y-151.768 E39.17329
G1 X-300.175 Y-154.81 E39.67981
G1 X-300.938 Y-157.876 E40.18636
G1 X-301.612 Y-160.962 E40.69287
G1 X-302.196 Y-164.053 E41.19716
G1 X-302.695 Y-167.186 E41.70589
G1 X-303.105 Y-170.333 E42.21466
G1 X-303.428 Y-173.531 E42.73015
G1 X-303.642 Y-176.515 E43.20971
G1 X-303.79 Y-179.819 E43.74003
G1 X-303.836 Y-183.067 E44.2609
G1 X-303.791 Y-186.212 E44.76523
G1 X-303.655 Y-189.368 E45.27174
G1 X-303.429 Y-192.519 E45.77825
G1 X-303.113 Y-195.662 E46.28475
G1 X-302.705 Y-198.809 E46.7935
G1 X-302.208 Y-201.942 E47.30227
G1 X-301.612 Y-205.101 E47.81773
G1 X-300.934 Y-208.201 E48.32651
G1 X-300.172 Y-211.267 E48.83303
G1 X-299.322 Y-214.309 E49.33955
G1 X-298.385 Y-217.327 E49.84608
G1 X-297.334 Y-220.394 E50.36602
G1 X-296.23 Y-223.339 E50.87032
G1 X-295.048 Y-226.239 E51.3724
G1 X-293.737 Y-229.205 E51.89235
G1 X-292.371 Y-232.069 E52.40112
G1 X-290.924 Y-234.893 E52.90988
G1 X-289.403 Y-237.661 E53.4164
G1 X-287.811 Y-240.374 E53.9207
G1 X-286.134 Y-243.051 E54.42721
G1 X-284.382 Y-245.68 E54.93371
G1 X-282.628 Y-248.154 E55.41999
G1 X-280.643 Y-250.799 E55.95032
G1 X-278.615 Y-253.337 E56.47117
G1 X-276.581 Y-255.736 E56.97549
G1 X-274.471 Y-258.087 E57.48201
G1 X-272.294 Y-260.377 E57.98854
G1 X-270.053 Y-262.603 E58.49504
G1 X-267.739 Y-264.773 E59.00379
G1 X-265.363 Y-266.877 E59.51256
G1 X-262.874 Y-268.956 E60.03252
G1 X-260.392 Y-270.909 E60.53905
G1 X-257.855 Y-272.791 E61.04556
G1 X-255.265 Y-274.6 E61.55208
G1 X-252.636 Y-276.327 E62.0564
G1 X-249.875 Y-278.028 E62.57634
G1 X-247.151 Y-279.6 E63.08066
G1 X-244.371 Y-281.101 E63.58717
G1 X-241.549 Y-282.521 E64.0937
G1 X-238.688 Y-283.86 E64.60021
G1 X-235.713 Y-285.15 E65.12014
G1 X-232.792 Y-286.316 E65.62445
G1 X-229.839 Y-287.399 E66.12876
G1 X-226.976 Y-288.356 E66.61275
G1 X-223.813 Y-289.321 E67.14307
G1 X-220.678 Y-290.173 E67.66396
G1 X-217.593 Y-290.916 E68.17273
G1 X-214.488 Y-291.57 E68.68149
G1 X-211.38 Y-292.133 E69.188
G1 X-208.256 Y-292.607 E69.69451
G1 X-205.134 Y-292.989 E70.19882
G1 X-201.989 Y-293.284 E70.70535
G1 X-198.753 Y-293.493 E71.2253
G1 X-195.582 Y-293.606 E71.73407
G1 X-192.409 Y-293.628 E72.24283
G1 X-189.447 Y-293.563 E72.71797
G1 X-186.07 Y-293.399 E73.26002
G1 X-182.933 Y-293.15 E73.76456
G1 X-179.82 Y-292.814 E74.26665
G1 X-176.676 Y-292.384 E74.77539
G1 X-173.546 Y-291.864 E75.28418
G1 X-170.377 Y-291.243 E75.8019
G1 X-167.296 Y-290.546 E76.30844
G1 X-164.236 Y-289.761 E76.81493
G1 X-161.2 Y-288.889 E77.32145
G1 X-158.189 Y-287.931 E77.82799
G1 X-155.129 Y-286.858 E78.34793
G1 X-152.192 Y-285.733 E78.85224
G1 X-149.276 Y-284.519 E79.35875
G1 X-146.396 Y-283.222 E79.86526
G1 X-143.553 Y-281.843 E80.3718
G1 X-140.678 Y-280.344 E80.89175
G1 X-137.92 Y-278.803 E81.39829
G1 X-135.207 Y-277.184 E81.9048
G1 X-132.542 Y-275.488 E82.41132
G1 X-129.937 Y-273.725 E82.91563
G1 X-127.306 Y-271.83 E83.43558
G1 X-124.952 Y-270.03 E83.91073
G1 X-122.323 Y-267.904 E84.45281
G1 X-119.927 Y-265.843 E84.95959
G1 X-117.592 Y-263.716 E85.46612
G1 X-115.318 Y-261.522 E85.97264
G1 X-113.118 Y-259.275 E86.47695
G1 X-110.917 Y-256.893 E86.99691
G1 X-108.832 Y-254.501 E87.50568
G1 X-106.816 Y-252.051 E88.01445
G1 X-104.88 Y-249.554 E88.52097
G1 X-103.025 Y-247.015 E89.02526
G1 X-101.234 Y-244.413 E89.53174
G1 X-99.519 Y-241.76 E90.03828
G1 X-97.837 Y-238.987 E90.55824
G1 X-96.271 Y-236.227 E91.06702
G1 X-94.785 Y-233.424 E91.57576
G1 X-93.392 Y-230.604 E92.08003
G1 X-92.086 Y-227.758 E92.58211
G1 X-90.844 Y-224.839 E93.09083
G1 X-89.762 Y-222.075 E93.56667
G1 X-88.593 Y-218.833 E94.11926
G1 X-87.621 Y-215.855 E94.62162
G1 X-86.73 Y-212.838 E95.1259
G1 X-85.902 Y-209.703 E95.64586
G1 X-85.181 Y-206.613 E96.15463
G1 X-84.549 Y-203.504 E96.66337
G1 X-84.009 Y-200.391 E97.1699
G1 X-83.558 Y-197.264 E97.67643
G1 X-83.196 Y-194.126 E98.18295
G1 X-82.925 Y-190.993 E98.68724
G1 X-82.742 Y-187.825 E99.19596
G1 X-82.65 Y-184.653 E99.70474
G1 X-82.65 Y-181.439 E100.22022
G1 X-82.741 Y-178.267 E100.72901
G1 X-82.922 Y-175.113 E101.23553
G1 X-83.193 Y-171.966 E101.74203
G1 X-83.554 Y-168.827 E102.24856
G1 X-84.018 Y-165.618 E102.76852
G1 X-84.557 Y-162.519 E103.27285
G1 X-85.187 Y-159.423 E103.77934
G1 X-85.906 Y-156.347 E104.28584
G1 X-86.715 Y-153.279 E104.79459
G1 X-87.613 Y-150.236 E105.30333
G1 X-88.592 Y-147.233 E105.80989
G1 X-89.687 Y-144.18 E106.32984
G1 X-90.828 Y-141.264 E106.83191
G1 X-92.057 Y-138.369 E107.33619
G1 X-93.38 Y-135.485 E107.84493
G1 X-94.785 Y-132.64 E108.3537
G1 X-96.305 Y-129.776 E108.87365
G1 X-97.865 Y-127.029 E109.38017
G1 X-99.497 Y-124.34 E109.88449
G1 X-101.211 Y-121.686 E110.39102
G1 X-103.001 Y-119.083 E110.89752
G1 X-104.872 Y-116.521 E111.40626
G1 X-106.816 Y-114.013 E111.91504
G1 X-108.877 Y-111.509 E112.43498
G1 X-110.945 Y-109.14 E112.93927
G1 X-112.872 Y-107.053 E113.39476
G1 X-113.581 Y-107.707 F3600
G1 F1800
G1 X-115.973 Y-105.251 E113.94453
G1 X-118.088 Y-103.208 E114.416
G1 X-120.601 Y-100.911 E114.96189
G1 X-122.966 Y-98.879 E115.46198
G1 X-125.388 Y-96.915 E115.96185
G1 X-127.886 Y-95.004 E116.46616
G1 X-130.438 Y-93.165 E116.97049
G1 X-133.088 Y-91.37 E117.48373
G1 X-135.731 Y-89.69 E117.98582
G1 X-138.42 Y-88.085 E118.48792
G1 X-141.154 Y-86.559 E118.99003
G1 X-143.93 Y-85.11 E119.49214
G1 X-146.81 Y-83.713 E120.00539
G1 X-149.678 Y-82.422 E120.50972
G1 X-152.583 Y-81.214 E121.01405
G1 X-155.507 Y-80.094 E121.51616
G1 X-158.462 Y-79.058 E122.01825
G1 X-161.446 Y-78.108 E122.52034
G1 X-164.455 Y-77.243 E123.02244
G1 X-167.556 Y-76.447 E123.53568
G1 X-170.611 Y-75.757 E124.03779
G1 X-173.683 Y-75.155 E124.53987
G1 X-176.772 Y-74.641 E125.04195
G1 X-179.875 Y-74.214 E125.54406
G1 X-183.057 Y-73.871 E126.05731
G1 X-185.985 Y-73.64 E126.52823
G1 X-189.333 Y-73.467 E127.06574
G1 X-192.451 Y-73.4 E127.56581
G1 X-195.569 Y-73.422 E128.06569
G1 X-198.712 Y-73.534 E128.57
G1 X-201.646 Y-73.723 E129.04146
G1 X-205.036 Y-74.034 E129.58736
G1 X-208.132 Y-74.414 E130.08744
G1 X-211.215 Y-74.881 E130.58732
G1 X-214.364 Y-75.452 E131.10055
G1 X-217.428 Y-76.099 E131.60263
G1 X-220.472 Y-76.834 E132.10473
G1 X-223.494 Y-77.655 E132.60685
G1 X-226.491 Y-78.562 E133.10895
G1 X-229.329 Y-79.511 E133.58874
G1 X-232.423 Y-80.639 E134.11685
G1 X-235.4 Y-81.829 E134.63083
G1 X-238.273 Y-83.074 E135.13294
G1 X-241.11 Y-84.401 E135.63503
G1 X-243.907 Y-85.808 E136.13713
G1 X-246.663 Y-87.295 E136.63922
G1 X-249.435 Y-88.896 E137.15247
G1 X-252.101 Y-90.539 E137.65457
G1 X-254.73 Y-92.266 E138.15888
G1 X-257.297 Y-94.059 E138.66099
G1 X-259.812 Y-95.925 E139.1631
G1 X-262.283 Y-97.87 E139.66742
G1 X-264.687 Y-99.877 E140.16951
G1 X-266.928 Y-101.86 E140.64931
G1 X-269.335 Y-104.108 E141.17741
G1 X-271.591 Y-106.347 E141.68693
G1 X-273.777 Y-108.647 E142.19574
G1 X-275.878 Y-110.988 E142.70006
G1 X-277.91 Y-113.388 E143.20437
G1 X-279.839 Y-115.802 E143.69981
G1 X-281.64 Y-118.192 E144.17959
G1 X-283.55 Y-120.875 E144.70769
G1 X-285.306 Y-123.507 E145.21498
G1 X-286.997 Y-126.208 E145.72602
G1 X-288.589 Y-128.921 E146.23035
G1 X-290.102 Y-131.679 E146.73468
G1 X-291.529 Y-134.466 E147.23678
G1 X-292.876 Y-137.293 E147.73886
G1 X-294.141 Y-140.157 E148.24095
G1 X-295.324 Y-143.056 E148.74304
G1 X-296.448 Y-146.054 E149.25631
G1 X-297.466 Y-149.03 E149.76064
G1 X-298.399 Y-152.034 E150.26495
G1 X-299.241 Y-155.05 E150.76705
G1 X-300 Y-158.102 E151.27137
G1 X-300.669 Y-161.161 E151.77347
G1 X-301.247 Y-164.225 E152.27334
G1 X-301.742 Y-167.331 E152.77766
G1 X-302.148 Y-170.45 E153.28199
G1 X-302.466 Y-173.607 E153.79079
G1 X-302.679 Y-176.564 E154.26613
G1 X-302.826 Y-179.855 E154.79423
G1 X-302.872 Y-183.06 E155.30822
G1 X-302.827 Y-186.191 E155.81032
G1 X-302.692 Y-189.32 E156.31242
G1 X-302.468 Y-192.443 E156.81451
G1 X-302.154 Y-195.559 E157.3166
G1 X-301.75 Y-198.678 E157.82091
G1 X-301.257 Y-201.784 E158.32525
G1 X-300.669 Y-204.902 E158.83403
G1 X-299.997 Y-207.975 E159.33837
G1 X-299.241 Y-211.014 E159.84049
G1 X-298.399 Y-214.03 E160.34257
G1 X-297.466 Y-217.034 E160.84688
G1 X-296.429 Y-220.062 E161.36012
G1 X-295.335 Y-222.982 E161.86002
G1 X-294.157 Y-225.868 E162.35988
G1 X-292.864 Y-228.796 E162.87313
G1 X-291.51 Y-231.635 E163.37747
G1 X-290.075 Y-234.434 E163.88178
G1 X-288.568 Y-237.179 E164.38389
G1 X-286.983 Y-239.88 E164.88598
G1 X-285.321 Y-242.534 E165.38807
G1 X-283.584 Y-245.139 E165.89015
G1 X-281.853 Y-247.58 E166.36996
G1 X-279.876 Y-250.215 E166.89807
G1 X-277.875 Y-252.719 E167.41204
G1 X-275.85 Y-255.108 E167.91414
G1 X-273.758 Y-257.438 E168.41624
G1 X-271.6 Y-259.707 E168.91835
G1 X-269.379 Y-261.914 E169.42044
G1 X-267.084 Y-264.066 E169.92476
G1 X-264.729 Y-266.151 E170.42909
G1 X-262.272 Y-268.202 E170.94235
G1 X-259.812 Y-270.139 E171.44445
G1 X-257.297 Y-272.005 E171.94655
