; generated by PrusaSlicer 2.4.2+win64 on 2022-07-18 at 03:42:19 UTC

; 

; external perimeters extrusion width = 1.12mm
; perimeters extrusion width = 1.12mm
; infill extrusion width = 1.12mm
; solid infill extrusion width = 1.12mm
; top infill extrusion width = 1.00mm
; first layer extrusion width = 1.05mm

M107
M190 S60 ; set bed temperature and wait for it to be reached
M104 S215 ; set temperature
;TYPE:Custom
G28 ; home all axes
G1 Z5 F5000 ; lift nozzle
M109 S215 ; set temperature and wait for it to be reached
G21 ; set units to millimeters
G90 ; use absolute coordinates
M82 ; use absolute distances for extrusion
G92 E0
; Filament gcode
M107
;LAYER_CHANGE
;Z:0.4
;HEIGHT:0.4
G1 Z.4 F600
G1 E-1 F2400
G92 E0
G1 X-134.353 Y-129.66 F4800
G1 E1 F2400
;TYPE:Skirt/Brim
;WIDTH:1.05
G1 F1800
G1 X-136.117 Y-128.105 E1.3771
G1 X-138.298 Y-127.226 E1.7542
G1 X-139.774 Y-127.068 E1.99209
G1 X-246.717 Y-127.068 E19.13938
G1 X-249.035 Y-127.465 E19.51648
G1 X-251.088 Y-128.611 E19.89358
G1 X-252.644 Y-130.375 E20.27068
G1 X-253.523 Y-132.557 E20.64778
G1 X-253.681 Y-134.032 E20.88567
G1 X-253.681 Y-232.032 E36.59902
G1 X-253.284 Y-234.35 E36.97612
G1 X-252.138 Y-236.404 E37.35322
G1 X-250.373 Y-237.959 E37.73032
G1 X-248.192 Y-238.838 E38.10743
G1 X-246.717 Y-238.996 E38.34532
G1 X-139.774 Y-238.996 E55.4926
G1 X-137.455 Y-238.599 E55.8697
G1 X-135.402 Y-237.453 E56.2468
G1 X-133.847 Y-235.689 E56.6239
G1 X-132.967 Y-233.507 E57.001
G1 X-132.809 Y-232.032 E57.23889
G1 X-132.809 Y-134.032 E72.95225
G1 X-133.207 Y-131.714 E73.32935
G1 X-134.28 Y-129.791 E73.6824
G1 E72.6824 F2400
G92 E0
G1 X-224.792 Y-180.007 F4800
G1 E1 F2400
;TYPE:External perimeter
G1 F1800
G1 X-224.676 Y-180.007 E1.01861
G1 X-224.676 Y-186.057 E1.98867
G1 X-246.192 Y-186.057 E5.43857
G1 X-246.192 Y-231.507 E12.72604
G1 X-140.299 Y-231.507 E29.70497
G1 X-140.299 Y-134.557 E45.24996
G1 X-246.192 Y-134.557 E62.22889
G1 X-246.192 Y-180.007 E69.51636
G1 X-224.942 Y-180.007 E72.92359
G1 E71.92359 F2400
G92 E0
G1 X-239.609 Y-179.27 F4800
G1 E1 F2400
;TYPE:Internal infill
G1 F1800
G1 X-245.455 Y-179.27 E1.93736
G1 X-245.455 Y-179.169 E1.95361
G1 X-201.58 Y-135.294 E11.90257
G1 X-198.929 Y-135.294 E12.32763
G1 X-141.035 Y-193.187 E25.4553
G1 X-141.035 Y-193.904 E25.57026
G1 X-177.901 Y-230.77 E33.92987
G1 X-180.552 Y-230.77 E34.35492
G1 X-224.529 Y-186.794 E44.32688
G1 X-225.043 Y-186.794 E44.40932
G1 X-245.455 Y-207.205 E49.0378
G1 X-245.455 Y-207.922 E49.15276
G1 X-222.607 Y-230.77 E54.33366
G1 X-219.956 Y-230.77 E54.75871
G1 X-141.035 Y-151.849 E72.65445
G1 X-141.035 Y-151.132 E72.76941
G1 X-156.874 Y-135.294 E76.36095
G1 X-159.525 Y-135.294 E76.786
G1 X-245.455 Y-221.224 E96.2711
G1 X-245.455 Y-221.941 E96.38606
G1 X-236.625 Y-230.77 E98.38824
G1 X-233.974 Y-230.77 E98.8133
G1 X-141.035 Y-137.831 E119.88775
G1 X-141.035 Y-137.114 E120.00271
G1 X-142.856 Y-135.294 E120.41554
G1 X-145.507 Y-135.294 E120.84059
G1 X-240.983 Y-230.77 E142.49045
G1 X-243.634 Y-230.77 E142.91551
G1 X-245.455 Y-228.95 E143.32833
G1 X-245.455 Y-228.233 E143.4433
G1 X-152.516 Y-135.294 E164.51775
G1 X-149.865 Y-135.294 E164.9428
G1 X-141.035 Y-144.123 E166.94498
G1 X-141.035 Y-144.84 E167.05995
G1 X-226.965 Y-230.77 E186.54504
G1 X-229.616 Y-230.77 E186.9701
G1 X-245.455 Y-214.932 E190.56163
G1 X-245.455 Y-214.215 E190.6766
G1 X-166.534 Y-135.294 E208.57234
G1 X-163.883 Y-135.294 E208.99739
G1 X-141.035 Y-158.142 E214.17828
G1 X-141.035 Y-158.859 E214.29325
G1 X-212.947 Y-230.77 E230.59963
G1 X-215.598 Y-230.77 E231.02468
G1 X-245.455 Y-200.913 E237.79493
G1 X-245.455 Y-200.196 E237.9099
G1 X-232.052 Y-186.794 E240.94902
G1 X-231.538 Y-186.794 E241.03146
G1 X-187.561 Y-230.77 E251.00342
G1 X-184.911 Y-230.77 E251.42847
G1 X-141.035 Y-186.895 E261.37743
G1 X-141.035 Y-186.178 E261.4924
G1 X-191.92 Y-135.294 E273.03071
G1 X-194.571 Y-135.294 E273.45577
G1 X-238.547 Y-179.27 E283.42772
G1 X-239.061 Y-179.27 E283.51017
G1 X-245.455 Y-172.877 E284.95993
G1 X-245.455 Y-172.16 E285.0749
G1 X-208.589 Y-135.294 E293.4345
G1 X-205.938 Y-135.294 E293.85955
G1 X-141.035 Y-200.196 E308.57658
G1 X-141.035 Y-200.913 E308.69155
G1 X-170.892 Y-230.77 E315.4618
G1 X-173.543 Y-230.77 E315.88685
G1 X-223.939 Y-180.375 E327.31434
G1 X-223.939 Y-185.689 E328.16648
G1 X-173.543 Y-135.294 E339.59397
G1 X-170.892 Y-135.294 E340.01903
G1 X-141.035 Y-165.151 E346.78928
G1 X-141.035 Y-165.868 E346.90424
G1 X-205.938 Y-230.77 E361.62127
G1 X-208.589 Y-230.77 E362.04632
G1 X-245.455 Y-193.904 E370.40593
G1 X-245.455 Y-193.187 E370.52089
G1 X-239.061 Y-186.794 E371.97066
G1 X-238.547 Y-186.794 E372.0531
G1 X-194.571 Y-230.77 E382.02506
G1 X-191.92 Y-230.77 E382.45011
G1 X-141.035 Y-179.886 E393.98843
G1 X-141.035 Y-179.169 E394.10339
G1 X-184.911 Y-135.294 E404.05235
G1 X-187.561 Y-135.294 E404.4774
G1 X-231.538 Y-179.27 E414.44936
G1 X-232.052 Y-179.27 E414.53181
G1 X-245.455 Y-165.868 E417.57092
G1 X-245.455 Y-165.151 E417.68589
G1 X-215.598 Y-135.294 E424.45614
G1 X-212.947 Y-135.294 E424.88119
G1 X-141.035 Y-207.205 E441.18757
G1 X-141.035 Y-207.922 E441.30254
G1 X-163.883 Y-230.77 E446.48343
G1 X-166.534 Y-230.77 E446.90849
G1 X-245.455 Y-151.849 E464.80422
G1 X-245.455 Y-151.132 E464.91919
G1 X-229.616 Y-135.294 E468.51073
G1 X-226.965 Y-135.294 E468.93578
G1 X-141.035 Y-221.224 E488.42087
G1 X-141.035 Y-221.941 E488.53584
G1 X-149.865 Y-230.77 E490.53802
G1 X-152.516 Y-230.77 E490.96307
G1 X-245.455 Y-137.831 E512.03752
G1 X-245.455 Y-137.114 E512.15249
G1 X-243.634 Y-135.294 E512.56532
G1 X-240.983 Y-135.294 E512.99037
G1 X-145.507 Y-230.77 E534.64023
G1 X-142.856 Y-230.77 E535.06528
G1 X-141.035 Y-228.95 E535.47811
G1 X-141.035 Y-228.233 E535.59308
G1 X-233.974 Y-135.294 E556.66753
G1 X-236.625 Y-135.294 E557.09258
G1 X-245.455 Y-144.123 E559.09476
G1 X-245.455 Y-144.84 E559.20973
G1 X-159.525 Y-230.77 E578.69482
G1 X-156.874 Y-230.77 E579.11987
G1 X-141.035 Y-214.932 E582.71141
G1 X-141.035 Y-214.214 E582.82638
G1 X-219.956 Y-135.294 E600.72211
G1 X-222.607 Y-135.294 E601.14717
G1 X-245.455 Y-158.142 E606.32806
G1 X-245.455 Y-158.859 E606.44303
G1 X-225.043 Y-179.27 E611.0715
G1 X-224.529 Y-179.27 E611.15395
G1 X-180.552 Y-135.294 E621.1259
G1 X-177.901 Y-135.294 E621.55095
G1 X-141.035 Y-172.16 E629.91056
G1 X-141.035 Y-172.877 E630.02552
G1 X-198.929 Y-230.77 E643.1532
G1 X-201.58 Y-230.77 E643.57825
G1 X-245.455 Y-186.895 E653.52721
G1 X-245.455 Y-186.794 E653.54347
G1 X-239.609 Y-186.794 E654.48082
;LAYER_CHANGE
;Z:1
;HEIGHT:0.6
G1 Z1 F600
G1 E653.48082 F2400
G92 E0
G1 X-223.926 Y-180.172 F4800
G1 E1 F2400
;TYPE:External perimeter
;WIDTH:1.12
G1 F1800
G1 X-223.926 Y-186.092 E2.46381
G1 X-246.157 Y-186.092 E7.96057
G1 X-246.157 Y-231.472 E19.18148
G1 X-140.334 Y-231.472 E45.34788
G1 X-140.334 Y-134.592 E69.30296
G1 X-246.157 Y-134.592 E95.46936
G1 X-246.157 Y-179.972 E106.69027
G1 X-223.926 Y-179.972 E112.18703
G1 X-223.926 Y-180.022 E112.19939
G1 E111.19939 F2400
G92 E0
G1 X-239.599 Y-179.229 F4800
G1 E1 F2400
;TYPE:Internal infill
G1 X-245.413 Y-179.229 E2.43769
G1 X-245.413 Y-179.127 E2.46276
G1 X-201.621 Y-135.335 E17.77613
G1 X-198.887 Y-135.335 E18.45227
G1 X-141.077 Y-193.145 E38.66763
G1 X-141.077 Y-193.946 E38.86558
G1 X-177.86 Y-230.729 E51.72796
G1 X-180.594 Y-230.729 E52.4041
G1 X-224.487 Y-186.835 E67.75294
G1 X-225.085 Y-186.835 E67.90073
G1 X-245.413 Y-207.164 E75.00923
G1 X-245.413 Y-207.964 E75.20718
G1 X-222.649 Y-230.729 E83.16757
G1 X-219.914 Y-230.729 E83.84372
G1 X-141.077 Y-151.891 E111.41205
G1 X-141.077 Y-151.091 E111.61
G1 X-156.832 Y-135.335 E117.1194
G1 X-159.567 Y-135.335 E117.79555
G1 X-245.413 Y-221.182 E147.81487
G1 X-245.413 Y-221.982 E148.01282
G1 X-236.667 Y-230.729 E151.07123
G1 X-233.933 Y-230.729 E151.74738
G1 X-141.077 Y-137.873 E184.21769
G1 X-141.077 Y-137.072 E184.41564
G1 X-142.814 Y-135.335 E185.02306
G1 X-145.549 Y-135.335 E185.6992
G1 X-240.942 Y-230.729 E219.05688
G1 X-243.676 Y-230.729 E219.73303
G1 X-245.413 Y-228.992 E220.34044
G1 X-245.413 Y-228.191 E220.53839
G1 X-152.558 Y-135.335 E253.00871
G1 X-149.823 Y-135.335 E253.68485
G1 X-141.077 Y-144.082 E256.74326
G1 X-141.077 Y-144.882 E256.94121
G1 X-226.923 Y-230.729 E286.96054
G1 X-229.658 Y-230.729 E287.63668
G1 X-245.413 Y-214.973 E293.14608
G1 X-245.413 Y-214.173 E293.34403
G1 X-166.576 Y-135.335 E320.91237
G1 X-163.841 Y-135.335 E321.58851
G1 X-141.077 Y-158.1 E329.5489
G1 X-141.077 Y-158.9 E329.74685
G1 X-212.905 Y-230.729 E354.86419
G1 X-215.64 Y-230.729 E355.54034
G1 X-245.413 Y-200.955 E365.95172
G1 X-245.413 Y-200.155 E366.14968
G1 X-232.094 Y-186.835 E370.80718
G1 X-231.496 Y-186.835 E370.95498
G1 X-187.603 Y-230.729 E386.30381
G1 X-184.869 Y-230.729 E386.97995
G1 X-141.077 Y-186.937 E402.29332
G1 X-141.077 Y-186.136 E402.49128
G1 X-191.878 Y-135.335 E420.25564
G1 X-194.612 Y-135.335 E420.93178
G1 X-238.505 Y-179.229 E436.28061
G1 X-239.103 Y-179.229 E436.42842
G1 X-245.413 Y-172.919 E438.63492
G1 X-245.413 Y-172.118 E438.83287
G1 X-208.631 Y-135.335 E451.69525
G1 X-205.896 Y-135.335 E452.3714
G1 X-141.077 Y-200.154 E475.03774
G1 X-141.077 Y-200.955 E475.2357
G1 X-170.851 Y-230.729 E485.64708
G1 X-173.585 Y-230.729 E486.32322
G1 X-223.183 Y-181.131 E503.66698
G1 X-223.183 Y-184.933 E504.60731
G1 X-173.585 Y-135.335 E521.95106
G1 X-170.851 Y-135.335 E522.62721
G1 X-141.077 Y-165.109 E533.03859
G1 X-141.077 Y-165.909 E533.23654
G1 X-205.896 Y-230.729 E555.90289
G1 X-208.631 Y-230.729 E556.57904
G1 X-245.413 Y-193.946 E569.44141
G1 X-245.413 Y-193.145 E569.63936
G1 X-239.103 Y-186.835 E571.84588
G1 X-238.506 Y-186.835 E571.99367
G1 X-194.612 Y-230.729 E587.34251
G1 X-191.878 Y-230.729 E588.01865
G1 X-141.077 Y-179.928 E605.78301
G1 X-141.077 Y-179.127 E605.98097
G1 X-184.869 Y-135.335 E621.29434
G1 X-187.603 Y-135.335 E621.97048
G1 X-231.496 Y-179.229 E637.31931
G1 X-232.094 Y-179.229 E637.46711
G1 X-245.413 Y-165.909 E642.12461
G1 X-245.413 Y-165.109 E642.32256
G1 X-215.64 Y-135.335 E652.73395
G1 X-212.905 Y-135.335 E653.41009
G1 X-141.077 Y-207.164 E678.52743
G1 X-141.077 Y-207.964 E678.72538
G1 X-163.841 Y-230.729 E686.68578
G1 X-166.576 Y-230.729 E687.36192
G1 X-245.413 Y-151.891 E714.93025
G1 X-245.413 Y-151.091 E715.12821
G1 X-229.658 Y-135.335 E720.63761
G1 X-226.923 Y-135.335 E721.31375
G1 X-141.077 Y-221.182 E751.33307
G1 X-141.077 Y-221.982 E751.53103
G1 X-149.823 Y-230.729 E754.58944
G1 X-152.558 Y-230.729 E755.26558
G1 X-245.413 Y-137.873 E787.73589
G1 X-245.413 Y-137.072 E787.93385
G1 X-243.676 Y-135.335 E788.54126
G1 X-240.942 Y-135.335 E789.21741
G1 X-145.549 Y-230.729 E822.57509
G1 X-142.814 Y-230.729 E823.25123
G1 X-141.077 Y-228.992 E823.85865
G1 X-141.077 Y-228.191 E824.0566
G1 X-233.933 Y-135.335 E856.52691
G1 X-236.667 Y-135.335 E857.20306
G1 X-245.413 Y-144.082 E860.26147
G1 X-245.413 Y-144.882 E860.45942
G1 X-159.567 Y-230.729 E890.47874
G1 X-156.832 Y-230.729 E891.15489
G1 X-141.077 Y-214.973 E896.66429
G1 X-141.077 Y-214.173 E896.86224
G1 X-219.914 Y-135.335 E924.43057
G1 X-222.649 Y-135.335 E925.10671
G1 X-245.413 Y-158.1 E933.06711
G1 X-245.413 Y-158.9 E933.26506
G1 X-225.085 Y-179.229 E940.37355
G1 X-224.487 Y-179.229 E940.52135
G1 X-180.594 Y-135.335 E955.87018
G1 X-177.86 Y-135.335 E956.54633
G1 X-141.077 Y-172.118 E969.40871
G1 X-141.077 Y-172.919 E969.60666
G1 X-198.887 Y-230.729 E989.82201
G1 X-201.621 Y-230.729 E990.49816
G1 X-245.413 Y-186.937 E1005.81153
G1 X-245.413 Y-186.835 E1005.8366
G1 X-239.599 Y-186.835 E1007.27429
;LAYER_CHANGE
;Z:1.6
;HEIGHT:0.6
G1 Z1.6 F600
G1 E1006.27429 F2400
G92 E0
G1 X-223.07 Y-180.172 F4800
G1 E1 F2400
;TYPE:External perimeter
G1 F1800
G1 X-223.07 Y-186.092 E2.46381
G1 X-246.157 Y-186.092 E8.17245
G1 X-246.157 Y-231.472 E19.39336
G1 X-140.334 Y-231.472 E45.55976
G1 X-140.334 Y-134.592 E69.51484
G1 X-246.157 Y-134.592 E95.68124
G1 X-246.157 Y-179.972 E106.90215
G1 X-223.07 Y-179.972 E112.61079
G1 X-223.07 Y-180.022 E112.62315
G1 E111.62315 F2400
G92 E0
G1 X-239.599 Y-179.229 F4800
G1 E1 F2400
;TYPE:Internal infill
G1 X-245.413 Y-179.229 E2.43769
G1 X-245.413 Y-179.127 E2.46276
G1 X-201.621 Y-135.335 E17.77613
G1 X-198.887 Y-135.335 E18.45227
G1 X-141.077 Y-193.145 E38.66763
G1 X-141.077 Y-193.946 E38.86558
G1 X-177.86 Y-230.729 E51.72796
G1 X-180.594 Y-230.729 E52.4041
G1 X-224.487 Y-186.835 E67.75294
G1 X-225.085 Y-186.835 E67.90073
G1 X-245.413 Y-207.164 E75.00923
G1 X-245.413 Y-207.964 E75.20718
G1 X-222.649 Y-230.729 E83.16757
G1 X-219.914 Y-230.729 E83.84372
G1 X-141.077 Y-151.891 E111.41205
G1 X-141.077 Y-151.091 E111.61
G1 X-156.832 Y-135.335 E117.1194
G1 X-159.567 Y-135.335 E117.79555
G1 X-245.413 Y-221.182 E147.81487
G1 X-245.413 Y-221.982 E148.01282
G1 X-236.667 Y-230.729 E151.07123
G1 X-233.933 Y-230.729 E151.74738
G1 X-141.077 Y-137.873 E184.21769
G1 X-141.077 Y-137.072 E184.41564
G1 X-142.814 Y-135.335 E185.02306
G1 X-145.549 Y-135.335 E185.6992
G1 X-240.942 Y-230.729 E219.05688
G1 X-243.676 Y-230.729 E219.73303
G1 X-245.413 Y-228.992 E220.34044
G1 X-245.413 Y-228.191 E220.53839
G1 X-152.558 Y-135.335 E253.00871
G1 X-149.823 Y-135.335 E253.68485
G1 X-141.077 Y-144.082 E256.74326
G1 X-141.077 Y-144.882 E256.94121
G1 X-226.923 Y-230.729 E286.96054
G1 X-229.658 Y-230.729 E287.63668
G1 X-245.413 Y-214.973 E293.14608
G1 X-245.413 Y-214.173 E293.34403
G1 X-166.576 Y-135.335 E320.91237
G1 X-163.841 Y-135.335 E321.58851
G1 X-141.077 Y-158.1 E329.5489
G1 X-141.077 Y-158.9 E329.74685
G1 X-212.905 Y-230.729 E354.86419
G1 X-215.64 Y-230.729 E355.54034
G1 X-245.413 Y-200.955 E365.95172
G1 X-245.413 Y-200.155 E366.14968
G1 X-232.094 Y-186.835 E370.80718
G1 X-231.496 Y-186.835 E370.95498
G1 X-187.603 Y-230.729 E386.30381
G1 X-184.869 Y-230.729 E386.97995
G1 X-141.077 Y-186.937 E402.29333
G1 X-141.077 Y-186.136 E402.49128
G1 X-191.878 Y-135.335 E420.25564
G1 X-194.612 Y-135.335 E420.93178
G1 X-238.505 Y-179.229 E436.28061
G1 X-239.103 Y-179.229 E436.42842
G1 X-245.413 Y-172.919 E438.63492
G1 X-245.413 Y-172.118 E438.83287
G1 X-208.631 Y-135.335 E451.69525
G1 X-205.896 Y-135.335 E452.3714
G1 X-141.077 Y-200.154 E475.03774
G1 X-141.077 Y-200.955 E475.2357
G1 X-170.851 Y-230.729 E485.64708
G1 X-173.585 Y-230.729 E486.32322
G1 X-222.326 Y-181.987 E503.36734
G1 X-222.326 Y-184.077 E503.88391
G1 X-173.585 Y-135.335 E520.92802
G1 X-170.851 Y-135.335 E521.60416
G1 X-141.077 Y-165.109 E532.01555
G1 X-141.077 Y-165.909 E532.2135
G1 X-205.896 Y-230.729 E554.87985
G1 X-208.631 Y-230.729 E555.55599
G1 X-245.413 Y-193.946 E568.41837
G1 X-245.413 Y-193.145 E568.61632
G1 X-239.103 Y-186.835 E570.82283
G1 X-238.506 Y-186.835 E570.97063
G1 X-194.612 Y-230.729 E586.31946
G1 X-191.878 Y-230.729 E586.99561
G1 X-141.077 Y-179.928 E604.75997
G1 X-141.077 Y-179.127 E604.95792
G1 X-184.869 Y-135.335 E620.27129
G1 X-187.603 Y-135.335 E620.94744
G1 X-231.496 Y-179.229 E636.29627
G1 X-232.094 Y-179.229 E636.44407
G1 X-245.413 Y-165.909 E641.10157
G1 X-245.413 Y-165.109 E641.29952
G1 X-215.64 Y-135.335 E651.71091
G1 X-212.905 Y-135.335 E652.38705
G1 X-141.077 Y-207.164 E677.50439
G1 X-141.077 Y-207.964 E677.70234
G1 X-163.841 Y-230.729 E685.66274
G1 X-166.576 Y-230.729 E686.33888
G1 X-245.413 Y-151.891 E713.90721
G1 X-245.413 Y-151.091 E714.10516
G1 X-229.658 Y-135.335 E719.61456
G1 X-226.923 Y-135.335 E720.29071
G1 X-141.077 Y-221.182 E750.31003
G1 X-141.077 Y-221.982 E750.50798
G1 X-149.823 Y-230.729 E753.56639
G1 X-152.558 Y-230.729 E754.24253
G1 X-245.413 Y-137.873 E786.71285
G1 X-245.413 Y-137.072 E786.9108
G1 X-243.676 Y-135.335 E787.51822
G1 X-240.942 Y-135.335 E788.19436
G1 X-145.549 Y-230.729 E821.55204
G1 X-142.814 Y-230.729 E822.22819
G1 X-141.077 Y-228.992 E822.8356
G1 X-141.077 Y-228.191 E823.03356
G1 X-233.933 Y-135.335 E855.50387
G1 X-236.667 Y-135.335 E856.18001
G1 X-245.413 Y-144.082 E859.23842
G1 X-245.413 Y-144.882 E859.43638
G1 X-159.567 Y-230.729 E889.4557
G1 X-156.832 Y-230.729 E890.13184
G1 X-141.077 Y-214.973 E895.64124
G1 X-141.077 Y-214.173 E895.8392
G1 X-219.914 Y-135.335 E923.40753
G1 X-222.649 Y-135.335 E924.08367
G1 X-245.413 Y-158.1 E932.04406
G1 X-245.413 Y-158.9 E932.24202
G1 X-225.085 Y-179.229 E939.35051
