; generated by PrusaSlicer 2.4.2+win64 on 2022-07-18 at 20:41:51 UTC

; 

; external perimeters extrusion width = 1.12mm
; perimeters extrusion width = 1.12mm
; infill extrusion width = 1.12mm
; solid infill extrusion width = 1.12mm
; top infill extrusion width = 1.00mm
; first layer extrusion width = 1.05mm

M107
M190 S60 ; set bed temperature and wait for it to be reached
M104 S215 ; set temperature
;TYPE:Custom
G28 ; home all axes
G1 Z5 F5000 ; lift nozzle
M109 S215 ; set temperature and wait for it to be reached
G21 ; set units to millimeters
G90 ; use absolute coordinates
M82 ; use absolute distances for extrusion
G92 E0
; Filament gcode
M107
;LAYER_CHANGE
;Z:0.4
;HEIGHT:0.4
G1 Z.4 F600
G1 E-1 F2400
G92 E0
G1 X-134.353 Y-129.66 F4800
G1 E1 F2400
;TYPE:Skirt/Brim
;WIDTH:1.05
G1 F1800
G1 X-136.117 Y-128.105 E1.3771
G1 X-138.298 Y-127.226 E1.7542
G1 X-139.774 Y-127.068 E1.99209
G1 X-246.717 Y-127.068 E19.13938
G1 X-249.035 Y-127.465 E19.51648
G1 X-251.088 Y-128.611 E19.89358
G1 X-252.644 Y-130.375 E20.27068
G1 X-253.523 Y-132.557 E20.64778
G1 X-253.681 Y-134.032 E20.88567
G1 X-253.681 Y-232.032 E36.59902
G1 X-253.284 Y-234.35 E36.97612
G1 X-252.138 Y-236.404 E37.35322
G1 X-250.373 Y-237.959 E37.73032
G1 X-248.192 Y-238.838 E38.10743
G1 X-246.717 Y-238.996 E38.34532
G1 X-139.774 Y-238.996 E55.4926
G1 X-137.455 Y-238.599 E55.8697
G1 X-135.402 Y-237.453 E56.2468
G1 X-133.847 Y-235.689 E56.6239
G1 X-132.967 Y-233.507 E57.001
G1 X-132.809 Y-232.032 E57.23889
G1 X-132.809 Y-134.032 E72.95225
G1 X-133.207 Y-131.714 E73.32935
G1 X-134.28 Y-129.791 E73.6824
G1 E72.6824 F2400
G92 E0
G1 X-224.792 Y-180.007 F4800
G1 E1 F2400
;TYPE:External perimeter
G1 F1800
G1 X-224.676 Y-180.007 E1.01861
G1 X-224.676 Y-186.057 E1.98867
G1 X-246.192 Y-186.057 E5.43857
G1 X-246.192 Y-231.507 E12.72604
G1 X-140.299 Y-231.507 E29.70497
G1 X-140.299 Y-134.557 E45.24996
G1 X-246.192 Y-134.557 E62.22889
G1 X-246.192 Y-180.007 E69.51636
G1 X-224.942 Y-180.007 E72.92359
G1 X-225.508 Y-179.249 F4800
;TYPE:Internal infill
G1 F1800
G1 X-223.917 Y-179.249 E73.17862
G1 X-223.917 Y-181.61 E73.55722
G1 X-174.779 Y-230.749 E84.6997
G1 X-175.149 Y-230.749 E84.75901
G1 X-141.057 Y-196.657 E92.48951
G1 X-141.057 Y-198.657 E92.81023
G1 X-204.399 Y-135.315 E107.17343
G1 X-204.029 Y-135.315 E107.23273
G1 X-245.434 Y-176.72 E116.62141
G1 X-245.434 Y-174.719 E116.94214
G1 X-240.904 Y-179.249 E117.96925
G1 X-240.65 Y-179.249 E118.00992
G1 X-196.716 Y-135.315 E127.97214
G1 X-197.086 Y-135.315 E128.03144
G1 X-141.057 Y-191.345 E140.73647
G1 X-141.057 Y-189.344 E141.05719
G1 X-182.461 Y-230.749 E150.44587
G1 X-182.091 Y-230.749 E150.50517
G1 X-226.025 Y-186.815 E160.4674
G1 X-226.279 Y-186.815 E160.50806
G1 X-245.434 Y-205.97 E164.85153
G1 X-245.434 Y-203.97 E165.17226
G1 X-218.654 Y-230.749 E171.24459
G1 X-219.024 Y-230.749 E171.30389
G1 X-141.057 Y-152.781 E188.98343
G1 X-141.057 Y-154.782 E189.30416
G1 X-160.523 Y-135.315 E193.71831
G1 X-160.153 Y-135.315 E193.77762
G1 X-245.434 Y-220.595 E213.11534
G1 X-245.434 Y-218.595 E213.43606
G1 X-233.28 Y-230.749 E216.19204
G1 X-233.649 Y-230.749 E216.25134
G1 X-141.057 Y-138.156 E237.24724
G1 X-141.057 Y-140.156 E237.56797
G1 X-145.898 Y-135.315 E238.66577
G1 X-145.528 Y-135.315 E238.72507
G1 X-240.962 Y-230.749 E260.3652
G1 X-240.592 Y-230.749 E260.4245
G1 X-245.434 Y-225.908 E261.52231
G1 X-245.434 Y-227.908 E261.84303
G1 X-152.841 Y-135.315 E282.83893
G1 X-153.211 Y-135.315 E282.89823
G1 X-141.057 Y-147.469 E285.65421
G1 X-141.057 Y-145.469 E285.97494
G1 X-226.337 Y-230.749 E305.31266
G1 X-225.967 Y-230.749 E305.37196
G1 X-245.434 Y-211.282 E309.78612
G1 X-245.434 Y-213.283 E310.10684
G1 X-167.466 Y-135.315 E327.78639
G1 X-167.836 Y-135.315 E327.84569
G1 X-141.057 Y-162.094 E333.91802
G1 X-141.057 Y-160.094 E334.23875
G1 X-211.712 Y-230.749 E350.26012
G1 X-211.342 Y-230.749 E350.31942
G1 X-245.434 Y-196.657 E358.04992
G1 X-245.434 Y-198.657 E358.37065
G1 X-233.591 Y-186.815 E361.05594
G1 X-233.338 Y-186.815 E361.09661
G1 X-189.404 Y-230.749 E371.05883
G1 X-189.774 Y-230.749 E371.11813
G1 X-141.057 Y-182.032 E382.16499
G1 X-141.057 Y-184.032 E382.48571
G1 X-189.774 Y-135.315 E393.53256
G1 X-189.404 Y-135.315 E393.59186
G1 X-233.338 Y-179.249 E403.55408
G1 X-233.591 Y-179.249 E403.59475
G1 X-245.434 Y-167.407 E406.28004
G1 X-245.434 Y-169.407 E406.60077
G1 X-211.342 Y-135.315 E414.33127
G1 X-211.712 Y-135.315 E414.39057
G1 X-141.057 Y-205.97 E430.41195
G1 X-141.057 Y-203.97 E430.73267
G1 X-167.836 Y-230.749 E436.805
G1 X-167.466 Y-230.749 E436.8643
G1 X-245.434 Y-152.781 E454.54385
G1 X-245.434 Y-154.782 E454.86457
G1 X-225.967 Y-135.315 E459.27873
G1 X-226.337 Y-135.315 E459.33803
G1 X-141.057 Y-220.595 E478.67575
G1 X-141.057 Y-218.595 E478.99648
G1 X-153.211 Y-230.749 E481.75246
G1 X-152.841 Y-230.749 E481.81176
G1 X-245.434 Y-138.156 E502.80766
G1 X-245.434 Y-140.156 E503.12838
G1 X-240.592 Y-135.315 E504.22619
G1 X-240.962 Y-135.315 E504.28549
G1 X-145.528 Y-230.749 E525.92562
G1 X-145.898 Y-230.749 E525.98493
G1 X-141.057 Y-225.908 E527.08273
G1 X-141.057 Y-227.908 E527.40346
G1 X-233.649 Y-135.315 E548.39935
G1 X-233.28 Y-135.315 E548.45865
G1 X-245.434 Y-147.469 E551.21464
G1 X-245.434 Y-145.469 E551.53536
G1 X-160.153 Y-230.749 E570.87308
G1 X-160.523 Y-230.749 E570.93238
G1 X-141.057 Y-211.282 E575.34654
G1 X-141.057 Y-213.283 E575.66726
G1 X-219.024 Y-135.315 E593.34681
G1 X-218.654 Y-135.315 E593.40611
G1 X-245.434 Y-162.094 E599.47844
G1 X-245.434 Y-160.094 E599.79917
G1 X-226.279 Y-179.249 E604.14263
G1 X-226.025 Y-179.249 E604.1833
G1 X-182.091 Y-135.315 E614.14552
G1 X-182.461 Y-135.315 E614.20482
G1 X-141.057 Y-176.72 E623.5935
G1 X-141.057 Y-174.719 E623.91422
G1 X-197.086 Y-230.749 E636.61925
G1 X-196.716 Y-230.749 E636.67855
G1 X-240.65 Y-186.815 E646.64077
G1 X-240.904 Y-186.815 E646.68144
G1 X-245.434 Y-191.345 E647.70856
G1 X-245.434 Y-189.344 E648.02928
G1 X-204.029 Y-230.749 E657.41796
G1 X-204.399 Y-230.749 E657.47726
G1 X-141.057 Y-167.407 E671.84046
G1 X-141.057 Y-169.407 E672.16119
G1 X-175.149 Y-135.315 E679.89169
G1 X-174.779 Y-135.315 E679.95099
G1 X-223.917 Y-184.454 E691.09347
G1 X-223.917 Y-186.815 E691.47208
G1 X-225.508 Y-186.815 E691.7271
M106 S216.75
;LAYER_CHANGE
;Z:0.8
;HEIGHT:0.4
G1 Z.8 F600
G1 E690.7271 F2400
G92 E0
G1 X-224.069 Y-180.172 F4800
G1 E1 F2400
;TYPE:External perimeter
;WIDTH:1.12
G1 F1800
G1 X-224.069 Y-186.092 E2.01813
G1 X-246.157 Y-186.092 E5.81674
G1 X-246.157 Y-231.472 E13.62126
G1 X-140.334 Y-231.472 E31.82086
G1 X-140.334 Y-134.592 E48.48241
G1 X-246.157 Y-134.592 E66.68201
G1 X-246.157 Y-179.972 E74.48652
G1 X-224.069 Y-179.972 E78.28514
G1 X-224.069 Y-180.022 E78.29374
G1 E77.29374 F2400
G92 E0
G1 X-245.381 Y-221.06 F4800
G1 E1 F2400
;TYPE:Internal infill
G1 X-245.381 Y-225.96 E1.84275
G1 X-240.645 Y-230.696 E2.99472
G1 X-240.909 Y-230.696 E3.04027
G1 X-145.581 Y-135.368 E26.22598
G1 X-145.846 Y-135.368 E26.27153
G1 X-141.109 Y-140.104 E27.4235
G1 X-141.109 Y-138.209 E27.74945
G1 X-233.597 Y-230.696 E50.24416
G1 X-233.332 Y-230.696 E50.2897
G1 X-245.381 Y-218.647 E53.22024
G1 X-245.381 Y-220.543 E53.54619
G1 X-160.206 Y-135.368 E74.26234
G1 X-160.471 Y-135.368 E74.30788
G1 X-141.109 Y-154.729 E79.01698
G1 X-141.109 Y-152.834 E79.34293
G1 X-218.972 Y-230.696 E98.28051
G1 X-218.707 Y-230.696 E98.32606
G1 X-245.381 Y-204.022 E104.81372
G1 X-245.381 Y-205.917 E105.13967
G1 X-226.331 Y-186.868 E109.77294
G1 X-225.973 Y-186.868 E109.83462
G1 X-182.144 Y-230.696 E120.49458
G1 X-182.409 Y-230.696 E120.54013
G1 X-141.109 Y-189.397 E130.58491
G1 X-141.109 Y-191.292 E130.91086
G1 X-197.034 Y-135.368 E144.51276
G1 X-196.769 Y-135.368 E144.55831
G1 X-240.598 Y-179.196 E155.21827
G1 X-240.956 Y-179.196 E155.27995
G1 X-245.381 Y-174.772 E156.3561
G1 X-245.381 Y-176.667 E156.68205
G1 X-204.082 Y-135.368 E166.72683
G1 X-204.346 Y-135.368 E166.77238
G1 X-141.109 Y-198.605 E182.15284
G1 X-141.109 Y-196.71 E182.47879
G1 X-175.096 Y-230.696 E190.74501
G1 X-174.831 Y-230.696 E190.79056
G1 X-223.294 Y-182.234 E202.57753
G1 X-223.294 Y-183.83 E202.85205
G1 X-174.831 Y-135.368 E214.63902
G1 X-175.096 Y-135.368 E214.68457
G1 X-141.109 Y-169.354 E222.95079
G1 X-141.109 Y-167.459 E223.27674
G1 X-204.346 Y-230.696 E238.6572
G1 X-204.082 Y-230.696 E238.70275
G1 X-245.381 Y-189.397 E248.74752
G1 X-245.381 Y-191.292 E249.07348
G1 X-240.956 Y-186.868 E250.14963
G1 X-240.598 Y-186.868 E250.2113
G1 X-196.769 Y-230.696 E260.87127
G1 X-197.034 Y-230.696 E260.91682
G1 X-141.109 Y-174.772 E274.51872
G1 X-141.109 Y-176.667 E274.84467
G1 X-182.409 Y-135.368 E284.88945
G1 X-182.144 Y-135.368 E284.935
G1 X-225.973 Y-179.196 E295.59496
G1 X-226.331 Y-179.196 E295.65664
G1 X-245.381 Y-160.147 E300.28991
G1 X-245.381 Y-162.042 E300.61586
G1 X-218.707 Y-135.368 E307.10351
G1 X-218.972 Y-135.368 E307.14906
G1 X-141.109 Y-213.23 E326.08665
G1 X-141.109 Y-211.335 E326.4126
G1 X-160.471 Y-230.696 E331.12169
G1 X-160.206 Y-230.696 E331.16724
G1 X-245.381 Y-145.521 E351.88339
G1 X-245.381 Y-147.417 E352.20934
G1 X-233.332 Y-135.368 E355.13987
G1 X-233.597 Y-135.368 E355.18542
G1 X-141.109 Y-227.855 E377.68013
G1 X-141.109 Y-225.96 E378.00608
G1 X-145.846 Y-230.696 E379.15805
G1 X-145.581 Y-230.696 E379.2036
G1 X-240.91 Y-135.368 E402.38931
G1 X-240.645 Y-135.368 E402.43486
G1 X-245.381 Y-140.104 E403.58683
G1 X-245.381 Y-138.209 E403.91278
G1 X-152.893 Y-230.696 E426.40749
G1 X-153.158 Y-230.696 E426.45304
G1 X-141.109 Y-218.647 E429.38357
G1 X-141.109 Y-220.543 E429.70952
G1 X-226.284 Y-135.368 E450.42567
G1 X-226.019 Y-135.368 E450.47122
G1 X-245.381 Y-154.729 E455.18031
G1 X-245.381 Y-152.834 E455.50626
G1 X-167.519 Y-230.696 E474.44384
G1 X-167.783 Y-230.696 E474.48939
G1 X-141.109 Y-204.022 E480.97705
G1 X-141.109 Y-205.917 E481.303
G1 X-211.659 Y-135.368 E498.46202
G1 X-211.394 Y-135.368 E498.50757
G1 X-245.381 Y-169.354 E506.77379
G1 X-245.381 Y-167.459 E507.09974
G1 X-233.644 Y-179.196 E509.95445
G1 X-233.285 Y-179.196 E510.01613
G1 X-189.456 Y-135.368 E520.67609
G1 X-189.721 Y-135.368 E520.72164
G1 X-141.109 Y-183.98 E532.54498
G1 X-141.109 Y-182.084 E532.87093
G1 X-189.721 Y-230.696 E544.69427
G1 X-189.456 Y-230.696 E544.73982
G1 X-233.285 Y-186.868 E555.39978
G1 X-233.644 Y-186.868 E555.46146
G1 X-245.381 Y-198.605 E558.31617
G1 X-245.381 Y-196.71 E558.64212
G1 X-211.394 Y-230.696 E566.90834
G1 X-211.659 Y-230.696 E566.95389
G1 X-141.109 Y-160.147 E584.11291
G1 X-141.109 Y-162.042 E584.43886
G1 X-167.783 Y-135.368 E590.92652
G1 X-167.519 Y-135.368 E590.97206
G1 X-245.381 Y-213.23 E609.90965
G1 X-245.381 Y-211.335 E610.2356
G1 X-226.019 Y-230.696 E614.94469
G1 X-226.284 Y-230.696 E614.99024
G1 X-141.109 Y-145.521 E635.70639
G1 X-141.109 Y-147.417 E636.03234
G1 X-153.158 Y-135.368 E638.96287
G1 X-152.893 Y-135.368 E639.00842
G1 X-245.381 Y-227.855 E661.50313
G1 X-245.381 Y-230.696 E661.99174
G1 X-242.017 Y-230.696 E662.57026
;LAYER_CHANGE
;Z:1.2
;HEIGHT:0.4
G1 Z1.2 F600
G1 E661.57026 F2400
G92 E0
G1 X-223.498 Y-180.172 F4800
G1 E1 F2400
;TYPE:External perimeter
G1 F1800
G1 X-223.498 Y-186.092 E2.01813
G1 X-246.157 Y-186.092 E5.91499
G1 X-246.157 Y-231.472 E13.71951
G1 X-140.334 Y-231.472 E31.9191
G1 X-140.334 Y-134.592 E48.58066
G1 X-246.157 Y-134.592 E66.78025
G1 X-246.157 Y-179.972 E74.58477
G1 X-223.498 Y-179.972 E78.48163
G1 X-223.498 Y-180.022 E78.49023
G1 E77.49023 F2400
G92 E0
G1 X-245.381 Y-221.06 F4800
G1 E1 F2400
;TYPE:Internal infill
G1 X-245.381 Y-225.96 E1.84275
G1 X-240.645 Y-230.696 E2.99472
G1 X-240.909 Y-230.696 E3.04027
G1 X-145.581 Y-135.368 E26.22598
G1 X-145.846 Y-135.368 E26.27153
G1 X-141.109 Y-140.104 E27.4235
G1 X-141.109 Y-138.209 E27.74945
G1 X-233.597 Y-230.696 E50.24416
G1 X-233.332 Y-230.696 E50.2897
G1 X-245.381 Y-218.647 E53.22024
G1 X-245.381 Y-220.543 E53.54619
G1 X-160.206 Y-135.368 E74.26234
G1 X-160.471 Y-135.368 E74.30788
G1 X-141.109 Y-154.729 E79.01698
G1 X-141.109 Y-152.834 E79.34293
G1 X-218.972 Y-230.696 E98.28051
G1 X-218.707 Y-230.696 E98.32606
G1 X-245.381 Y-204.022 E104.81372
G1 X-245.381 Y-205.917 E105.13967
G1 X-226.331 Y-186.868 E109.77294
G1 X-225.973 Y-186.868 E109.83462
G1 X-182.144 Y-230.696 E120.49458
G1 X-182.409 Y-230.696 E120.54013
G1 X-141.109 Y-189.397 E130.58491
G1 X-141.109 Y-191.292 E130.91086
G1 X-197.034 Y-135.368 E144.51276
G1 X-196.769 Y-135.368 E144.55831
G1 X-240.598 Y-179.196 E155.21827
G1 X-240.956 Y-179.196 E155.27995
G1 X-245.381 Y-174.772 E156.3561
G1 X-245.381 Y-176.667 E156.68205
G1 X-204.082 Y-135.368 E166.72683
G1 X-204.346 Y-135.368 E166.77238
G1 X-141.109 Y-198.605 E182.15284
G1 X-141.109 Y-196.71 E182.47879
G1 X-175.096 Y-230.696 E190.74501
G1 X-174.831 Y-230.696 E190.79056
G1 X-222.722 Y-182.805 E202.43859
G1 X-222.722 Y-183.259 E202.51662
G1 X-174.831 Y-135.368 E214.16465
G1 X-175.096 Y-135.368 E214.2102
G1 X-141.109 Y-169.354 E222.47641
G1 X-141.109 Y-167.459 E222.80236
G1 X-204.346 Y-230.696 E238.18283
G1 X-204.082 Y-230.696 E238.22837
G1 X-245.381 Y-189.397 E248.27315
G1 X-245.381 Y-191.292 E248.5991
G1 X-240.956 Y-186.868 E249.67526
G1 X-240.598 Y-186.868 E249.73693
G1 X-196.769 Y-230.696 E260.3969
G1 X-197.034 Y-230.696 E260.44244
G1 X-141.109 Y-174.772 E274.04434
G1 X-141.109 Y-176.667 E274.3703
G1 X-182.409 Y-135.368 E284.41507
G1 X-182.144 Y-135.368 E284.46062
G1 X-225.973 Y-179.196 E295.12058
G1 X-226.331 Y-179.196 E295.18226
G1 X-245.381 Y-160.147 E299.81553
G1 X-245.381 Y-162.042 E300.14149
G1 X-218.707 Y-135.368 E306.62914
G1 X-218.972 Y-135.368 E306.67469
G1 X-141.109 Y-213.23 E325.61227
G1 X-141.109 Y-211.335 E325.93822
G1 X-160.471 Y-230.696 E330.64732
G1 X-160.206 Y-230.696 E330.69287
G1 X-245.381 Y-145.521 E351.40901
G1 X-245.381 Y-147.417 E351.73496
G1 X-233.332 Y-135.368 E354.6655
G1 X-233.597 Y-135.368 E354.71105
G1 X-141.109 Y-227.855 E377.20575
G1 X-141.109 Y-225.96 E377.5317
G1 X-145.846 Y-230.696 E378.68367
G1 X-145.581 Y-230.696 E378.72922
G1 X-240.91 Y-135.368 E401.91494
G1 X-240.645 Y-135.368 E401.96049
G1 X-245.381 Y-140.104 E403.11246
G1 X-245.381 Y-138.209 E403.43841
G1 X-152.893 Y-230.696 E425.93312
G1 X-153.158 Y-230.696 E425.97866
G1 X-141.109 Y-218.647 E428.9092
G1 X-141.109 Y-220.543 E429.23515
G1 X-226.284 Y-135.368 E449.95129
G1 X-226.019 Y-135.368 E449.99684
G1 X-245.381 Y-154.729 E454.70594
G1 X-245.381 Y-152.834 E455.03189
G1 X-167.519 Y-230.696 E473.96947
G1 X-167.783 Y-230.696 E474.01502
G1 X-141.109 Y-204.022 E480.50268
G1 X-141.109 Y-205.917 E480.82863
G1 X-211.659 Y-135.368 E497.98765
G1 X-211.394 Y-135.368 E498.0332
G1 X-245.381 Y-169.354 E506.29941
G1 X-245.381 Y-167.459 E506.62537
G1 X-233.644 Y-179.196 E509.48008
G1 X-233.285 Y-179.196 E509.54176
G1 X-189.456 Y-135.368 E520.20172
G1 X-189.721 Y-135.368 E520.24726
G1 X-141.109 Y-183.98 E532.0706
G1 X-141.109 Y-182.084 E532.39656
G1 X-189.721 Y-230.696 E544.21989
G1 X-189.456 Y-230.696 E544.26544
G1 X-233.285 Y-186.868 E554.92541
G1 X-233.644 Y-186.868 E554.98708
G1 X-245.381 Y-198.605 E557.8418
G1 X-245.381 Y-196.71 E558.16775
G1 X-211.394 Y-230.696 E566.43396
G1 X-211.659 Y-230.696 E566.47951
G1 X-141.109 Y-160.147 E583.63854
G1 X-141.109 Y-162.042 E583.96449
G1 X-167.783 Y-135.368 E590.45214
G1 X-167.519 Y-135.368 E590.49769
G1 X-245.381 Y-213.23 E609.43527
G1 X-245.381 Y-211.335 E609.76123
G1 X-226.019 Y-230.696 E614.47032
G1 X-226.284 Y-230.696 E614.51587
G1 X-141.109 Y-145.521 E635.23201
G1 X-141.109 Y-147.417 E635.55797
G1 X-153.158 Y-135.368 E638.4885
G1 X-152.893 Y-135.368 E638.53405
G1 X-245.381 Y-227.855 E661.02875
G1 X-245.381 Y-230.696 E661.51737
G1 X-242.017 Y-230.696 E662.09589
;LAYER_CHANGE
;Z:1.6
;HEIGHT:0.4
G1 Z1.6 F600
G1 E661.09589 F2400
G92 E0
G1 X-222.927 Y-185.572 F4800
G1 E1 F2400
;TYPE:External perimeter
G1 F1800
G1 X-222.927 Y-186.092 E1.08943
G1 X-246.157 Y-186.092 E5.08454
G1 X-246.157 Y-231.472 E12.88905
G1 X-140.334 Y-231.472 E31.08865
G1 X-140.334 Y-134.592 E47.75021
G1 X-246.157 Y-134.592 E65.9498
G1 X-246.157 Y-179.972 E73.75432
G1 X-222.927 Y-179.972 E77.74942
G1 X-222.927 Y-185.422 E78.68672
G1 E77.68672 F2400
G92 E0
G1 X-245.381 Y-221.06 F4800
G1 E1 F2400
