; generated by PrusaSlicer 2.4.2+win64 on 2022-07-18 at 04:14:10 UTC

; 

; external perimeters extrusion width = 1.12mm
; perimeters extrusion width = 1.12mm
; infill extrusion width = 1.12mm
; solid infill extrusion width = 1.12mm
; top infill extrusion width = 1.00mm
; first layer extrusion width = 1.05mm

M107
M190 S60 ; set bed temperature and wait for it to be reached
M104 S215 ; set temperature
;TYPE:Custom
G28 ; home all axes
G1 Z5 F5000 ; lift nozzle
M109 S215 ; set temperature and wait for it to be reached
G21 ; set units to millimeters
G90 ; use absolute coordinates
M82 ; use absolute distances for extrusion
G92 E0
; Filament gcode
M107
;LAYER_CHANGE
;Z:0.4
;HEIGHT:0.4
G1 Z.4 F600
G1 E-1 F2400
G92 E0
G1 X-134.353 Y-129.66 F4800
G1 E1 F2400
;TYPE:Skirt/Brim
;WIDTH:1.05
G1 F1800
G1 X-136.117 Y-128.105 E1.3771
G1 X-138.298 Y-127.226 E1.7542
G1 X-139.774 Y-127.068 E1.99209
G1 X-246.717 Y-127.068 E19.13938
G1 X-249.035 Y-127.465 E19.51648
G1 X-251.088 Y-128.611 E19.89358
G1 X-252.644 Y-130.375 E20.27068
G1 X-253.523 Y-132.557 E20.64778
G1 X-253.681 Y-134.032 E20.88567
G1 X-253.681 Y-232.032 E36.59902
G1 X-253.284 Y-234.35 E36.97612
G1 X-252.138 Y-236.404 E37.35322
G1 X-250.373 Y-237.959 E37.73032
G1 X-248.192 Y-238.838 E38.10743
G1 X-246.717 Y-238.996 E38.34532
G1 X-139.774 Y-238.996 E55.4926
G1 X-137.455 Y-238.599 E55.8697
G1 X-135.402 Y-237.453 E56.2468
G1 X-133.847 Y-235.689 E56.6239
G1 X-132.967 Y-233.507 E57.001
G1 X-132.809 Y-232.032 E57.23889
G1 X-132.809 Y-134.032 E72.95225
G1 X-133.207 Y-131.714 E73.32935
G1 X-134.28 Y-129.791 E73.6824
G1 E72.6824 F2400
G92 E0
G1 X-224.792 Y-180.007 F4800
G1 E1 F2400
;TYPE:External perimeter
G1 F1800
G1 X-224.676 Y-180.007 E1.01861
G1 X-224.676 Y-186.057 E1.98867
G1 X-246.192 Y-186.057 E5.43857
G1 X-246.192 Y-231.507 E12.72604
G1 X-140.299 Y-231.507 E29.70497
G1 X-140.299 Y-134.557 E45.24996
G1 X-246.192 Y-134.557 E62.22889
G1 X-246.192 Y-180.007 E69.51636
G1 X-224.942 Y-180.007 E72.92359
G1 E71.92359 F2400
G92 E0
G1 X-223.836 Y-186.873 F4800
G1 E1 F2400
;TYPE:Solid infill
;WIDTH:1.13472
G1 F1800
G1 X-223.151 Y-186.187 E1.16919
G1 X-223.151 Y-184.704 E1.42793
G1 X-223.952 Y-185.506 E1.62574
G1 X-223.952 Y-184.023 E1.88448
G1 X-223.151 Y-183.221 E2.08229
G1 X-223.151 Y-181.737 E2.34103
G1 X-223.952 Y-182.539 E2.53884
G1 X-223.952 Y-181.056 E2.79758
G1 X-222.717 Y-179.82 E3.10242
G1 E2.10242 F2400
G92 E0
G1 X-141.057 Y-144.952 F4800
G1 E1 F2400
;TYPE:Internal infill
;WIDTH:1.05
G1 F1800
G1 X-141.057 Y-140.156 E1.76887
G1 X-145.898 Y-135.315 E2.86668
G1 X-145.528 Y-135.315 E2.92598
G1 X-240.962 Y-230.749 E24.56611
G1 X-240.592 Y-230.749 E24.62541
G1 X-245.434 Y-225.908 E25.72321
G1 X-245.434 Y-227.908 E26.04394
G1 X-152.841 Y-135.315 E47.03984
G1 X-153.211 Y-135.315 E47.09914
G1 X-141.057 Y-147.469 E49.85512
G1 X-141.057 Y-145.469 E50.17584
G1 X-226.337 Y-230.749 E69.51356
G1 X-225.967 Y-230.749 E69.57287
G1 X-245.434 Y-211.282 E73.98702
G1 X-245.434 Y-213.283 E74.30775
G1 X-167.466 Y-135.315 E91.98729
G1 X-167.836 Y-135.315 E92.04659
G1 X-141.057 Y-162.094 E98.11892
G1 X-141.057 Y-160.094 E98.43965
G1 X-211.712 Y-230.749 E114.46102
G1 X-211.342 Y-230.749 E114.52032
G1 X-245.434 Y-196.657 E122.25083
G1 X-245.434 Y-198.657 E122.57155
G1 X-233.591 Y-186.815 E125.25685
G1 X-233.338 Y-186.815 E125.29751
G1 X-189.404 Y-230.749 E135.25973
G1 X-189.774 Y-230.749 E135.31904
G1 X-141.057 Y-182.032 E146.36589
G1 X-141.057 Y-184.032 E146.68661
G1 X-189.774 Y-135.315 E157.73347
G1 X-189.404 Y-135.315 E157.79277
G1 X-233.338 Y-179.249 E167.75499
G1 X-233.591 Y-179.249 E167.79566
G1 X-245.434 Y-167.407 E170.48095
G1 X-245.434 Y-169.407 E170.80167
G1 X-211.342 Y-135.315 E178.53217
G1 X-211.712 Y-135.315 E178.59148
G1 X-141.057 Y-205.97 E194.61285
G1 X-141.057 Y-203.97 E194.93357
G1 X-167.836 Y-230.749 E201.0059
G1 X-167.466 Y-230.749 E201.06521
G1 X-245.434 Y-152.781 E218.74475
G1 X-245.434 Y-154.782 E219.06548
G1 X-225.967 Y-135.315 E223.47963
G1 X-226.337 Y-135.315 E223.53893
G1 X-141.057 Y-220.595 E242.87666
G1 X-141.057 Y-218.595 E243.19738
G1 X-153.211 Y-230.749 E245.95336
G1 X-152.841 Y-230.749 E246.01266
G1 X-245.434 Y-138.156 E267.00856
G1 X-245.434 Y-140.156 E267.32928
G1 X-240.592 Y-135.315 E268.42709
G1 X-240.962 Y-135.315 E268.48639
G1 X-145.528 Y-230.749 E290.12653
G1 X-145.898 Y-230.749 E290.18583
G1 X-141.057 Y-225.908 E291.28363
G1 X-141.057 Y-227.908 E291.60436
G1 X-233.649 Y-135.315 E312.60026
G1 X-233.28 Y-135.315 E312.65956
G1 X-245.434 Y-147.469 E315.41554
G1 X-245.434 Y-145.469 E315.73626
G1 X-160.153 Y-230.749 E335.07399
G1 X-160.523 Y-230.749 E335.13329
G1 X-141.057 Y-211.282 E339.54744
G1 X-141.057 Y-213.283 E339.86817
G1 X-219.024 Y-135.315 E357.54771
G1 X-218.654 Y-135.315 E357.60702
G1 X-245.434 Y-162.094 E363.67935
G1 X-245.434 Y-160.094 E364.00007
G1 X-226.279 Y-179.249 E368.34353
G1 X-226.025 Y-179.249 E368.3842
G1 X-182.091 Y-135.315 E378.34642
G1 X-182.461 Y-135.315 E378.40572
G1 X-141.057 Y-176.72 E387.7944
G1 X-141.057 Y-174.719 E388.11513
G1 X-197.086 Y-230.749 E400.82015
G1 X-196.716 Y-230.749 E400.87945
G1 X-240.65 Y-186.815 E410.84168
G1 X-240.904 Y-186.815 E410.88234
G1 X-245.434 Y-191.345 E411.90946
G1 X-245.434 Y-189.344 E412.23019
G1 X-204.029 Y-230.749 E421.61887
G1 X-204.399 Y-230.749 E421.67817
G1 X-141.057 Y-167.407 E436.04137
G1 X-141.057 Y-169.407 E436.36209
G1 X-175.149 Y-135.315 E444.09259
G1 X-174.779 Y-135.315 E444.15189
G1 X-222.151 Y-182.688 E454.89391
G1 X-222.151 Y-183.376 E455.00429
G1 X-174.779 Y-230.749 E465.74631
G1 X-175.149 Y-230.749 E465.80561
G1 X-141.057 Y-196.657 E473.53611
G1 X-141.057 Y-198.657 E473.85684
G1 X-204.399 Y-135.315 E488.22004
G1 X-204.029 Y-135.315 E488.27934
G1 X-245.434 Y-176.72 E497.66802
G1 X-245.434 Y-174.719 E497.98874
G1 X-240.904 Y-179.249 E499.01586
G1 X-240.65 Y-179.249 E499.05653
G1 X-196.716 Y-135.315 E509.01875
G1 X-197.086 Y-135.315 E509.07805
G1 X-141.057 Y-191.345 E521.78307
G1 X-141.057 Y-189.344 E522.1038
G1 X-182.461 Y-230.749 E531.49248
G1 X-182.091 Y-230.749 E531.55178
G1 X-226.025 Y-186.815 E541.514
G1 X-226.279 Y-186.815 E541.55467
G1 X-245.434 Y-205.97 E545.89813
G1 X-245.434 Y-203.97 E546.21886
G1 X-218.654 Y-230.749 E552.29119
G1 X-219.024 Y-230.749 E552.35049
G1 X-141.057 Y-152.781 E570.03004
G1 X-141.057 Y-154.782 E570.35076
G1 X-160.523 Y-135.315 E574.76492
G1 X-160.153 Y-135.315 E574.82422
G1 X-245.434 Y-220.595 E594.16194
G1 X-245.434 Y-218.595 E594.48267
G1 X-233.28 Y-230.749 E597.23865
G1 X-233.649 Y-230.749 E597.29795
G1 X-141.057 Y-138.156 E618.29384
G1 X-141.057 Y-135.315 E618.74938
G1 X-144.421 Y-135.315 E619.28875
;LAYER_CHANGE
;Z:0.8
;HEIGHT:0.4
G1 Z.8 F600
G1 E618.28875 F2400
G92 E0
G1 X-224.069 Y-180.172 F4800
G1 E1 F2400
;TYPE:External perimeter
;WIDTH:1.12
G1 F1800
G1 X-224.069 Y-186.092 E2.01813
G1 X-246.157 Y-186.092 E5.81674
G1 X-246.157 Y-231.472 E13.62126
G1 X-140.334 Y-231.472 E31.82086
G1 X-140.334 Y-134.592 E48.48241
G1 X-246.157 Y-134.592 E66.68201
G1 X-246.157 Y-179.972 E74.48652
G1 X-224.069 Y-179.972 E78.28514
G1 X-224.069 Y-180.022 E78.29374
G1 X-222.127 Y-180.317 F4800
;TYPE:Solid infill
;WIDTH:1.13081
G1 F2400
G1 X-222.806 Y-179.637 E78.46062
G1 X-223.294 Y-179.637 E78.54538
G1 X-223.294 Y-180.628 E78.71744
G1 X-222.592 Y-181.329 E78.88982
G1 X-222.592 Y-182.807 E79.14663
G1 X-223.294 Y-182.105 E79.31902
G1 X-223.294 Y-183.583 E79.57583
G1 X-222.592 Y-184.285 E79.74822
G1 X-222.592 Y-185.762 E80.00503
G1 X-223.759 Y-184.596 E80.29179
G1 E79.29179
G92 E0
G1 X-245.381 Y-221.06 F4800
G1 E1 F2400
;TYPE:Internal infill
;WIDTH:1.12
G1 X-245.381 Y-225.96 E1.84275
G1 X-240.645 Y-230.696 E2.99472
G1 X-240.909 Y-230.696 E3.04027
G1 X-145.581 Y-135.368 E26.22598
G1 X-145.846 Y-135.368 E26.27153
G1 X-141.109 Y-140.104 E27.4235
G1 X-141.109 Y-138.209 E27.74945
G1 X-233.597 Y-230.696 E50.24416
G1 X-233.332 Y-230.696 E50.2897
G1 X-245.381 Y-218.647 E53.22024
G1 X-245.381 Y-220.543 E53.54619
G1 X-160.206 Y-135.368 E74.26234
G1 X-160.471 Y-135.368 E74.30788
G1 X-141.109 Y-154.729 E79.01698
G1 X-141.109 Y-152.834 E79.34293
G1 X-218.972 Y-230.696 E98.28051
G1 X-218.707 Y-230.696 E98.32606
G1 X-245.381 Y-204.022 E104.81372
G1 X-245.381 Y-205.917 E105.13967
G1 X-226.331 Y-186.868 E109.77294
G1 X-225.973 Y-186.868 E109.83462
G1 X-182.144 Y-230.696 E120.49458
G1 X-182.409 Y-230.696 E120.54013
G1 X-141.109 Y-189.397 E130.58491
G1 X-141.109 Y-191.292 E130.91086
G1 X-197.034 Y-135.368 E144.51276
G1 X-196.769 Y-135.368 E144.55831
G1 X-240.598 Y-179.196 E155.21827
G1 X-240.956 Y-179.196 E155.27995
G1 X-245.381 Y-174.772 E156.3561
G1 X-245.381 Y-176.667 E156.68205
G1 X-204.082 Y-135.368 E166.72683
G1 X-204.346 Y-135.368 E166.77238
G1 X-141.109 Y-198.605 E182.15284
G1 X-141.109 Y-196.71 E182.47879
G1 X-175.096 Y-230.696 E190.74501
G1 X-174.831 Y-230.696 E190.79056
G1 X-221.558 Y-183.969 E202.1554
G1 X-221.558 Y-182.094 E202.47786
G1 X-174.831 Y-135.368 E213.8427
G1 X-175.096 Y-135.368 E213.88825
G1 X-141.109 Y-169.354 E222.15446
G1 X-141.109 Y-167.459 E222.48042
G1 X-204.346 Y-230.696 E237.86088
G1 X-204.082 Y-230.696 E237.90643
G1 X-245.381 Y-189.397 E247.9512
G1 X-245.381 Y-191.292 E248.27716
G1 X-240.956 Y-186.868 E249.35331
G1 X-240.598 Y-186.868 E249.41498
G1 X-196.769 Y-230.696 E260.07495
G1 X-197.034 Y-230.696 E260.1205
G1 X-141.109 Y-174.772 E273.7224
G1 X-141.109 Y-176.667 E274.04835
G1 X-182.409 Y-135.368 E284.09313
G1 X-182.144 Y-135.368 E284.13867
G1 X-225.973 Y-179.196 E294.79863
G1 X-226.331 Y-179.196 E294.86031
G1 X-245.381 Y-160.147 E299.49359
G1 X-245.381 Y-162.042 E299.81954
G1 X-218.707 Y-135.368 E306.30719
G1 X-218.972 Y-135.368 E306.35274
G1 X-141.109 Y-213.23 E325.29033
G1 X-141.109 Y-211.335 E325.61628
G1 X-160.471 Y-230.696 E330.32537
G1 X-160.206 Y-230.696 E330.37092
G1 X-245.381 Y-145.521 E351.08706
G1 X-245.381 Y-147.417 E351.41302
G1 X-233.332 Y-135.368 E354.34355
G1 X-233.597 Y-135.368 E354.3891
G1 X-141.109 Y-227.855 E376.8838
G1 X-141.109 Y-225.96 E377.20975
G1 X-145.846 Y-230.696 E378.36173
G1 X-145.581 Y-230.696 E378.40727
G1 X-240.91 Y-135.368 E401.59299
G1 X-240.645 Y-135.368 E401.63854
G1 X-245.381 Y-140.104 E402.79051
G1 X-245.381 Y-138.209 E403.11646
G1 X-152.893 Y-230.696 E425.61117
G1 X-153.158 Y-230.696 E425.65672
G1 X-141.109 Y-218.647 E428.58725
G1 X-141.109 Y-220.543 E428.9132
G1 X-226.284 Y-135.368 E449.62934
G1 X-226.019 Y-135.368 E449.67489
G1 X-245.381 Y-154.729 E454.38399
G1 X-245.381 Y-152.834 E454.70994
G1 X-167.519 Y-230.696 E473.64752
G1 X-167.783 Y-230.696 E473.69307
G1 X-141.109 Y-204.022 E480.18073
G1 X-141.109 Y-205.917 E480.50668
G1 X-211.659 Y-135.368 E497.6657
G1 X-211.394 Y-135.368 E497.71125
G1 X-245.381 Y-169.354 E505.97747
G1 X-245.381 Y-167.459 E506.30342
G1 X-233.644 Y-179.196 E509.15813
G1 X-233.285 Y-179.196 E509.21981
G1 X-189.456 Y-135.368 E519.87977
G1 X-189.721 Y-135.368 E519.92532
G1 X-141.109 Y-183.98 E531.74866
G1 X-141.109 Y-182.084 E532.07461
G1 X-189.721 Y-230.696 E543.89795
G1 X-189.456 Y-230.696 E543.94349
G1 X-233.285 Y-186.868 E554.60346
G1 X-233.644 Y-186.868 E554.66513
G1 X-245.381 Y-198.605 E557.51985
G1 X-245.381 Y-196.71 E557.8458
G1 X-211.394 Y-230.696 E566.11202
G1 X-211.659 Y-230.696 E566.15756
G1 X-141.109 Y-160.147 E583.31659
G1 X-141.109 Y-162.042 E583.64254
G1 X-167.783 Y-135.368 E590.13019
G1 X-167.519 Y-135.368 E590.17574
G1 X-245.381 Y-213.23 E609.11333
G1 X-245.381 Y-211.335 E609.43928
G1 X-226.019 Y-230.696 E614.14837
G1 X-226.284 Y-230.696 E614.19392
G1 X-141.109 Y-145.521 E634.91007
G1 X-141.109 Y-147.417 E635.23602
G1 X-153.158 Y-135.368 E638.16655
G1 X-152.893 Y-135.368 E638.2121
G1 X-245.381 Y-227.855 E660.7068
G1 X-245.381 Y-230.696 E661.19542
G1 X-242.017 Y-230.696 E661.77394
;LAYER_CHANGE
;Z:1.2
;HEIGHT:0.4
G1 Z1.2 F600
G1 E660.77394 F2400
G92 E0
G1 X-223.498 Y-180.172 F4800
G1 E1 F2400
;TYPE:External perimeter
G1 F1800
G1 X-223.498 Y-186.092 E2.01813
G1 X-246.157 Y-186.092 E5.91499
G1 X-246.157 Y-231.472 E13.71951
G1 X-140.334 Y-231.472 E31.9191
G1 X-140.334 Y-134.592 E48.58066
G1 X-246.157 Y-134.592 E66.78025
G1 X-246.157 Y-179.972 E74.58477
G1 X-223.498 Y-179.972 E78.48163
G1 X-223.498 Y-180.022 E78.49023
G1 X-224.502 Y-179.196 F4800
;TYPE:Internal infill
G1 F2400
G1 X-223.864 Y-179.196 E78.59995
G1 X-223.271 Y-178.603 E78.7442
G1 X-221.799 Y-178.603 E78.99736
G1 X-220.987 Y-179.415 E79.1948
G1 X-220.987 Y-181.523 E79.55737
G1 X-174.831 Y-135.368 E90.78326
G1 X-175.096 Y-135.368 E90.82881
G1 X-141.109 Y-169.354 E99.09503
G1 X-141.109 Y-167.459 E99.42098
G1 X-204.346 Y-230.696 E114.80144
G1 X-204.082 Y-230.696 E114.84699
G1 X-245.381 Y-189.397 E124.89177
G1 X-245.381 Y-191.292 E125.21772
G1 X-240.956 Y-186.868 E126.29387
G1 X-240.598 Y-186.868 E126.35555
G1 X-196.769 Y-230.696 E137.01551
G1 X-197.034 Y-230.696 E137.06106
G1 X-141.109 Y-174.772 E150.66296
G1 X-141.109 Y-176.667 E150.98891
G1 X-182.409 Y-135.368 E161.03369
G1 X-182.144 Y-135.368 E161.07924
G1 X-225.973 Y-179.196 E171.7392
G1 X-226.331 Y-179.196 E171.80088
G1 X-245.381 Y-160.147 E176.43415
G1 X-245.381 Y-162.042 E176.7601
G1 X-218.707 Y-135.368 E183.24776
G1 X-218.972 Y-135.368 E183.29331
G1 X-141.109 Y-213.23 E202.23089
G1 X-141.109 Y-211.335 E202.55684
G1 X-160.471 Y-230.696 E207.26593
G1 X-160.206 Y-230.696 E207.31148
G1 X-245.381 Y-145.521 E228.02763
G1 X-245.381 Y-147.417 E228.35358
G1 X-233.332 Y-135.368 E231.28411
G1 X-233.597 Y-135.368 E231.32966
G1 X-141.109 Y-227.855 E253.82437
G1 X-141.109 Y-225.96 E254.15032
G1 X-145.846 Y-230.696 E255.30229
G1 X-145.581 Y-230.696 E255.34784
G1 X-240.91 Y-135.368 E278.53355
G1 X-240.645 Y-135.368 E278.5791
G1 X-245.381 Y-140.104 E279.73107
G1 X-245.381 Y-138.209 E280.05703
G1 X-152.893 Y-230.696 E302.55173
G1 X-153.158 Y-230.696 E302.59728
G1 X-141.109 Y-218.647 E305.52781
G1 X-141.109 Y-220.543 E305.85376
G1 X-226.284 Y-135.368 E326.56991
G1 X-226.019 Y-135.368 E326.61546
G1 X-245.381 Y-154.729 E331.32455
G1 X-245.381 Y-152.834 E331.6505
G1 X-167.519 Y-230.696 E350.58809
G1 X-167.783 Y-230.696 E350.63364
G1 X-141.109 Y-204.022 E357.12129
G1 X-141.109 Y-205.917 E357.44724
G1 X-211.659 Y-135.368 E374.60627
G1 X-211.394 Y-135.368 E374.65181
G1 X-245.381 Y-169.354 E382.91803
G1 X-245.381 Y-167.459 E383.24398
G1 X-233.644 Y-179.196 E386.09869
G1 X-233.285 Y-179.196 E386.16037
G1 X-189.456 Y-135.368 E396.82033
G1 X-189.721 Y-135.368 E396.86588
G1 X-141.109 Y-183.98 E408.68922
G1 X-141.109 Y-182.084 E409.01517
G1 X-189.721 Y-230.696 E420.83851
G1 X-189.456 Y-230.696 E420.88406
G1 X-233.285 Y-186.868 E431.54402
G1 X-233.644 Y-186.868 E431.6057
G1 X-245.381 Y-198.605 E434.46041
G1 X-245.381 Y-196.71 E434.78637
G1 X-211.394 Y-230.696 E443.05258
G1 X-211.659 Y-230.696 E443.09813
G1 X-141.109 Y-160.147 E460.25715
G1 X-141.109 Y-162.042 E460.5831
G1 X-167.783 Y-135.368 E467.07076
G1 X-167.519 Y-135.368 E467.11631
G1 X-245.381 Y-213.23 E486.05389
G1 X-245.381 Y-211.335 E486.37984
G1 X-226.019 Y-230.696 E491.08894
G1 X-226.284 Y-230.696 E491.13448
G1 X-141.109 Y-145.521 E511.85063
G1 X-141.109 Y-147.417 E512.17658
G1 X-153.158 Y-135.368 E515.10712
G1 X-152.893 Y-135.368 E515.15266
G1 X-245.381 Y-227.855 E537.64737
G1 X-245.381 Y-225.96 E537.97332
G1 X-240.645 Y-230.696 E539.12529
G1 X-240.909 Y-230.696 E539.17084
G1 X-145.581 Y-135.368 E562.35655
G1 X-145.846 Y-135.368 E562.4021
G1 X-141.109 Y-140.104 E563.55407
G1 X-141.109 Y-138.209 E563.88002
G1 X-233.597 Y-230.696 E586.37473
G1 X-233.332 Y-230.696 E586.42028
G1 X-245.381 Y-218.647 E589.35081
G1 X-245.381 Y-220.543 E589.67676
G1 X-160.206 Y-135.368 E610.39291
G1 X-160.471 Y-135.368 E610.43845
G1 X-141.109 Y-154.729 E615.14755
G1 X-141.109 Y-152.834 E615.4735
G1 X-218.972 Y-230.696 E634.41108
G1 X-218.707 Y-230.696 E634.45663
G1 X-245.381 Y-204.022 E640.94429
G1 X-245.381 Y-205.917 E641.27024
G1 X-226.331 Y-186.868 E645.90351
G1 X-225.973 Y-186.868 E645.96519
G1 X-182.144 Y-230.696 E656.62515
G1 X-182.409 Y-230.696 E656.6707
G1 X-141.109 Y-189.397 E666.71548
G1 X-141.109 Y-191.292 E667.04143
G1 X-197.034 Y-135.368 E680.64333
G1 X-196.769 Y-135.368 E680.68888
G1 X-240.598 Y-179.196 E691.34884
