; generated by PrusaSlicer 2.4.2+win64 on 2022-06-01 at 23:58:15 UTC

; 

; external perimeters extrusion width = 1.12mm
; perimeters extrusion width = 1.12mm
; infill extrusion width = 1.12mm
; solid infill extrusion width = 1.12mm
; top infill extrusion width = 1.00mm
; first layer extrusion width = 1.05mm

M107
M190 S60 ; set bed temperature and wait for it to be reached
M104 S215 ; set temperature
;TYPE:Custom
G28 ; home all axes
G1 Z5 F5000 ; lift nozzle
M109 S215 ; set temperature and wait for it to be reached
G21 ; set units to millimeters
G90 ; use absolute coordinates
M82 ; use absolute distances for extrusion
G92 E0
; Filament gcode
M107
;LAYER_CHANGE
;Z:0.4
;HEIGHT:0.4
G1 Z.4 F600
G1 E-2 F2400
G92 E0
G1 X-105.61 Y-39.643 F3600
G1 E2 F2400
;TYPE:Skirt/Brim
;WIDTH:1.05
G1 F1800
G1 X-107.253 Y-37.037 E2.49397
G1 X-110.182 Y-34.108 E3.15812
G1 X-112.102 Y-32.749 E3.53522
G1 X-115.106 Y-32.068 E4.02919
G1 X-271.384 Y-32.068 E29.08677
G1 X-273.702 Y-32.465 E29.46387
G1 X-276.308 Y-34.108 E29.95784
G1 X-279.237 Y-37.037 E30.62199
G1 X-280.596 Y-38.956 E30.99909
G1 X-281.277 Y-41.961 E31.49306
G1 X-281.277 Y-324.103 E76.73182
G1 X-280.88 Y-326.421 E77.10892
G1 X-279.237 Y-329.027 E77.60289
G1 X-276.308 Y-331.956 E78.26704
G1 X-274.388 Y-333.315 E78.64414
G1 X-271.384 Y-333.996 E79.13811
G1 X-115.106 Y-333.996 E104.19569
G1 X-112.788 Y-333.599 E104.57279
G1 X-110.182 Y-331.956 E105.06675
G1 X-107.253 Y-329.027 E105.73091
G1 X-105.895 Y-327.107 E106.10801
G1 X-105.213 Y-324.103 E106.60197
G1 X-105.213 Y-41.961 E151.84074
G1 X-105.585 Y-39.791 E152.19379
G1 E150.19379 F2400
G92 E0
G1 X-112.97 Y-42.645 F3600
G1 E2 F2400
G1 F1800
G1 X-113.271 Y-41.943 E2.12246
G1 X-113.593 Y-41.481 E2.21271
G1 X-114.781 Y-40.322 E2.47887
G1 X-115.175 Y-40.079 E2.5531
G1 X-115.795 Y-39.822 E2.66071
G1 X-116.444 Y-39.693 E2.76678
G1 X-270.046 Y-39.693 E27.39532
G1 X-270.7 Y-39.824 E27.50232
G1 X-271.402 Y-40.125 E27.62477
G1 X-271.864 Y-40.447 E27.71502
G1 X-273.023 Y-41.635 E27.98119
G1 X-273.266 Y-42.03 E28.05542
G1 X-273.524 Y-42.653 E28.16354
G1 X-273.631 Y-43.102 E28.23756
G1 X-273.651 Y-55.329 E30.19802
G1 X-273.464 Y-56.307 E30.35778
G1 X-273.202 Y-56.972 E30.47227
G1 X-264.474 Y-72.188 E33.28491
G1 X-264.474 Y-109.876 E39.32782
G1 X-273.224 Y-125.131 E42.14756
G1 X-273.548 Y-126.073 E42.3073
G1 X-273.651 Y-126.779 E42.4218
G1 X-273.651 Y-147.285 E45.70959
G1 X-273.548 Y-147.991 E45.82409
G1 X-273.224 Y-148.933 E45.98383
G1 X-264.474 Y-164.188 E48.80356
G1 X-264.474 Y-201.876 E54.84648
G1 X-273.224 Y-217.131 E57.66622
G1 X-273.548 Y-218.073 E57.82596
G1 X-273.651 Y-218.779 E57.94045
G1 X-273.651 Y-239.285 E61.22825
G1 X-273.548 Y-239.991 E61.34275
G1 X-273.224 Y-240.933 E61.50249
G1 X-264.474 Y-256.188 E64.32222
G1 X-264.474 Y-293.876 E70.36514
G1 X-273.202 Y-309.092 E73.17778
G1 X-273.464 Y-309.757 E73.29227
G1 X-273.651 Y-310.735 E73.45201
G1 X-273.651 Y-322.765 E75.38087
G1 X-273.52 Y-323.419 E75.48787
G1 X-273.219 Y-324.121 E75.61033
G1 X-272.897 Y-324.583 E75.70058
G1 X-271.709 Y-325.742 E75.96674
G1 X-271.315 Y-325.985 E76.04097
G1 X-270.695 Y-326.242 E76.14858
G1 X-270.046 Y-326.371 E76.25466
G1 X-116.348 Y-326.361 E100.89864
G1 X-115.794 Y-326.241 E100.9896
G1 X-115.175 Y-325.985 E101.09695
G1 X-114.781 Y-325.742 E101.17118
G1 X-113.592 Y-324.582 E101.43754
G1 X-113.223 Y-324.031 E101.54381
G1 X-112.968 Y-323.414 E101.65089
G1 X-112.839 Y-322.765 E101.75696
G1 X-112.839 Y-43.299 E146.56669
G1 X-112.94 Y-42.792 E146.64963
G1 X-113.876 Y-42.978 F3600
G1 F1800
G1 X-114.137 Y-42.37 E146.75572
G1 X-114.301 Y-42.136 E146.80151
G1 X-115.344 Y-41.106 E147.03661
G1 X-115.585 Y-40.953 E147.08239
G1 X-116.12 Y-40.731 E147.17527
G1 X-116.491 Y-40.657 E147.23591
G1 X-269.999 Y-40.657 E171.84933
G1 X-270.367 Y-40.731 E171.9095
G1 X-270.975 Y-40.991 E172.01558
G1 X-271.208 Y-41.156 E172.06138
G1 X-272.239 Y-42.199 E172.29648
G1 X-272.392 Y-42.44 E172.34226
G1 X-272.616 Y-42.981 E172.43609
G1 X-272.678 Y-43.258 E172.48167
G1 X-272.687 Y-55.279 E174.40914
G1 X-272.528 Y-56.072 E174.53877
G1 X-272.349 Y-56.521 E174.61629
G1 X-263.51 Y-71.931 E177.46478
G1 X-263.51 Y-110.133 E183.59007
G1 X-272.363 Y-125.567 E186.44298
G1 X-272.619 Y-126.334 E186.57264
G1 X-272.687 Y-126.813 E186.65016
G1 X-272.687 Y-147.251 E189.92728
G1 X-272.619 Y-147.73 E190.0048
G1 X-272.363 Y-148.497 E190.13446
G1 X-263.51 Y-163.931 E192.98737
G1 X-263.51 Y-202.133 E199.11266
G1 X-272.363 Y-217.567 E201.96557
G1 X-272.619 Y-218.334 E202.09522
G1 X-272.687 Y-218.813 E202.17275
G1 X-272.687 Y-239.251 E205.44987
G1 X-272.619 Y-239.73 E205.52739
G1 X-272.363 Y-240.497 E205.65705
G1 X-263.51 Y-255.931 E208.50996
G1 X-263.51 Y-294.133 E214.63525
G1 X-272.349 Y-309.543 E217.48374
G1 X-272.528 Y-309.992 E217.56127
G1 X-272.687 Y-310.785 E217.69092
G1 X-272.687 Y-322.718 E219.60423
G1 X-272.614 Y-323.086 E219.66441
G1 X-272.353 Y-323.694 E219.77049
G1 X-272.189 Y-323.928 E219.81628
G1 X-271.146 Y-324.958 E220.05139
G1 X-270.905 Y-325.111 E220.09717
G1 X-270.37 Y-325.333 E220.19004
G1 X-269.999 Y-325.407 E220.25069
G1 X-116.403 Y-325.397 E244.87826
G1 X-116.126 Y-325.335 E244.92381
G1 X-115.585 Y-325.111 E245.01764
G1 X-115.344 Y-324.958 E245.06342
G1 X-114.305 Y-323.932 E245.29757
G1 X-114.096 Y-323.619 E245.35798
G1 X-113.877 Y-323.089 E245.4499
G1 X-113.803 Y-322.718 E245.51055
G1 X-113.803 Y-43.346 E290.30514
G1 X-113.847 Y-43.125 E290.34126
G1 X-114.783 Y-43.311 F3600
G1 F1800
G1 X-114.969 Y-42.858 E290.41977
G1 X-115.021 Y-42.779 E290.435
G1 X-115.925 Y-41.876 E290.6398
G1 X-116.004 Y-41.823 E290.65502
G1 X-116.446 Y-41.64 E290.73175
G1 X-116.539 Y-41.622 E290.74698
G1 X-269.951 Y-41.622 E315.3452
G1 X-270.045 Y-41.64 E315.36042
G1 X-270.487 Y-41.823 E315.43715
G1 X-270.566 Y-41.876 E315.45238
G1 X-271.469 Y-42.779 E315.65718
G1 X-271.522 Y-42.858 E315.6724
G1 X-271.705 Y-43.3 E315.74913
G1 X-271.723 Y-43.393 E315.76435
G1 X-271.723 Y-55.225 E317.66148
G1 X-271.595 Y-55.826 E317.75991
G1 X-271.497 Y-56.069 E317.80195
G1 X-262.546 Y-71.674 E320.68652
G1 X-262.546 Y-110.39 E326.89419
G1 X-271.5 Y-126 E329.77969
G1 X-271.687 Y-126.585 E329.87813
G1 X-271.723 Y-126.845 E329.92016
G1 X-271.723 Y-147.219 E333.18707
G1 X-271.687 Y-147.479 E333.2291
G1 X-271.5 Y-148.064 E333.32754
G1 X-262.546 Y-163.674 E336.21304
G1 X-262.546 Y-202.39 E342.42071
G1 X-271.5 Y-218 E345.30621
G1 X-271.687 Y-218.585 E345.40465
G1 X-271.723 Y-218.845 E345.44668
G1 X-271.723 Y-239.219 E348.71359
G1 X-271.687 Y-239.479 E348.75562
G1 X-271.5 Y-240.064 E348.85406
G1 X-262.546 Y-255.674 E351.73956
G1 X-262.546 Y-294.39 E357.94723
G1 X-271.497 Y-309.995 E360.8318
G1 X-271.595 Y-310.238 E360.87384
G1 X-271.723 Y-310.839 E360.97227
G1 X-271.723 Y-322.671 E362.8694
G1 X-271.705 Y-322.764 E362.88462
G1 X-271.522 Y-323.206 E362.96135
G1 X-271.469 Y-323.285 E362.97658
G1 X-270.566 Y-324.188 E363.18137
G1 X-270.487 Y-324.241 E363.1966
G1 X-270.045 Y-324.424 E363.27333
G1 X-269.951 Y-324.442 E363.28855
G1 X-116.539 Y-324.442 E387.88677
G1 X-116.446 Y-324.424 E387.902
G1 X-116.004 Y-324.241 E387.97873
G1 X-115.925 Y-324.188 E387.99395
G1 X-115.021 Y-323.285 E388.19875
G1 X-114.969 Y-323.206 E388.21398
G1 X-114.786 Y-322.764 E388.29071
G1 X-114.767 Y-322.671 E388.30593
G1 X-114.767 Y-43.46 E433.0747
G1 X-115.731 Y-43.537 F3600
G1 F1800
G1 X-115.805 Y-43.36 E433.10545
G1 X-116.505 Y-42.659 E433.26427
G1 X-116.682 Y-42.586 E433.29502
G1 X-269.808 Y-42.586 E457.84727
G1 X-269.985 Y-42.659 E457.87802
G1 X-270.686 Y-43.36 E458.03684
G1 X-270.759 Y-43.537 E458.06759
G1 X-270.759 Y-55.166 E459.93221
G1 X-270.667 Y-55.564 E459.99773
G1 X-261.582 Y-71.417 E462.92746
G1 X-261.582 Y-110.647 E469.21751
G1 X-270.634 Y-126.429 E472.13469
G1 X-270.759 Y-126.874 E472.20892
G1 X-270.752 Y-147.244 E475.47503
G1 X-270.634 Y-147.635 E475.54055
G1 X-261.582 Y-163.417 E478.45772
G1 X-261.582 Y-202.647 E484.74778
G1 X-270.634 Y-218.429 E487.66495
G1 X-270.759 Y-218.874 E487.73919
G1 X-270.752 Y-239.244 E491.0053
G1 X-270.634 Y-239.635 E491.07081
G1 X-261.582 Y-255.417 E493.98799
G1 X-261.582 Y-294.647 E500.27804
G1 X-270.667 Y-310.5 E503.20777
G1 X-270.759 Y-310.898 E503.27329
G1 X-270.759 Y-322.527 E505.13792
G1 X-270.686 Y-322.704 E505.16867
G1 X-269.985 Y-323.405 E505.32749
G1 X-269.808 Y-323.478 E505.35824
G1 X-116.682 Y-323.478 E529.91048
G1 X-116.505 Y-323.405 E529.94123
G1 X-115.805 Y-322.704 E530.10005
G1 X-115.731 Y-322.527 E530.1308
G1 X-115.731 Y-43.687 E574.84018
G1 X-116.695 Y-43.832 F3600
G1 F1800
G1 X-116.978 Y-43.55 E574.90422
G1 X-269.512 Y-43.55 E599.36168
G1 X-269.795 Y-43.832 E599.42571
G1 X-269.795 Y-55.095 E601.2316
G1 X-269.762 Y-55.217 E601.25184
G1 X-260.618 Y-71.16 E604.19885
G1 X-260.618 Y-110.904 E610.57128
G1 X-269.762 Y-126.847 E613.5183
G1 X-269.795 Y-126.969 E613.53854
G1 X-269.795 Y-147.095 E616.76559
G1 X-269.762 Y-147.217 E616.78583
G1 X-260.618 Y-163.16 E619.73284
G1 X-260.618 Y-202.904 E626.10527
G1 X-269.762 Y-218.847 E629.05229
G1 X-269.795 Y-218.969 E629.07253
G1 X-269.795 Y-239.095 E632.29958
G1 X-269.762 Y-239.217 E632.31982
G1 X-260.618 Y-255.16 E635.26684
G1 X-260.618 Y-294.904 E641.63926
G1 X-269.762 Y-310.847 E644.58628
G1 X-269.795 Y-310.969 E644.60652
G1 X-269.795 Y-322.232 E646.4124
G1 X-269.512 Y-322.514 E646.47644
G1 X-116.978 Y-322.514 E670.9339
G1 X-116.695 Y-322.232 E670.99794
G1 X-116.695 Y-43.982 E715.61253
G1 X-117.702 Y-44.557 F3600
;TYPE:External perimeter
G1 F1800
G1 X-268.788 Y-44.557 E739.8376
G1 X-268.788 Y-54.892 E741.49474
G1 X-259.611 Y-70.892 E744.45223
G1 X-259.611 Y-111.172 E750.9107
G1 X-268.788 Y-127.172 E753.86819
G1 X-268.788 Y-146.892 E757.03014
G1 X-259.611 Y-162.892 E759.98763
G1 X-259.611 Y-203.172 E766.4461
G1 X-268.788 Y-219.172 E769.40359
G1 X-268.788 Y-238.892 E772.56554
G1 X-259.611 Y-254.892 E775.52304
G1 X-259.611 Y-295.172 E781.98151
G1 X-268.788 Y-311.172 E784.939
G1 X-268.788 Y-321.507 E786.59613
G1 X-117.702 Y-321.507 E810.8212
G1 X-117.702 Y-44.707 E855.20341
G1 E853.20341 F2400
G92 E0
G1 X-117.992 Y-319.267 F3600
G1 E2 F2400
;TYPE:Solid infill
;WIDTH:1.05065
G1 F1800
G1 X-119.508 Y-320.784 E2.3441
G1 X-120.873 Y-320.784 E2.56302
G1 X-118.426 Y-318.337 E3.11827
G1 X-118.426 Y-316.972 E3.33719
G1 X-122.237 Y-320.784 E4.20204
G1 X-123.601 Y-320.784 E4.42097
G1 X-118.426 Y-315.608 E5.59542
G1 X-118.426 Y-314.244 E5.81435
G1 X-124.966 Y-320.784 E7.29841
G1 X-126.33 Y-320.784 E7.51733
G1 X-118.426 Y-312.879 E9.31099
G1 X-118.426 Y-311.515 E9.52991
G1 X-127.695 Y-320.784 E11.63318
G1 X-129.059 Y-320.784 E11.8521
G1 X-118.426 Y-310.15 E14.26497
G1 X-118.426 Y-308.786 E14.4839
G1 X-130.424 Y-320.784 E17.20637
G1 X-131.788 Y-320.784 E17.42529
G1 X-118.426 Y-307.421 E20.45737
G1 X-118.426 Y-306.057 E20.67629
G1 X-133.153 Y-320.784 E24.01797
G1 X-134.517 Y-320.784 E24.2369
G1 X-118.426 Y-304.692 E27.88818
G1 X-118.426 Y-303.328 E28.1071
G1 X-135.881 Y-320.784 E32.06799
G1 X-137.246 Y-320.784 E32.28691
G1 X-118.426 Y-301.964 E36.5574
G1 X-118.426 Y-300.599 E36.77633
G1 X-138.61 Y-320.784 E41.35642
G1 X-139.975 Y-320.784 E41.57534
G1 X-118.426 Y-299.235 E46.46504
G1 X-118.426 Y-297.87 E46.68396
G1 X-141.339 Y-320.784 E51.88327
G1 X-142.704 Y-320.784 E52.10219
G1 X-118.426 Y-296.506 E57.61109
G1 X-118.426 Y-295.141 E57.83002
G1 X-144.068 Y-320.784 E63.64852
G1 X-145.433 Y-320.784 E63.86745
G1 X-118.426 Y-293.777 E69.99556
G1 X-118.426 Y-292.412 E70.21448
G1 X-146.797 Y-320.784 E76.6522
G1 X-148.161 Y-320.784 E76.87112
G1 X-118.426 Y-291.048 E83.61844
G1 X-118.426 Y-289.684 E83.83736
G1 X-149.526 Y-320.784 E90.89428
G1 X-150.89 Y-320.784 E91.1132
G1 X-118.426 Y-288.319 E98.47973
G1 X-118.426 Y-286.955 E98.69865
G1 X-152.255 Y-320.784 E106.37478
G1 X-153.619 Y-320.784 E106.5937
G1 X-118.426 Y-285.59 E114.57944
G1 X-118.426 Y-284.226 E114.79836
G1 X-154.984 Y-320.784 E123.09369
G1 X-156.348 Y-320.784 E123.31262
G1 X-118.426 Y-282.861 E131.91756
G1 X-118.426 Y-281.497 E132.13648
G1 X-157.713 Y-320.784 E141.05102
G1 X-159.077 Y-320.784 E141.26994
G1 X-118.426 Y-280.132 E150.49409
G1 X-118.426 Y-278.768 E150.71301
G1 X-160.441 Y-320.784 E160.24676
G1 X-161.806 Y-320.784 E160.46568
G1 X-118.426 Y-277.404 E170.30904
G1 X-118.426 Y-276.039 E170.52796
G1 X-163.17 Y-320.784 E180.68092
G1 X-164.535 Y-320.784 E180.89984
G1 X-118.426 Y-274.675 E191.3624
G1 X-118.426 Y-273.31 E191.58132
G1 X-165.899 Y-320.784 E202.35348
G1 X-167.264 Y-320.784 E202.57241
G1 X-118.426 Y-271.946 E213.65417
G1 X-118.426 Y-270.581 E213.87309
G1 X-168.628 Y-320.784 E225.26446
G1 X-169.993 Y-320.784 E225.48339
G1 X-118.426 Y-269.217 E237.18436
G1 X-118.426 Y-267.852 E237.40328
G1 X-171.357 Y-320.784 E249.41386
G1 X-172.721 Y-320.784 E249.63278
G1 X-118.426 Y-266.488 E261.95296
G1 X-118.426 Y-265.124 E262.17189
G1 X-174.086 Y-320.784 E274.80167
G1 X-175.45 Y-320.784 E275.02059
G1 X-118.426 Y-263.759 E287.95998
G1 X-118.426 Y-262.395 E288.1789
G1 X-176.815 Y-320.784 E301.42789
G1 X-178.179 Y-320.784 E301.64681
G1 X-118.426 Y-261.03 E315.20541
G1 X-118.426 Y-259.666 E315.42433
G1 X-179.544 Y-320.784 E329.29253
G1 X-180.908 Y-320.784 E329.51145
G1 X-118.426 Y-258.301 E343.68925
G1 X-118.426 Y-256.937 E343.90817
G1 X-182.273 Y-320.784 E358.39558
G1 X-183.637 Y-320.784 E358.6145
G1 X-118.426 Y-255.572 E373.41151
G1 X-118.426 Y-254.208 E373.63043
G1 X-185.001 Y-320.784 E388.73704
G1 X-186.366 Y-320.784 E388.95597
G1 X-118.426 Y-252.844 E404.37218
G1 X-118.426 Y-251.479 E404.5911
G1 X-187.73 Y-320.784 E420.31692
G1 X-189.095 Y-320.784 E420.53584
G1 X-118.426 Y-250.115 E436.57126
G1 X-118.426 Y-248.75 E436.79019
G1 X-190.459 Y-320.784 E453.13521
G1 X-191.824 Y-320.784 E453.35413
G1 X-118.426 Y-247.386 E470.00876
G1 X-118.426 Y-246.021 E470.22769
G1 X-193.188 Y-320.784 E487.19192
G1 X-194.553 Y-320.784 E487.41084
G1 X-118.426 Y-244.657 E504.68468
G1 X-118.426 Y-243.292 E504.9036
G1 X-195.917 Y-320.784 E522.48704
G1 X-197.281 Y-320.784 E522.70596
G1 X-118.426 Y-241.928 E540.599
G1 X-118.426 Y-240.564 E540.81792
G1 X-198.646 Y-320.784 E559.02057
G1 X-200.01 Y-320.784 E559.23949
G1 X-118.426 Y-239.199 E577.75174
G1 X-118.426 Y-237.835 E577.97067
G1 X-201.375 Y-320.784 E596.79252
G1 X-202.739 Y-320.784 E597.01144
G1 X-118.426 Y-236.47 E616.1429
G1 X-118.426 Y-235.106 E616.36182
G1 X-204.104 Y-320.784 E635.80288
G1 X-205.468 Y-320.784 E636.0218
G1 X-118.426 Y-233.741 E655.77246
G1 X-118.426 Y-232.377 E655.99139
G1 X-206.833 Y-320.784 E676.05165
G1 X-208.197 Y-320.784 E676.27058
G1 X-118.426 Y-231.012 E696.64044
G1 X-118.426 Y-229.648 E696.85937
G1 X-209.561 Y-320.784 E717.53884
G1 X-210.926 Y-320.784 E717.75776
G1 X-118.426 Y-228.284 E738.74684
G1 X-118.426 Y-226.919 E738.96576
G1 X-212.29 Y-320.784 E760.26444
G1 X-213.655 Y-320.784 E760.48337
G1 X-118.426 Y-225.555 E782.09165
G1 X-118.426 Y-224.19 E782.31057
G1 X-215.019 Y-320.784 E804.22846
G1 X-216.384 Y-320.784 E804.44738
G1 X-118.426 Y-222.826 E826.67487
G1 X-118.426 Y-221.461 E826.89379
G1 X-217.748 Y-320.784 E849.43089
G1 X-219.113 Y-320.784 E849.64981
G1 X-118.426 Y-220.097 E872.49651
G1 X-118.426 Y-218.732 E872.71543
G1 X-220.477 Y-320.784 E895.87173
G1 X-221.841 Y-320.784 E896.09065
G1 X-118.426 Y-217.368 E919.55656
G1 X-118.426 Y-216.004 E919.77548
G1 X-223.206 Y-320.784 E943.55099
G1 X-224.57 Y-320.784 E943.76991
G1 X-118.426 Y-214.639 E967.85502
G1 X-118.426 Y-213.275 E968.07394
G1 X-225.935 Y-320.784 E992.46866
G1 X-227.299 Y-320.784 E992.68758
G1 X-118.426 Y-211.91 E1017.3919
G1 X-118.426 Y-210.546 E1017.61082
G1 X-228.664 Y-320.784 E1042.62474
G1 X-230.028 Y-320.784 E1042.84367
G1 X-118.426 Y-209.181 E1068.16719
G1 X-118.426 Y-207.817 E1068.38611
G1 X-231.393 Y-320.784 E1094.01924
G1 X-232.757 Y-320.784 E1094.23816
G1 X-118.426 Y-206.452 E1120.1809
G1 X-118.426 Y-205.088 E1120.39982
G1 X-234.121 Y-320.784 E1146.65215
G1 X-235.486 Y-320.784 E1146.87108
G1 X-118.426 Y-203.724 E1173.43301
G1 X-118.426 Y-202.359 E1173.65194
G1 X-236.85 Y-320.784 E1200.52348
G1 X-238.215 Y-320.784 E1200.7424
G1 X-118.426 Y-200.995 E1227.92355
G1 X-118.426 Y-199.63 E1228.14247
G1 X-239.579 Y-320.784 E1255.63322
G1 X-240.944 Y-320.784 E1255.85214
