; generated by PrusaSlicer 2.4.2+win64 on 2022-06-26 at 20:22:44 UTC

; 

; external perimeters extrusion width = 1.12mm
; perimeters extrusion width = 1.12mm
; infill extrusion width = 1.12mm
; solid infill extrusion width = 1.12mm
; top infill extrusion width = 1.00mm
; first layer extrusion width = 1.05mm

M107
M190 S60 ; set bed temperature and wait for it to be reached
M104 S215 ; set temperature
;TYPE:Custom
G28 ; home all axes
G1 Z5 F5000 ; lift nozzle
M109 S215 ; set temperature and wait for it to be reached
G21 ; set units to millimeters
G90 ; use absolute coordinates
M82 ; use absolute distances for extrusion
G92 E0
; Filament gcode
M107
;LAYER_CHANGE
;Z:0.4
;HEIGHT:0.4
G1 Z.4 F600
G1 E-2 F2400
G92 E0
G1 X-134.081 Y-130.276 F3600
G1 E2 F2400
;TYPE:Skirt/Brim
;WIDTH:1.05
G1 F1800
G1 X-140.475 Y-123.882 E3.44988
G1 X-142.73 Y-122.374 E3.88489
G1 X-144.564 Y-121.613 E4.2033
G1 X-147.225 Y-121.082 E4.63831
G1 X-239.235 Y-121.067 E19.39127
G1 X-241.896 Y-121.595 E19.82628
G1 X-243.737 Y-122.356 E20.14574
G1 X-246.001 Y-123.868 E20.58211
G1 X-252.395 Y-130.262 E22.03199
G1 X-253.903 Y-132.517 E22.467
G1 X-254.664 Y-134.351 E22.78541
G1 X-255.196 Y-137.012 E23.22042
G1 X-255.209 Y-229.027 E37.97416
G1 X-254.679 Y-231.692 E38.40981
G1 X-253.918 Y-233.529 E38.72875
G1 X-252.408 Y-235.789 E39.16444
G1 X-246.002 Y-242.195 E40.61715
G1 X-243.742 Y-243.705 E41.05284
G1 X-241.905 Y-244.466 E41.37178
G1 X-239.24 Y-244.996 E41.80747
G1 X-147.251 Y-244.996 E56.55704
G1 X-144.585 Y-244.466 E56.99273
G1 X-142.748 Y-243.705 E57.31166
G1 X-140.488 Y-242.195 E57.74735
G1 X-134.082 Y-235.789 E59.20007
G1 X-132.572 Y-233.529 E59.63576
G1 X-131.811 Y-231.692 E59.95469
G1 X-131.281 Y-229.027 E60.39036
G1 X-131.28 Y-137.042 E75.13921
G1 X-131.808 Y-134.381 E75.57421
G1 X-132.569 Y-132.54 E75.89367
G1 X-133.997 Y-130.401 E76.30599
G1 E74.30599 F2400
G92 E0
G1 X-139.907 Y-135.235 F3600
G1 E2 F2400
G1 F1800
G1 X-145.603 Y-129.567 E3.28854
G1 X-146.236 Y-129.168 E3.40838
G1 X-146.937 Y-128.878 E3.53009
G1 X-147.864 Y-128.693 E3.68158
G1 X-158.626 Y-128.693 E5.40717
G1 X-159.463 Y-128.85 E5.54376
G1 X-160.442 Y-129.268 E5.71443
G1 X-161.046 Y-129.697 E5.83327
G1 X-166.634 Y-135.295 E7.10149
G1 X-167.013 Y-135.841 E7.20794
G1 X-167.396 Y-136.715 E7.36093
G1 X-167.564 Y-137.458 E7.48313
G1 X-167.584 Y-141.235 E8.08875
G1 X-170.042 Y-143.693 E8.64619
G1 X-176.448 Y-143.693 E9.67328
G1 X-178.908 Y-141.234 E10.23102
G1 X-178.94 Y-137.335 E10.85616
G1 X-179.092 Y-136.72 E10.95765
G1 X-179.381 Y-136.023 E11.07872
G1 X-179.723 Y-135.457 E11.18464
G1 X-185.52 Y-129.634 E12.5021
G1 X-186.231 Y-129.17 E12.63832
G1 X-187.009 Y-128.856 E12.77283
G1 X-187.76 Y-128.703 E12.89568
G1 X-198.721 Y-128.703 E14.65323
G1 X-199.554 Y-128.878 E14.78965
G1 X-200.254 Y-129.168 E14.91125
G1 X-200.887 Y-129.567 E15.03109
G1 X-206.634 Y-135.295 E16.33216
G1 X-207.013 Y-135.841 E16.43868
G1 X-207.396 Y-136.715 E16.59167
G1 X-207.564 Y-137.458 E16.71387
G1 X-207.584 Y-141.235 E17.31949
G1 X-210.042 Y-143.693 E17.87693
G1 X-216.448 Y-143.693 E18.90402
G1 X-218.908 Y-141.234 E19.46176
G1 X-218.94 Y-137.335 E20.0869
G1 X-219.092 Y-136.72 E20.18839
G1 X-219.381 Y-136.023 E20.30946
G1 X-219.723 Y-135.458 E20.41535
G1 X-225.445 Y-129.696 E21.71733
G1 X-226.149 Y-129.214 E21.85425
G1 X-227.137 Y-128.817 E22.02492
G1 X-227.867 Y-128.693 E22.14369
G1 X-238.626 Y-128.693 E23.8688
G1 X-239.551 Y-128.877 E24.01991
G1 X-240.337 Y-129.212 E24.15695
G1 X-241.042 Y-129.693 E24.29388
G1 X-246.711 Y-135.39 E25.58242
G1 X-247.109 Y-136.023 E25.70226
G1 X-247.399 Y-136.724 E25.82397
G1 X-247.584 Y-137.651 E25.97546
G1 X-247.584 Y-148.413 E27.70109
G1 X-247.429 Y-149.244 E27.83665
G1 X-247.11 Y-150.04 E27.97417
G1 X-246.582 Y-150.831 E28.12656
G1 X-240.982 Y-156.421 E29.39534
G1 X-240.436 Y-156.8 E29.50178
G1 X-239.563 Y-157.183 E29.65477
G1 X-238.819 Y-157.351 E29.77698
G1 X-235.042 Y-157.371 E30.38259
G1 X-232.584 Y-159.829 E30.94003
G1 X-232.584 Y-166.235 E31.96713
G1 X-235.042 Y-168.693 E32.52457
G1 X-238.819 Y-168.713 E33.13014
G1 X-239.567 Y-168.883 E33.25314
G1 X-240.537 Y-169.322 E33.42391
G1 X-241.048 Y-169.699 E33.52556
G1 X-246.768 Y-175.458 E34.82704
G1 X-247.109 Y-176.023 E34.93293
G1 X-247.399 Y-176.724 E35.05461
G1 X-247.584 Y-177.651 E35.20616
G1 X-247.577 Y-188.493 E36.9446
G1 X-247.459 Y-189.147 E37.05106
G1 X-247.113 Y-190.033 E37.20367
G1 X-246.581 Y-190.832 E37.3575
G1 X-240.82 Y-196.554 E38.65955
G1 X-240.254 Y-196.896 E38.76545
G1 X-239.557 Y-197.185 E38.88651
G1 X-238.942 Y-197.337 E38.988
G1 X-235.043 Y-197.369 E39.61314
G1 X-232.584 Y-199.829 E40.17088
G1 X-232.584 Y-206.235 E41.19797
G1 X-235.042 Y-208.693 E41.75541
G1 X-238.819 Y-208.713 E42.36099
G1 X-239.567 Y-208.883 E42.48399
G1 X-240.537 Y-209.322 E42.65476
G1 X-241.047 Y-209.698 E42.75626
G1 X-246.707 Y-215.385 E44.04274
G1 X-247.069 Y-215.945 E44.14972
G1 X-247.398 Y-216.72 E44.28476
G1 X-247.584 Y-217.652 E44.43702
G1 X-247.564 Y-228.614 E46.19479
G1 X-247.398 Y-229.343 E46.31466
G1 X-247.108 Y-230.045 E46.43637
G1 X-246.583 Y-230.83 E46.58786
G1 X-241.043 Y-236.37 E47.84393
G1 X-240.26 Y-236.893 E47.99504
G1 X-239.467 Y-237.213 E48.13208
G1 X-238.627 Y-237.371 E48.26908
G1 X-227.652 Y-237.35 E50.02881
G1 X-226.999 Y-237.206 E50.13604
G1 X-226.231 Y-236.894 E50.26899
G1 X-225.445 Y-236.368 E50.42056
G1 X-219.723 Y-230.606 E51.72264
G1 X-219.381 Y-230.041 E51.82854
G1 X-219.092 Y-229.344 E51.94961
G1 X-218.94 Y-228.729 E52.0511
G1 X-218.908 Y-224.83 E52.67624
G1 X-216.448 Y-222.371 E53.23398
G1 X-210.042 Y-222.371 E54.26107
G1 X-207.583 Y-224.83 E54.81881
G1 X-207.55 Y-228.729 E55.44395
G1 X-207.398 Y-229.344 E55.54543
G1 X-207.109 Y-230.041 E55.6665
G1 X-206.768 Y-230.607 E55.77242
G1 X-200.97 Y-236.43 E57.08988
G1 X-200.259 Y-236.894 E57.2261
G1 X-199.481 Y-237.208 E57.36061
G1 X-198.73 Y-237.361 E57.48347
G1 X-187.769 Y-237.361 E59.24102
G1 X-186.936 Y-237.186 E59.37744
G1 X-186.236 Y-236.896 E59.49904
G1 X-185.603 Y-236.497 E59.61888
G1 X-179.856 Y-230.769 E60.91994
G1 X-179.478 Y-230.223 E61.02647
G1 X-179.094 Y-229.349 E61.17946
G1 X-178.926 Y-228.606 E61.30166
G1 X-178.906 Y-224.829 E61.90728
G1 X-176.448 Y-222.371 E62.46472
G1 X-170.042 Y-222.371 E63.49181
G1 X-167.583 Y-224.83 E64.04955
G1 X-167.55 Y-228.729 E64.67469
G1 X-167.398 Y-229.344 E64.77618
G1 X-167.109 Y-230.041 E64.89724
G1 X-166.768 Y-230.606 E65.00314
G1 X-161.045 Y-236.368 E66.30515
G1 X-160.242 Y-236.901 E66.45978
G1 X-159.247 Y-237.276 E66.63015
G1 X-158.623 Y-237.371 E66.73148
G1 X-147.864 Y-237.371 E68.45656
G1 X-146.939 Y-237.187 E68.60768
G1 X-146.153 Y-236.852 E68.74472
G1 X-145.448 Y-236.371 E68.88165
G1 X-139.78 Y-230.674 E70.17019
G1 X-139.381 Y-230.041 E70.29003
G1 X-139.091 Y-229.34 E70.41174
G1 X-138.906 Y-228.413 E70.56323
G1 X-138.906 Y-217.651 E72.28885
G1 X-139.098 Y-216.706 E72.4435
G1 X-139.488 Y-215.823 E72.59821
G1 X-139.913 Y-215.229 E72.71539
G1 X-145.444 Y-209.697 E73.9697
G1 X-145.953 Y-209.322 E74.07103
G1 X-146.923 Y-208.883 E74.24179
G1 X-147.671 Y-208.713 E74.36479
G1 X-151.448 Y-208.693 E74.97036
G1 X-153.906 Y-206.235 E75.52781
G1 X-153.906 Y-199.829 E76.5549
G1 X-151.447 Y-197.369 E77.11264
G1 X-147.548 Y-197.337 E77.73778
G1 X-146.934 Y-197.185 E77.83926
G1 X-146.236 Y-196.896 E77.96033
G1 X-145.671 Y-196.554 E78.06623
G1 X-139.909 Y-190.832 E79.36831
G1 X-139.383 Y-190.046 E79.51988
G1 X-139.071 Y-189.278 E79.65283
G1 X-138.927 Y-188.625 E79.76007
G1 X-138.906 Y-177.652 E81.51941
G1 X-139.091 Y-176.724 E81.67115
G1 X-139.381 Y-176.023 E81.79282
G1 X-139.756 Y-175.415 E81.90727
G1 X-145.443 Y-169.699 E83.20019
G1 X-145.953 Y-169.322 E83.30185
G1 X-146.923 Y-168.883 E83.47261
G1 X-147.671 Y-168.713 E83.59561
G1 X-151.448 Y-168.693 E84.20119
G1 X-153.906 Y-166.235 E84.75863
G1 X-153.906 Y-159.829 E85.78572
G1 X-151.447 Y-157.369 E86.34346
G1 X-147.548 Y-157.337 E86.9686
G1 X-146.934 Y-157.185 E87.07009
G1 X-146.236 Y-156.896 E87.19115
G1 X-145.671 Y-156.554 E87.29705
G1 X-139.909 Y-150.832 E88.5991
G1 X-139.378 Y-150.033 E88.75289
G1 X-139.03 Y-149.14 E88.90659
G1 X-138.906 Y-148.41 E89.02536
G1 X-138.906 Y-137.651 E90.75047
G1 X-139.09 Y-136.726 E90.90158
G1 X-139.425 Y-135.94 E91.03863
G1 X-139.822 Y-135.359 E91.1515
G1 X-140.617 Y-135.89 F3600
G1 F1800
G1 X-146.17 Y-130.348 E92.40939
G1 X-146.647 Y-130.041 E92.50026
G1 X-147.262 Y-129.786 E92.60711
G1 X-147.911 Y-129.657 E92.71318
G1 X-158.582 Y-129.657 E94.42424
G1 X-159.143 Y-129.761 E94.51562
G1 X-159.937 Y-130.091 E94.65355
G1 X-160.396 Y-130.41 E94.74314
G1 X-165.918 Y-135.942 E95.99636
G1 X-166.186 Y-136.339 E96.07321
G1 X-166.49 Y-137.047 E96.19676
G1 X-166.611 Y-137.608 E96.28875
G1 X-166.62 Y-141.635 E96.93437
G1 X-169.643 Y-144.657 E97.6198
G1 X-176.847 Y-144.657 E98.77496
G1 X-179.87 Y-141.634 E99.46046
G1 X-179.891 Y-137.502 E100.1231
G1 X-179.998 Y-137.052 E100.1972
G1 X-180.256 Y-136.429 E100.30532
G1 X-180.498 Y-136.036 E100.37931
G1 X-186.166 Y-130.352 E101.66636
G1 X-186.642 Y-130.043 E101.75731
G1 X-187.261 Y-129.787 E101.8647
G1 X-187.815 Y-129.667 E101.95557
G1 X-198.67 Y-129.667 E103.69609
G1 X-199.225 Y-129.785 E103.78709
G1 X-199.844 Y-130.041 E103.89448
G1 X-200.32 Y-130.348 E103.98533
G1 X-205.918 Y-135.942 E105.25421
G1 X-206.186 Y-136.339 E105.33106
G1 X-206.49 Y-137.047 E105.45461
G1 X-206.611 Y-137.608 E105.5466
G1 X-206.62 Y-141.635 E106.19222
G1 X-209.643 Y-144.657 E106.87765
G1 X-216.847 Y-144.657 E108.03281
G1 X-219.87 Y-141.634 E108.71831
G1 X-219.891 Y-137.502 E109.38095
G1 X-219.998 Y-137.052 E109.45505
G1 X-220.256 Y-136.429 E109.56317
G1 X-220.498 Y-136.036 E109.63721
G1 X-226.097 Y-130.407 E110.91015
G1 X-226.567 Y-130.084 E111.00157
G1 X-227.362 Y-129.756 E111.13949
G1 X-227.912 Y-129.657 E111.22911
G1 X-238.579 Y-129.657 E112.93943
G1 X-239.228 Y-129.786 E113.0455
G1 X-239.845 Y-130.042 E113.1526
G1 X-240.395 Y-130.41 E113.25876
G1 X-245.929 Y-135.957 E114.51502
G1 X-246.236 Y-136.434 E114.6059
G1 X-246.491 Y-137.049 E114.71275
G1 X-246.62 Y-137.698 E114.81882
G1 X-246.62 Y-148.369 E116.52987
G1 X-246.516 Y-148.93 E116.62126
G1 X-246.234 Y-149.634 E116.74294
G1 X-245.868 Y-150.182 E116.84855
G1 X-240.335 Y-155.704 E118.10197
G1 X-239.938 Y-155.973 E118.17882
G1 X-239.23 Y-156.277 E118.30237
G1 X-238.669 Y-156.397 E118.39436
G1 X-234.642 Y-156.407 E119.03998
G1 X-231.62 Y-159.43 E119.72541
G1 X-231.62 Y-166.634 E120.88057
G1 X-234.642 Y-169.657 E121.566
G1 X-238.669 Y-169.667 E122.21162
G1 X-239.227 Y-169.787 E122.30318
G1 X-240.017 Y-170.135 E122.44157
G1 X-240.393 Y-170.408 E122.51602
G1 X-245.992 Y-176.036 E123.78892
G1 X-246.234 Y-176.429 E123.86297
G1 X-246.491 Y-177.049 E123.97058
G1 X-246.62 Y-177.698 E124.07662
G1 X-246.613 Y-188.444 E125.79966
G1 X-246.522 Y-188.915 E125.8765
G1 X-246.237 Y-189.627 E125.9995
G1 X-245.867 Y-190.182 E126.10653
G1 X-240.241 Y-195.779 E127.37886
G1 X-239.848 Y-196.021 E127.4529
G1 X-239.225 Y-196.279 E127.56102
G1 X-238.775 Y-196.386 E127.63512
G1 X-234.643 Y-196.407 E128.29776
G1 X-231.62 Y-199.43 E128.98326
G1 X-231.62 Y-206.634 E130.13842
G1 X-234.642 Y-209.657 E130.82385
G1 X-238.669 Y-209.667 E131.46948
G1 X-239.227 Y-209.787 E131.56104
G1 X-240.017 Y-210.135 E131.69943
G1 X-240.393 Y-210.408 E131.77393
G1 X-245.931 Y-215.959 E133.03122
G1 X-246.2 Y-216.365 E133.10921
G1 X-246.491 Y-217.051 E133.22878
G1 X-246.62 Y-217.698 E133.33458
G1 X-246.61 Y-228.462 E135.06047
G1 X-246.49 Y-229.016 E135.15138
G1 X-246.235 Y-229.632 E135.25822
G1 X-245.867 Y-230.182 E135.36429
G1 X-240.395 Y-235.654 E136.60518
G1 X-239.845 Y-236.022 E136.71125
G1 X-239.228 Y-236.277 E136.81835
G1 X-238.579 Y-236.406 E136.92444
G1 X-227.714 Y-236.386 E138.66648
G1 X-227.265 Y-236.279 E138.74051
G1 X-226.645 Y-236.022 E138.84811
G1 X-226.095 Y-235.654 E138.95422
G1 X-220.498 Y-230.028 E140.22661
G1 X-220.256 Y-229.635 E140.30065
G1 X-219.998 Y-229.012 E140.40877
G1 X-219.891 Y-228.562 E140.48287
G1 X-219.87 Y-224.43 E141.14551
G1 X-216.847 Y-221.407 E141.83101
G1 X-209.643 Y-221.407 E142.98617
G1 X-206.62 Y-224.43 E143.67167
G1 X-206.599 Y-228.562 E144.33432
G1 X-206.492 Y-229.012 E144.40842
G1 X-206.234 Y-229.635 E144.51653
G1 X-205.992 Y-230.028 E144.59053
G1 X-200.324 Y-235.712 E145.87757
G1 X-199.848 Y-236.021 E145.96853
G1 X-199.229 Y-236.277 E146.07592
G1 X-198.676 Y-236.397 E146.16679
G1 X-187.82 Y-236.397 E147.90731
G1 X-187.265 Y-236.279 E147.9983
G1 X-186.647 Y-236.022 E148.1057
G1 X-186.17 Y-235.716 E148.19654
G1 X-180.573 Y-230.122 E149.46543
G1 X-180.304 Y-229.725 E149.54227
G1 X-180 Y-229.017 E149.66583
G1 X-179.88 Y-228.456 E149.75781
G1 X-179.87 Y-224.429 E150.40344
G1 X-176.847 Y-221.407 E151.08886
G1 X-169.643 Y-221.407 E152.24402
G1 X-166.62 Y-224.43 E152.92953
G1 X-166.599 Y-228.562 E153.59217
G1 X-166.492 Y-229.012 E153.66627
G1 X-166.234 Y-229.635 E153.77438
G1 X-165.992 Y-230.028 E153.84843
G1 X-160.395 Y-235.654 E155.12076
G1 X-159.842 Y-236.022 E155.22736
G1 X-159.041 Y-236.333 E155.3652
G1 X-158.582 Y-236.407 E155.43962
G1 X-147.911 Y-236.407 E157.15063
G1 X-147.262 Y-236.277 E157.2567
G1 X-146.645 Y-236.022 E157.3638
G1 X-146.095 Y-235.654 E157.46997
G1 X-140.561 Y-230.107 E158.72623
G1 X-140.255 Y-229.63 E158.81711
G1 X-140 Y-229.015 E158.92396
G1 X-139.871 Y-228.366 E159.03002
G1 X-139.871 Y-217.698 E160.74047
G1 X-140.001 Y-217.047 E160.84704
G1 X-140.348 Y-216.26 E160.98489
G1 X-140.621 Y-215.884 E161.05931
G1 X-146.097 Y-210.407 E162.3012
G1 X-146.473 Y-210.135 E162.37562
G1 X-147.263 Y-209.787 E162.51401
G1 X-147.821 Y-209.667 E162.60558
G1 X-151.848 Y-209.657 E163.2512
G1 X-154.871 Y-206.634 E163.93663
G1 X-154.871 Y-199.43 E165.09179
G1 X-151.847 Y-196.407 E165.77729
G1 X-147.715 Y-196.386 E166.43993
G1 X-147.265 Y-196.279 E166.51403
G1 X-146.642 Y-196.021 E166.62215
G1 X-146.249 Y-195.779 E166.69619
G1 X-140.623 Y-190.182 E167.96858
G1 X-140.255 Y-189.632 E168.07469
G1 X-139.998 Y-189.012 E168.18229
G1 X-139.892 Y-188.563 E168.25632
G1 X-139.871 Y-177.698 E169.99836
G1 X-140 Y-177.049 E170.10445
G1 X-140.256 Y-176.429 E170.21206
G1 X-140.498 Y-176.036 E170.2861
G1 X-146.097 Y-170.408 E171.559
G1 X-146.473 Y-170.135 E171.63345
G1 X-147.263 Y-169.787 E171.77184
G1 X-147.821 Y-169.667 E171.8634
G1 X-151.848 Y-169.657 E172.50903
G1 X-154.871 Y-166.634 E173.19445
G1 X-154.871 Y-159.43 E174.34961
G1 X-151.847 Y-156.407 E175.03512
G1 X-147.715 Y-156.386 E175.69776
G1 X-147.265 Y-156.279 E175.77186
G1 X-146.642 Y-156.021 E175.87997
G1 X-146.249 Y-155.779 E175.95402
G1 X-140.623 Y-150.182 E177.22635
G1 X-140.253 Y-149.627 E177.33338
G1 X-139.969 Y-148.918 E177.45586
G1 X-139.871 Y-148.365 E177.5459
G1 X-139.871 Y-137.698 E179.25622
G1 X-140 Y-137.049 E179.36228
G1 X-140.255 Y-136.432 E179.46939
G1 X-140.534 Y-136.015 E179.54984
G1 X-141.328 Y-136.545 F3600
G1 F1800
G1 X-146.812 Y-131.069 E180.7925
G1 X-147.052 Y-130.917 E180.8381
G1 X-147.588 Y-130.695 E180.93097
G1 X-147.958 Y-130.622 E180.99162
G1 X-158.532 Y-130.622 E182.68694
G1 X-158.9 Y-130.695 E182.74711
G1 X-159.508 Y-130.955 E182.85319
G1 X-159.743 Y-131.121 E182.89922
G1 X-165.156 Y-136.534 E184.12682
G1 X-165.322 Y-136.769 E184.17285
G1 X-165.582 Y-137.377 E184.27893
G1 X-165.656 Y-137.745 E184.3391
G1 X-165.656 Y-142.034 E185.02668
G1 X-169.244 Y-145.622 E185.84028
G1 X-177.247 Y-145.622 E187.12351
G1 X-180.834 Y-142.034 E187.93701
G1 X-180.844 Y-137.658 E188.63873
G1 X-180.906 Y-137.38 E188.68437
G1 X-181.13 Y-136.839 E188.77819
G1 X-181.282 Y-136.599 E188.82379
G1 X-186.744 Y-131.125 E190.06364
G1 X-187.058 Y-130.915 E190.12424
G1 X-187.593 Y-130.693 E190.21711
G1 X-187.87 Y-130.631 E190.2627
G1 X-198.532 Y-130.622 E191.97218
G1 X-198.903 Y-130.695 E192.03279
G1 X-199.438 Y-130.917 E192.12566
G1 X-199.678 Y-131.069 E192.17126
G1 X-205.157 Y-136.535 E193.41207
G1 X-205.322 Y-136.769 E193.45804
G1 X-205.582 Y-137.377 E193.56413
G1 X-205.656 Y-137.745 E193.6243
G1 X-205.656 Y-142.034 E194.31187
G1 X-209.244 Y-145.622 E195.12548
G1 X-217.247 Y-145.622 E196.40871
G1 X-220.834 Y-142.034 E197.22221
G1 X-220.844 Y-137.658 E197.92393
G1 X-220.906 Y-137.38 E197.96956
