; generated by PrusaSlicer 2.4.2+win64 on 2022-05-10 at 04:06:40 UTC

; 

; external perimeters extrusion width = 1.12mm
; perimeters extrusion width = 1.12mm
; infill extrusion width = 1.12mm
; solid infill extrusion width = 1.12mm
; top infill extrusion width = 1.00mm
; first layer extrusion width = 1.05mm

M107
M190 S60 ; set bed temperature and wait for it to be reached
M104 S215 ; set temperature
;TYPE:Custom
G28 ; home all axes
G1 Z5 F5000 ; lift nozzle
M109 S215 ; set temperature and wait for it to be reached
G21 ; set units to millimeters
G90 ; use absolute coordinates
M82 ; use absolute distances for extrusion
G92 E0
; Filament gcode
M107
;LAYER_CHANGE
;Z:0.4
;HEIGHT:0.4
G1 Z.4 F600
G1 E-2 F2400
G92 E0
G1 X-115.732 Y-129.372 F3600
G1 E2 F2400
;TYPE:Skirt/Brim
;WIDTH:1.05
G1 F1800
G1 X-117.497 Y-127.817 E2.3771
G1 X-119.678 Y-126.937 E2.7542
G1 X-121.153 Y-126.779 E2.99209
G1 X-146.553 Y-126.779 E7.06474
G1 X-148.871 Y-127.177 E7.44184
G1 X-150.925 Y-128.323 E7.81894
G1 X-152.48 Y-130.087 E8.19604
G1 X-153.359 Y-132.268 E8.57314
G1 X-153.517 Y-133.744 E8.81103
G1 X-153.517 Y-159.144 E12.88367
G1 X-153.12 Y-161.462 E13.26077
G1 X-151.974 Y-163.515 E13.63788
G1 X-150.21 Y-165.071 E14.01498
G1 X-148.028 Y-165.95 E14.39208
G1 X-146.553 Y-166.108 E14.62997
G1 X-121.153 Y-166.108 E18.70261
G1 X-118.835 Y-165.711 E19.07971
G1 X-116.781 Y-164.565 E19.45681
G1 X-115.226 Y-162.8 E19.83391
G1 X-114.347 Y-160.619 E20.21101
G1 X-114.189 Y-159.144 E20.4489
G1 X-114.189 Y-133.744 E24.52155
G1 X-114.586 Y-131.425 E24.89865
G1 X-115.659 Y-129.503 E25.2517
G1 E23.2517 F2400
G92 E0
G1 X-122.642 Y-135.233 F3600
G1 E2 F2400
;TYPE:Perimeter
G1 F1800
G1 X-145.064 Y-135.233 E5.5951
G1 X-145.064 Y-157.654 E9.1902
G1 X-122.642 Y-157.654 E12.7853
G1 X-122.642 Y-135.383 E16.35635
G1 X-121.678 Y-134.269 F3600
;TYPE:External perimeter
G1 F1800
G1 X-146.028 Y-134.269 E20.26064
G1 X-146.028 Y-158.619 E24.16493
G1 X-121.678 Y-158.619 E28.06921
G1 X-121.678 Y-134.419 E31.94945
G1 X-122.644 Y-134.527 F3600
G1 E29.94945 F2400
G92 E0
G1 X-124.892 Y-157.365 F3600
G1 E2 F2400
;TYPE:Solid infill
;WIDTH:1.05544
G1 F1800
G1 X-123.365 Y-155.839 E2.34812
G1 X-123.365 Y-154.467 E2.56923
G1 X-125.829 Y-156.931 E3.1311
G1 X-127.201 Y-156.931 E3.35221
G1 X-123.365 Y-153.096 E4.22677
G1 X-123.365 Y-151.725 E4.44788
G1 X-128.572 Y-156.931 E5.63513
G1 X-129.943 Y-156.931 E5.85623
G1 X-123.365 Y-150.354 E7.35617
G1 X-123.365 Y-148.982 E7.57728
G1 X-131.314 Y-156.931 E9.38991
G1 X-132.685 Y-156.931 E9.61101
G1 X-123.365 Y-147.611 E11.73633
G1 X-123.365 Y-146.24 E11.95743
G1 X-134.057 Y-156.931 E14.39544
G1 X-135.428 Y-156.931 E14.61654
G1 X-123.365 Y-144.869 E17.36724
G1 X-123.365 Y-143.498 E17.58834
G1 X-136.799 Y-156.931 E20.65172
G1 X-138.17 Y-156.931 E20.87283
G1 X-123.365 Y-142.126 E24.2489
G1 X-123.365 Y-140.755 E24.47
G1 X-139.542 Y-156.931 E28.15876
G1 X-140.913 Y-156.931 E28.37987
G1 X-123.365 Y-139.384 E32.38132
G1 X-123.365 Y-138.013 E32.60242
G1 X-142.284 Y-156.931 E36.91656
G1 X-143.655 Y-156.931 E37.13766
G1 X-123.365 Y-136.641 E41.76449
G1 X-123.365 Y-135.956 E41.87503
G1 X-124.051 Y-135.956 E41.98559
G1 X-144.341 Y-156.246 E46.61239
G1 X-144.341 Y-154.874 E46.8335
G1 X-125.422 Y-135.956 E51.14761
G1 X-126.793 Y-135.956 E51.36872
G1 X-144.341 Y-153.503 E55.37014
G1 X-144.341 Y-152.132 E55.59124
G1 X-128.165 Y-135.956 E59.27998
G1 X-129.536 Y-135.956 E59.50109
G1 X-144.341 Y-150.761 E62.87713
G1 X-144.341 Y-149.39 E63.09824
G1 X-130.907 Y-135.956 E66.1616
G1 X-132.278 Y-135.956 E66.3827
G1 X-144.341 Y-148.018 E69.13337
G1 X-144.341 Y-146.647 E69.35447
G1 X-133.65 Y-135.956 E71.79246
G1 X-135.021 Y-135.956 E72.01356
G1 X-144.341 Y-145.276 E74.13885
G1 X-144.341 Y-143.905 E74.35996
G1 X-136.392 Y-135.956 E76.17256
G1 X-137.763 Y-135.956 E76.39367
G1 X-144.341 Y-142.533 E77.89358
G1 X-144.341 Y-141.162 E78.11469
G1 X-139.135 Y-135.956 E79.30192
G1 X-140.506 Y-135.956 E79.52302
G1 X-144.341 Y-139.791 E80.39756
G1 X-144.341 Y-138.42 E80.61866
G1 X-141.877 Y-135.956 E81.18051
G1 X-143.248 Y-135.956 E81.40162
G1 X-144.775 Y-137.482 E81.74972
;LAYER_CHANGE
;Z:0.9
;HEIGHT:0.5
G1 Z.9 F600
G1 E79.74972 F2400
G92 E0
G1 X-122.726 Y-135.316 F3600
G1 E2 F2400
;TYPE:Perimeter
;WIDTH:1.12
G1 F1800
G1 X-144.98 Y-135.316 E6.68494
G1 X-144.98 Y-157.571 E11.36989
G1 X-122.726 Y-157.571 E16.05483
G1 X-122.726 Y-135.466 E20.7082
G1 X-121.713 Y-134.304 F3600
;TYPE:External perimeter
G1 F900
G1 X-145.993 Y-134.304 E25.81952
G1 X-145.993 Y-158.584 E30.93084
G1 X-121.713 Y-158.584 E36.04216
G1 X-121.713 Y-134.454 E41.1219
G1 X-122.679 Y-134.562 F3600
G1 E39.1219 F2400
G92 E0
G1 X-123.03 Y-137.694 F3600
G1 E2 F2400
;TYPE:Solid infill
;WIDTH:1.13252
G1 F1200
G1 X-124.648 Y-136.076 E2.48763
G1 X-126.097 Y-136.076 E2.79663
G1 X-123.485 Y-138.688 E3.5839
G1 X-123.485 Y-140.138 E3.8929
G1 X-127.547 Y-136.076 E5.11716
G1 X-128.997 Y-136.076 E5.42616
G1 X-123.485 Y-141.588 E7.08741
G1 X-123.485 Y-143.038 E7.3964
G1 X-130.447 Y-136.076 E9.49464
G1 X-131.897 Y-136.076 E9.80364
G1 X-123.485 Y-144.487 E12.33887
G1 X-123.485 Y-145.937 E12.64787
G1 X-133.347 Y-136.076 E15.62008
G1 X-134.797 Y-136.076 E15.92908
G1 X-123.485 Y-147.387 E19.33829
G1 X-123.485 Y-148.837 E19.64729
G1 X-136.247 Y-136.076 E23.49348
G1 X-137.696 Y-136.076 E23.80248
G1 X-123.485 Y-150.287 E28.08566
G1 X-123.485 Y-151.737 E28.39466
G1 X-139.146 Y-136.076 E33.11484
G1 X-140.596 Y-136.076 E33.42383
G1 X-123.485 Y-153.187 E38.581
G1 X-123.485 Y-154.637 E38.88999
G1 X-142.046 Y-136.076 E44.48415
G1 X-143.496 Y-136.076 E44.79315
G1 X-123.485 Y-156.086 E50.82429
G1 X-123.485 Y-156.811 E50.97877
G1 X-124.21 Y-156.811 E51.13328
G1 X-144.221 Y-136.801 E57.16439
G1 X-144.221 Y-138.251 E57.47339
G1 X-125.66 Y-156.811 E63.06751
G1 X-127.11 Y-156.811 E63.37651
G1 X-144.221 Y-139.701 E68.53364
G1 X-144.221 Y-141.15 E68.84263
G1 X-128.56 Y-156.811 E73.56277
G1 X-130.01 Y-156.811 E73.87177
G1 X-144.221 Y-142.6 E78.15492
G1 X-144.221 Y-144.05 E78.46392
G1 X-131.46 Y-156.811 E82.31008
G1 X-132.91 Y-156.811 E82.61908
G1 X-144.221 Y-145.5 E86.02825
G1 X-144.221 Y-146.95 E86.33725
G1 X-134.359 Y-156.811 E89.30943
G1 X-135.809 Y-156.811 E89.61843
G1 X-144.221 Y-148.4 E92.15363
G1 X-144.221 Y-149.85 E92.46262
G1 X-137.259 Y-156.811 E94.56083
G1 X-138.709 Y-156.811 E94.86983
G1 X-144.221 Y-151.3 E96.53104
G1 X-144.221 Y-152.75 E96.84004
G1 X-140.159 Y-156.811 E98.06427
G1 X-141.609 Y-156.811 E98.37327
G1 X-144.221 Y-154.199 E99.1605
G1 X-144.221 Y-155.649 E99.4695
G1 X-142.603 Y-157.267 E99.9571
;LAYER_CHANGE
;Z:1.4
;HEIGHT:0.5
G1 Z1.4 F600
G1 E97.9571 F2400
G92 E0
G1 X-122.726 Y-135.316 F3600
G1 E2 F2400
;TYPE:Perimeter
;WIDTH:1.12
G1 F1800
G1 X-144.98 Y-135.316 E6.68494
G1 X-144.98 Y-157.571 E11.36989
G1 X-122.726 Y-157.571 E16.05483
G1 X-122.726 Y-135.466 E20.7082
G1 X-121.713 Y-134.304 F3600
;TYPE:External perimeter
G1 F900
G1 X-145.993 Y-134.304 E25.81952
G1 X-145.993 Y-158.584 E30.93084
G1 X-121.713 Y-158.584 E36.04216
G1 X-121.713 Y-134.454 E41.1219
G1 X-122.679 Y-134.562 F3600
G1 E39.1219 F2400
G92 E0
G1 X-125.103 Y-157.267 F3600
G1 E2 F2400
;TYPE:Solid infill
;WIDTH:1.13252
G1 F1200
G1 X-123.485 Y-155.649 E2.48763
G1 X-123.485 Y-154.199 E2.79663
G1 X-126.097 Y-156.811 E3.5839
G1 X-127.547 Y-156.811 E3.8929
G1 X-123.485 Y-152.749 E5.11716
G1 X-123.485 Y-151.3 E5.42616
G1 X-128.997 Y-156.811 E7.08741
G1 X-130.447 Y-156.811 E7.39641
G1 X-123.485 Y-149.85 E9.49464
G1 X-123.485 Y-148.4 E9.80364
G1 X-131.897 Y-156.811 E12.33887
G1 X-133.347 Y-156.811 E12.64787
G1 X-123.485 Y-146.95 E15.62008
G1 X-123.485 Y-145.5 E15.92908
G1 X-134.797 Y-156.811 E19.33829
G1 X-136.247 Y-156.811 E19.64729
G1 X-123.485 Y-144.05 E23.49348
G1 X-123.485 Y-142.6 E23.80248
G1 X-137.696 Y-156.811 E28.08566
G1 X-139.146 Y-156.811 E28.39466
G1 X-123.485 Y-141.15 E33.11484
G1 X-123.485 Y-139.7 E33.42383
G1 X-140.596 Y-156.811 E38.581
G1 X-142.046 Y-156.811 E38.89
G1 X-123.485 Y-138.251 E44.48415
G1 X-123.485 Y-136.801 E44.79315
G1 X-143.496 Y-156.811 E50.82429
G1 X-144.221 Y-156.811 E50.97877
G1 X-144.221 Y-156.086 E51.13329
G1 X-124.21 Y-136.076 E57.16439
G1 X-125.66 Y-136.076 E57.47339
G1 X-144.221 Y-154.636 E63.06751
G1 X-144.221 Y-153.187 E63.37651
G1 X-127.11 Y-136.076 E68.53364
G1 X-128.56 Y-136.076 E68.84264
G1 X-144.221 Y-151.737 E73.56278
G1 X-144.221 Y-150.287 E73.87177
G1 X-130.01 Y-136.076 E78.15492
G1 X-131.46 Y-136.076 E78.46392
G1 X-144.221 Y-148.837 E82.31008
G1 X-144.221 Y-147.387 E82.61908
G1 X-132.91 Y-136.076 E86.02826
G1 X-134.359 Y-136.076 E86.33725
G1 X-144.221 Y-145.937 E89.30944
G1 X-144.221 Y-144.487 E89.61843
G1 X-135.809 Y-136.076 E92.15363
G1 X-137.259 Y-136.076 E92.46263
G1 X-144.221 Y-143.037 E94.56083
G1 X-144.221 Y-141.588 E94.86983
G1 X-138.709 Y-136.076 E96.53105
G1 X-140.159 Y-136.076 E96.84004
G1 X-144.221 Y-140.138 E98.06427
G1 X-144.221 Y-138.688 E98.37327
G1 X-141.609 Y-136.076 E99.16051
G1 X-143.059 Y-136.076 E99.4695
G1 X-144.677 Y-137.694 E99.9571
M106 S226.95
;LAYER_CHANGE
;Z:1.9
;HEIGHT:0.5
G1 Z1.9 F600
G1 E97.9571 F2400
G92 E0
G1 X-122.726 Y-135.316 F3600
G1 E2 F2400
;TYPE:Perimeter
;WIDTH:1.12
G1 F1800
G1 X-144.98 Y-135.316 E6.68494
G1 X-144.98 Y-157.571 E11.36989
G1 X-122.726 Y-157.571 E16.05483
G1 X-122.726 Y-135.466 E20.7082
G1 X-121.713 Y-134.304 F3600
;TYPE:External perimeter
G1 F900
G1 X-145.993 Y-134.304 E25.81952
G1 X-145.993 Y-158.584 E30.93084
G1 X-121.713 Y-158.584 E36.04216
G1 X-121.713 Y-134.454 E41.1219
G1 X-122.679 Y-134.562 F3600
G1 E39.1219 F2400
G92 E0
G1 X-130.555 Y-136.076 F3600
G1 E2 F2400
;TYPE:Internal infill
G1 X-136.631 Y-136.076 E3.27913
G1 X-131.075 Y-156.811 E7.79828
G1 X-137.151 Y-156.811 E9.07742
G1 E7.07742
G92 E0
G1 X-123.485 Y-151.756 F3600
G1 E2 F2400
G1 X-123.485 Y-156.811 E3.06431
G1 X-124.506 Y-156.811 E3.27913
G1 X-144.221 Y-151.529 E7.57588
G1 X-144.221 Y-156.811 E8.68796
G1 X-123.485 Y-136.076 E14.86123
G1 X-123.485 Y-141.358 E15.97331
G1 X-143.2 Y-136.076 E20.27005
G1 X-144.221 Y-136.076 E20.48488
G1 X-144.221 Y-141.132 E21.54919
;LAYER_CHANGE
;Z:2.4
;HEIGHT:0.5
G1 Z2.4 F600
G1 E19.54919 F2400
G92 E0
G1 X-122.726 Y-135.316 F3600
G1 E2 F2400
;TYPE:Perimeter
G1 F1800
G1 X-144.98 Y-135.316 E6.68494
G1 X-144.98 Y-157.571 E11.36989
G1 X-122.726 Y-157.571 E16.05483
G1 X-122.726 Y-135.466 E20.7082
G1 X-121.713 Y-134.304 F3600
;TYPE:External perimeter
G1 F900
G1 X-145.993 Y-134.304 E25.81952
G1 X-145.993 Y-158.584 E30.93084
G1 X-121.713 Y-158.584 E36.04216
G1 X-121.713 Y-134.454 E41.1219
G1 X-122.679 Y-134.562 F3600
G1 E39.1219 F2400
G92 E0
G1 X-130.555 Y-136.076 F3600
G1 E2 F2400
;TYPE:Internal infill
G1 X-136.631 Y-136.076 E3.27913
G1 X-131.075 Y-156.811 E7.79828
G1 X-137.151 Y-156.811 E9.07742
G1 E7.07742
G92 E0
G1 X-123.485 Y-151.756 F3600
G1 E2 F2400
G1 X-123.485 Y-156.811 E3.06431
G1 X-124.506 Y-156.811 E3.27913
G1 X-144.221 Y-151.529 E7.57588
G1 X-144.221 Y-156.811 E8.68796
G1 X-123.485 Y-136.076 E14.86123
G1 X-123.485 Y-141.358 E15.97331
G1 X-143.2 Y-136.076 E20.27005
G1 X-144.221 Y-136.076 E20.48488
G1 X-144.221 Y-141.132 E21.54919
;LAYER_CHANGE
;Z:2.9
;HEIGHT:0.5
G1 Z2.9 F600
G1 E19.54919 F2400
G92 E0
G1 X-122.726 Y-135.316 F3600
G1 E2 F2400
;TYPE:Perimeter
G1 F1800
G1 X-144.98 Y-135.316 E6.68494
G1 X-144.98 Y-157.571 E11.36989
G1 X-122.726 Y-157.571 E16.05483
G1 X-122.726 Y-135.466 E20.7082
G1 X-121.713 Y-134.304 F3600
;TYPE:External perimeter
G1 F900
G1 X-145.993 Y-134.304 E25.81952
G1 X-145.993 Y-158.584 E30.93084
G1 X-121.713 Y-158.584 E36.04216
G1 X-121.713 Y-134.454 E41.1219
G1 X-122.679 Y-134.562 F3600
G1 E39.1219 F2400
G92 E0
G1 X-130.555 Y-136.076 F3600
G1 E2 F2400
;TYPE:Internal infill
G1 X-136.631 Y-136.076 E3.27913
G1 X-131.075 Y-156.811 E7.79828
G1 X-137.151 Y-156.811 E9.07742
G1 E7.07742
G92 E0
G1 X-123.485 Y-151.756 F3600
G1 E2 F2400
G1 X-123.485 Y-156.811 E3.06431
G1 X-124.506 Y-156.811 E3.27913
G1 X-144.221 Y-151.529 E7.57588
G1 X-144.221 Y-156.811 E8.68796
G1 X-123.485 Y-136.076 E14.86123
G1 X-123.485 Y-141.358 E15.97331
G1 X-143.2 Y-136.076 E20.27005
G1 X-144.221 Y-136.076 E20.48488
G1 X-144.221 Y-141.132 E21.54919
;LAYER_CHANGE
;Z:3.4
;HEIGHT:0.5
G1 Z3.4 F600
G1 E19.54919 F2400
G92 E0
G1 X-122.726 Y-135.316 F3600
G1 E2 F2400
;TYPE:Perimeter
G1 F1800
G1 X-144.98 Y-135.316 E6.68494
G1 X-144.98 Y-157.571 E11.36989
G1 X-122.726 Y-157.571 E16.05483
G1 X-122.726 Y-135.466 E20.7082
G1 X-121.713 Y-134.304 F3600
;TYPE:External perimeter
G1 F900
G1 X-145.993 Y-134.304 E25.81952
G1 X-145.993 Y-158.584 E30.93084
G1 X-121.713 Y-158.584 E36.04216
G1 X-121.713 Y-134.454 E41.1219
G1 X-122.679 Y-134.562 F3600
G1 E39.1219 F2400
G92 E0
G1 X-130.555 Y-136.076 F3600
G1 E2 F2400
;TYPE:Internal infill
G1 X-136.631 Y-136.076 E3.27913
G1 X-131.075 Y-156.811 E7.79828
G1 X-137.151 Y-156.811 E9.07742
G1 E7.07742
G92 E0
G1 X-123.485 Y-151.756 F3600
G1 E2 F2400
G1 X-123.485 Y-156.811 E3.06431
G1 X-124.506 Y-156.811 E3.27913
G1 X-144.221 Y-151.529 E7.57588
G1 X-144.221 Y-156.811 E8.68796
G1 X-123.485 Y-136.076 E14.86123
G1 X-123.485 Y-141.358 E15.97331
G1 X-143.2 Y-136.076 E20.27005
G1 X-144.221 Y-136.076 E20.48488
G1 X-144.221 Y-141.132 E21.54919
;LAYER_CHANGE
;Z:3.9
;HEIGHT:0.5
G1 Z3.9 F600
G1 E19.54919 F2400
G92 E0
G1 X-122.726 Y-135.316 F3600
G1 E2 F2400
;TYPE:Perimeter
G1 F1800
G1 X-144.98 Y-135.316 E6.68494
G1 X-144.98 Y-157.571 E11.36989
G1 X-122.726 Y-157.571 E16.05483
G1 X-122.726 Y-135.466 E20.7082
G1 X-121.713 Y-134.304 F3600
;TYPE:External perimeter
G1 F900
G1 X-145.993 Y-134.304 E25.81952
G1 X-145.993 Y-158.584 E30.93084
G1 X-121.713 Y-158.584 E36.04216
G1 X-121.713 Y-134.454 E41.1219
G1 X-122.679 Y-134.562 F3600
G1 E39.1219 F2400
G92 E0
G1 X-130.555 Y-136.076 F3600
G1 E2 F2400
;TYPE:Internal infill
G1 X-136.631 Y-136.076 E3.27913
G1 X-131.075 Y-156.811 E7.79828
G1 X-137.151 Y-156.811 E9.07742
G1 E7.07742
G92 E0
G1 X-123.485 Y-151.756 F3600
G1 E2 F2400
G1 X-123.485 Y-156.811 E3.06431
G1 X-124.506 Y-156.811 E3.27913
G1 X-144.221 Y-151.529 E7.57588
G1 X-144.221 Y-156.811 E8.68796
G1 X-123.485 Y-136.076 E14.86123
G1 X-123.485 Y-141.358 E15.97331
G1 X-143.2 Y-136.076 E20.27005
G1 X-144.221 Y-136.076 E20.48488
G1 X-144.221 Y-141.132 E21.54919
;LAYER_CHANGE
;Z:4.4
;HEIGHT:0.5
G1 Z4.4 F600
G1 E19.54919 F2400
G92 E0
G1 X-122.726 Y-135.316 F3600
G1 E2 F2400
;TYPE:Perimeter
G1 F1800
G1 X-144.98 Y-135.316 E6.68494
G1 X-144.98 Y-157.571 E11.36989
G1 X-122.726 Y-157.571 E16.05483
G1 X-122.726 Y-135.466 E20.7082
G1 X-121.713 Y-134.304 F3600
;TYPE:External perimeter
G1 F900
G1 X-145.993 Y-134.304 E25.81952
G1 X-145.993 Y-158.584 E30.93084
G1 X-121.713 Y-158.584 E36.04216
G1 X-121.713 Y-134.454 E41.1219
G1 X-122.679 Y-134.562 F3600
G1 E39.1219 F2400
G92 E0
G1 X-130.555 Y-136.076 F3600
G1 E2 F2400
;TYPE:Internal infill
G1 X-136.631 Y-136.076 E3.27913
G1 X-131.075 Y-156.811 E7.79828
G1 X-137.151 Y-156.811 E9.07742
G1 E7.07742
G92 E0
G1 X-123.485 Y-151.756 F3600
G1 E2 F2400
G1 X-123.485 Y-156.811 E3.06431
G1 X-124.506 Y-156.811 E3.27913
G1 X-144.221 Y-151.529 E7.57588
G1 X-144.221 Y-156.811 E8.68796
G1 X-123.485 Y-136.076 E14.86123
G1 X-123.485 Y-141.358 E15.97331
G1 X-143.2 Y-136.076 E20.27005
G1 X-144.221 Y-136.076 E20.48488
G1 X-144.221 Y-141.132 E21.54919
;LAYER_CHANGE
;Z:4.9
;HEIGHT:0.5
G1 Z4.9 F600
G1 E19.54919 F2400
G92 E0
G1 X-122.726 Y-135.316 F3600
G1 E2 F2400
;TYPE:Perimeter
G1 F1800
G1 X-144.98 Y-135.316 E6.68494
G1 X-144.98 Y-157.571 E11.36989
G1 X-122.726 Y-157.571 E16.05483
G1 X-122.726 Y-135.466 E20.7082
G1 X-121.713 Y-134.304 F3600
;TYPE:External perimeter
G1 F900
G1 X-145.993 Y-134.304 E25.81952
G1 X-145.993 Y-158.584 E30.93084
G1 X-121.713 Y-158.584 E36.04216
G1 X-121.713 Y-134.454 E41.1219
G1 X-122.679 Y-134.562 F3600
G1 E39.1219 F2400
G92 E0
G1 X-130.555 Y-136.076 F3600
G1 E2 F2400
;TYPE:Internal infill
G1 X-136.631 Y-136.076 E3.27913
G1 X-131.075 Y-156.811 E7.79828
G1 X-137.151 Y-156.811 E9.07742
G1 E7.07742
G92 E0
G1 X-123.485 Y-151.756 F3600
G1 E2 F2400
G1 X-123.485 Y-156.811 E3.06431
G1 X-124.506 Y-156.811 E3.27913
G1 X-144.221 Y-151.529 E7.57588
G1 X-144.221 Y-156.811 E8.68796
G1 X-123.485 Y-136.076 E14.86123
