; generated by PrusaSlicer 2.1.0+win64 on 2022-05-06 at 18:49:14 UTC

; 

; external perimeters extrusion width = 1.13mm
; perimeters extrusion width = 1.13mm
; infill extrusion width = 1.13mm
; solid infill extrusion width = 1.13mm
; top infill extrusion width = 1.00mm
; first layer extrusion width = 1.05mm

M201 X9000 Y9000 Z100 E10000 ; sets maximum accelerations, mm/sec^2
M203 X500 Y500 Z12 E120 ; sets maximum feedrates, mm/sec
M204 P1500 R1500 T1500 ; sets acceleration (P, T) and retract acceleration (R), mm/sec^2
M205 X10.00 Y10.00 Z0.20 E2.50 ; sets the jerk limits, mm/sec
M205 S0 T0 ; sets the minimum extruding and travel feed rate, mm/sec
M107
M190 S60 ; set bed temperature and wait for it to be reached
M104 S215 ; set temperature
G28 ; home all axes
G1 Z5 F5000 ; lift nozzle
M109 S215 ; set temperature and wait for it to be reached
G21 ; set units to millimeters
G90 ; use absolute coordinates
M82 ; use absolute distances for extrusion
G92 E0
; Filament gcode
G1 Z0.600 F7800.000
G1 E-2.00000 F2400.00000
G92 E0
G1 X171.927 Y-165.322 F7800.000
G1 E2.00000 F2400.00000
G1 F1800
G1 X171.167 Y-166.502 E2.32261
G1 X170.682 Y-167.813 E2.64378
G1 X170.490 Y-169.198 E2.96495
G1 X170.495 Y-195.094 E8.91608
G1 X170.622 Y-196.096 E9.14818
G1 X170.903 Y-197.066 E9.38027
G1 X171.332 Y-197.980 E9.61237
G1 X171.899 Y-198.817 E9.84446
G1 X172.820 Y-199.756 E10.14698
G1 X173.913 Y-200.490 E10.44950
G1 X175.133 Y-200.987 E10.75201
G1 X176.433 Y-201.227 E11.05597
G1 X202.355 Y-201.247 E17.01278
G1 X203.504 Y-201.143 E17.27794
G1 X204.616 Y-200.836 E17.54311
G1 X205.656 Y-200.336 E17.80828
G1 X206.591 Y-199.659 E18.07345
G1 X207.390 Y-198.827 E18.33862
G1 X208.028 Y-197.866 E18.60379
G1 X208.485 Y-196.806 E18.86896
G1 X208.747 Y-195.682 E19.13413
G1 X208.809 Y-194.800 E19.33744
G1 X208.802 Y-169.098 E25.24385
G1 X208.677 Y-168.089 E25.47738
G1 X208.396 Y-167.113 E25.71091
G1 X207.967 Y-166.198 E25.94301
G1 X207.398 Y-165.357 E26.17655
G1 X206.413 Y-164.365 E26.49772
G1 X205.232 Y-163.605 E26.82033
G1 X203.922 Y-163.120 E27.14150
G1 X202.537 Y-162.929 E27.46267
G1 X176.641 Y-162.933 E33.41380
G1 X175.639 Y-163.060 E33.64589
G1 X174.669 Y-163.341 E33.87799
G1 X173.754 Y-163.771 E34.11009
G1 X172.918 Y-164.337 E34.34218
G1 X172.033 Y-165.216 E34.62888
G1 E32.62888 F2400.00000
G92 E0
G1 X199.981 Y-192.419 F7800.000
G1 E2.00000 F2400.00000
G1 F1800
G1 X199.981 Y-171.754 E6.74891
G1 X179.316 Y-171.754 E11.49782
G1 X179.316 Y-192.419 E16.24673
G1 X199.831 Y-192.419 E20.96117
G1 X200.902 Y-193.340 F7800.000
G1 F1800
G1 X200.902 Y-170.833 E26.13349
G1 X178.395 Y-170.833 E31.30581
G1 X178.395 Y-193.340 E36.47813
G1 X200.752 Y-193.340 E41.61597
G1 X201.823 Y-194.262 F7800.000
G1 F1800
G1 X201.823 Y-169.912 E47.21170
G1 X177.473 Y-169.912 E52.80743
G1 X177.473 Y-194.262 E58.40315
G1 X201.673 Y-194.262 E63.96441
G1 X201.564 Y-193.296 F7800.000
G1 E61.96441 F2400.00000
G92 E0
G1 X199.704 Y-190.280 F7800.000
G1 E2.00000 F2400.00000
G1 F1800
G1 X198.256 Y-191.728 E2.47105
G1 X196.952 Y-191.728 E2.77076
G1 X199.290 Y-189.391 E3.53087
G1 X199.290 Y-188.087 E3.83058
G1 X195.649 Y-191.728 E5.01453
G1 X194.345 Y-191.728 E5.31424
G1 X199.290 Y-186.784 E6.92206
G1 X199.290 Y-185.480 E7.22177
G1 X193.042 Y-191.728 E9.25343
G1 X191.738 Y-191.728 E9.55314
G1 X199.290 Y-184.177 E12.00866
G1 X199.290 Y-182.873 E12.30837
G1 X190.435 Y-191.728 E15.18775
G1 X189.131 Y-191.728 E15.48746
G1 X199.290 Y-181.569 E18.79069
G1 X199.290 Y-180.266 E19.09040
G1 X187.828 Y-191.728 E22.81748
G1 X186.524 Y-191.728 E23.11719
G1 X199.290 Y-178.962 E27.26812
G1 X199.290 Y-177.659 E27.56783
G1 X185.221 Y-191.728 E32.14262
G1 X183.917 Y-191.728 E32.44233
G1 X199.290 Y-176.355 E37.44098
G1 X199.290 Y-175.052 E37.74069
G1 X182.614 Y-191.728 E43.16318
G1 X181.310 Y-191.728 E43.46289
G1 X199.290 Y-173.748 E49.30924
G1 X199.290 Y-172.445 E49.60894
G1 X180.007 Y-191.728 E55.87911
G1 X180.007 Y-190.425 E56.17882
G1 X197.986 Y-172.445 E62.02514
G1 X196.683 Y-172.445 E62.32485
G1 X180.007 Y-189.121 E67.74731
G1 X180.007 Y-187.818 E68.04702
G1 X195.379 Y-172.445 E73.04563
G1 X194.076 Y-172.445 E73.34534
G1 X180.007 Y-186.514 E77.92009
G1 X180.007 Y-185.211 E78.21980
G1 X192.772 Y-172.445 E82.37070
G1 X191.469 Y-172.445 E82.67041
G1 X180.007 Y-183.907 E86.39746
G1 X180.007 Y-182.604 E86.69717
G1 X190.165 Y-172.445 E90.00036
G1 X188.862 Y-172.445 E90.30007
G1 X180.007 Y-181.300 E93.17941
G1 X180.007 Y-179.996 E93.47912
G1 X187.558 Y-172.445 E95.93461
G1 X186.255 Y-172.445 E96.23432
G1 X180.007 Y-178.693 E98.26595
G1 X180.007 Y-177.389 E98.56566
G1 X184.951 Y-172.445 E100.17344
G1 X183.648 Y-172.445 E100.47315
G1 X180.007 Y-176.086 E101.65707
G1 X180.007 Y-174.782 E101.95678
G1 X182.344 Y-172.445 E102.71685
G1 X181.041 Y-172.445 E103.01656
G1 X179.592 Y-173.893 E103.48757
G1 Z1.100 F7800.000
G1 X199.738 Y-192.176
G1 F3600
G1 X199.738 Y-171.997 E107.77756
G1 X179.559 Y-171.997 E112.06755
G1 X179.559 Y-192.176 E116.35753
G1 X199.588 Y-192.176 E120.61563
G1 X200.761 Y-193.199 F7800.000
G1 F3600
G1 X200.761 Y-170.974 E125.34046
G1 X178.536 Y-170.974 E130.06529
G1 X178.536 Y-193.199 E134.79011
G1 X200.611 Y-193.199 E139.48305
G1 X201.783 Y-194.222 F7800.000
G1 F1800
G1 X201.783 Y-169.952 E144.64272
G1 X177.513 Y-169.952 E149.80239
G1 X177.513 Y-194.222 E154.96205
G1 X201.633 Y-194.222 E160.08983
G1 X201.524 Y-193.256 F7800.000
G1 X181.948 Y-191.869
G1 F1200
G1 X180.326 Y-190.247 E160.58129
G1 X180.326 Y-188.790 E160.89328
G1 X182.945 Y-191.409 E161.68658
G1 X184.402 Y-191.409 E161.99857
G1 X180.326 Y-187.333 E163.23309
G1 X180.326 Y-185.876 E163.54508
G1 X185.859 Y-191.409 E165.22081
G1 X187.316 Y-191.409 E165.53280
G1 X180.326 Y-184.419 E167.64975
G1 X180.326 Y-182.962 E167.96174
G1 X188.773 Y-191.409 E170.51991
G1 X190.230 Y-191.409 E170.83190
G1 X180.326 Y-181.505 E173.83128
G1 X180.326 Y-180.048 E174.14327
G1 X191.686 Y-191.409 E177.58387
G1 X193.143 Y-191.409 E177.89586
G1 X180.326 Y-178.592 E181.77768
G1 X180.326 Y-177.135 E182.08966
G1 X194.600 Y-191.409 E186.41270
G1 X196.057 Y-191.409 E186.72469
G1 X180.326 Y-175.678 E191.48894
G1 X180.326 Y-174.221 E191.80093
G1 X197.514 Y-191.409 E197.00639
G1 X198.971 Y-191.409 E197.31838
G1 X180.326 Y-172.764 E202.96507
G1 X181.783 Y-172.764 E203.27704
G1 X198.971 Y-189.952 E208.48254
G1 X198.971 Y-188.495 E208.79453
G1 X183.239 Y-172.764 E213.55882
G1 X184.696 Y-172.764 E213.87081
G1 X198.971 Y-187.039 E218.19388
G1 X198.971 Y-185.582 E218.50586
G1 X186.153 Y-172.764 E222.38772
G1 X187.610 Y-172.764 E222.69971
G1 X198.971 Y-184.125 E226.14034
G1 X198.971 Y-182.668 E226.45233
G1 X189.067 Y-172.764 E229.45175
G1 X190.524 Y-172.764 E229.76374
G1 X198.971 Y-181.211 E232.32195
G1 X198.971 Y-179.754 E232.63393
G1 X191.981 Y-172.764 E234.75092
G1 X193.438 Y-172.764 E235.06291
G1 X198.971 Y-178.297 E236.73868
G1 X198.971 Y-176.840 E237.05067
G1 X194.894 Y-172.764 E238.28522
G1 X196.351 Y-172.764 E238.59721
G1 X198.971 Y-175.384 E239.39055
G1 X198.971 Y-173.927 E239.70254
G1 X197.348 Y-172.304 E240.19403
G1 Z1.600 F7800.000
G1 X199.738 Y-192.176
G1 F3600
G1 X199.738 Y-171.997 E244.48402
G1 X179.559 Y-171.997 E248.77401
G1 X179.559 Y-192.176 E253.06399
G1 X199.588 Y-192.176 E257.32209
G1 X200.761 Y-193.199 F7800.000
G1 F3600
G1 X200.761 Y-170.974 E262.04692
G1 X178.536 Y-170.974 E266.77175
G1 X178.536 Y-193.199 E271.49657
G1 X200.611 Y-193.199 E276.18951
G1 X201.783 Y-194.222 F7800.000
G1 F1800
G1 X201.783 Y-169.952 E281.34918
G1 X177.513 Y-169.952 E286.50885
G1 X177.513 Y-194.222 E291.66851
G1 X201.633 Y-194.222 E296.79629
G1 X201.524 Y-193.256 F7800.000
G1 X199.431 Y-189.786
G1 F1200
G1 X197.808 Y-191.409 E297.28779
G1 X196.351 Y-191.409 E297.59978
G1 X198.971 Y-188.790 E298.39312
G1 X198.971 Y-187.333 E298.70510
G1 X194.894 Y-191.409 E299.93966
G1 X193.438 Y-191.409 E300.25165
G1 X198.971 Y-185.876 E301.92742
G1 X198.971 Y-184.419 E302.23940
G1 X191.981 Y-191.409 E304.35639
G1 X190.524 Y-191.409 E304.66838
G1 X198.971 Y-182.962 E307.22659
G1 X198.971 Y-181.505 E307.53857
G1 X189.067 Y-191.409 E310.53799
G1 X187.610 Y-191.409 E310.84998
G1 X198.971 Y-180.048 E314.29062
G1 X198.971 Y-178.591 E314.60261
G1 X186.153 Y-191.409 E318.48446
G1 X184.696 Y-191.409 E318.79645
G1 X198.971 Y-177.135 E323.11952
G1 X198.971 Y-175.678 E323.43151
G1 X183.239 Y-191.409 E328.19579
G1 X181.783 Y-191.409 E328.50778
G1 X198.971 Y-174.221 E333.71329
G1 X198.971 Y-172.764 E334.02526
G1 X180.326 Y-191.409 E339.67195
G1 X180.326 Y-189.952 E339.98393
G1 X197.514 Y-172.764 E345.18940
G1 X196.057 Y-172.764 E345.50139
G1 X180.326 Y-188.495 E350.26564
G1 X180.326 Y-187.038 E350.57763
G1 X194.600 Y-172.764 E354.90066
G1 X193.143 Y-172.764 E355.21265
G1 X180.326 Y-185.582 E359.09447
G1 X180.326 Y-184.125 E359.40646
G1 X191.686 Y-172.764 E362.84706
G1 X190.230 Y-172.764 E363.15904
G1 X180.326 Y-182.668 E366.15843
G1 X180.326 Y-181.211 E366.47042
G1 X188.773 Y-172.764 E369.02859
G1 X187.316 Y-172.764 E369.34057
G1 X180.326 Y-179.754 E371.45753
G1 X180.326 Y-178.297 E371.76951
G1 X185.859 Y-172.764 E373.44525
G1 X184.402 Y-172.764 E373.75724
G1 X180.326 Y-176.840 E374.99176
G1 X180.326 Y-175.383 E375.30374
G1 X182.945 Y-172.764 E376.09705
G1 X181.488 Y-172.764 E376.40903
G1 X179.865 Y-174.387 E376.90049
M106 S247.35
G1 Z2.100 F7800.000
G1 X199.738 Y-192.176
G1 F3600
G1 X199.738 Y-171.997 E381.19048
G1 X179.559 Y-171.997 E385.48047
G1 X179.559 Y-192.176 E389.77046
G1 X199.588 Y-192.176 E394.02855
G1 X200.761 Y-193.199 F7800.000
G1 F3600
G1 X200.761 Y-170.974 E398.75338
G1 X178.536 Y-170.974 E403.47821
G1 X178.536 Y-193.199 E408.20303
G1 X200.611 Y-193.199 E412.89597
G1 X201.783 Y-194.222 F7800.000
G1 F1800
G1 X201.783 Y-169.952 E418.05564
G1 X177.513 Y-169.952 E423.21531
G1 X177.513 Y-194.222 E428.37497
G1 X201.633 Y-194.222 E433.50275
G1 X201.524 Y-193.256 F7800.000
G1 X196.523 Y-191.869
G1 F4800
G1 X179.865 Y-187.406 E437.16890
G1 X179.865 Y-191.869 F7800.000
G1 F4800
G1 X199.431 Y-172.304 E443.05138
G1 X199.431 Y-176.767 F7800.000
G1 F4800
G1 X182.774 Y-172.304 E446.71752
G1 X187.027 Y-172.304 F7800.000
G1 F4800
G1 X192.270 Y-191.869 E451.02380
G1 Z2.600 F7800.000
G1 X199.738 Y-192.176
G1 F3600
G1 X199.738 Y-171.997 E455.31378
G1 X179.559 Y-171.997 E459.60377
G1 X179.559 Y-192.176 E463.89376
G1 X199.588 Y-192.176 E468.15185
G1 X200.761 Y-193.199 F7800.000
G1 F3600
G1 X200.761 Y-170.974 E472.87668
G1 X178.536 Y-170.974 E477.60151
G1 X178.536 Y-193.199 E482.32634
G1 X200.611 Y-193.199 E487.01927
G1 X201.783 Y-194.222 F7800.000
G1 F1800
G1 X201.783 Y-169.952 E492.17894
G1 X177.513 Y-169.952 E497.33861
G1 X177.513 Y-194.222 E502.49828
G1 X201.633 Y-194.222 E507.62605
G1 X201.524 Y-193.256 F7800.000
G1 X196.523 Y-191.869
G1 F4800
G1 X179.865 Y-187.406 E511.29220
G1 X179.865 Y-191.869 F7800.000
G1 F4800
G1 X199.431 Y-172.304 E517.17468
G1 X199.431 Y-176.767 F7800.000
G1 F4800
G1 X182.774 Y-172.304 E520.84082
G1 X187.027 Y-172.304 F7800.000
G1 F4800
G1 X192.270 Y-191.869 E525.14710
G1 Z3.100 F7800.000
G1 X199.738 Y-192.176
G1 F3600
G1 X199.738 Y-171.997 E529.43708
G1 X179.559 Y-171.997 E533.72707
G1 X179.559 Y-192.176 E538.01706
G1 X199.588 Y-192.176 E542.27515
G1 X200.761 Y-193.199 F7800.000
G1 F3600
G1 X200.761 Y-170.974 E546.99998
G1 X178.536 Y-170.974 E551.72481
G1 X178.536 Y-193.199 E556.44964
G1 X200.611 Y-193.199 E561.14257
G1 X201.783 Y-194.222 F7800.000
G1 F1800
G1 X201.783 Y-169.952 E566.30224
G1 X177.513 Y-169.952 E571.46191
G1 X177.513 Y-194.222 E576.62158
G1 X201.633 Y-194.222 E581.74935
G1 X201.524 Y-193.256 F7800.000
G1 X196.523 Y-191.869
G1 F4800
G1 X179.865 Y-187.406 E585.41550
G1 X179.865 Y-191.869 F7800.000
G1 F4800
G1 X199.431 Y-172.304 E591.29798
G1 X199.431 Y-176.767 F7800.000
G1 F4800
G1 X182.774 Y-172.304 E594.96413
G1 X187.027 Y-172.304 F7800.000
G1 F4800
G1 X192.270 Y-191.869 E599.27040
G1 Z3.600 F7800.000
G1 X199.738 Y-192.176
G1 F3600
G1 X199.738 Y-171.997 E603.56038
G1 X179.559 Y-171.997 E607.85037
G1 X179.559 Y-192.176 E612.14036
G1 X199.588 Y-192.176 E616.39846
G1 X200.761 Y-193.199 F7800.000
G1 F3600
G1 X200.761 Y-170.974 E621.12328
G1 X178.536 Y-170.974 E625.84811
G1 X178.536 Y-193.199 E630.57294
G1 X200.611 Y-193.199 E635.26587
G1 X201.783 Y-194.222 F7800.000
G1 F1800
G1 X201.783 Y-169.952 E640.42554
G1 X177.513 Y-169.952 E645.58521
G1 X177.513 Y-194.222 E650.74488
G1 X201.633 Y-194.222 E655.87266
G1 X201.524 Y-193.256 F7800.000
G1 X196.523 Y-191.869
G1 F4800
G1 X179.865 Y-187.406 E659.53880
G1 X179.865 Y-191.869 F7800.000
G1 F4800
G1 X199.431 Y-172.304 E665.42128
G1 X199.431 Y-176.767 F7800.000
G1 F4800
G1 X182.774 Y-172.304 E669.08743
G1 X187.027 Y-172.304 F7800.000
G1 F4800
G1 X192.270 Y-191.869 E673.39370
G1 Z4.100 F7800.000
G1 X199.738 Y-192.176
G1 F3600
G1 X199.738 Y-171.997 E677.68369
G1 X179.559 Y-171.997 E681.97367
G1 X179.559 Y-192.176 E686.26366
G1 X199.588 Y-192.176 E690.52176
G1 X200.761 Y-193.199 F7800.000
G1 F3600
G1 X200.761 Y-170.974 E695.24658
G1 X178.536 Y-170.974 E699.97141
G1 X178.536 Y-193.199 E704.69624
G1 X200.611 Y-193.199 E709.38918
G1 X201.783 Y-194.222 F7800.000
G1 F1800
G1 X201.783 Y-169.952 E714.54884
G1 X177.513 Y-169.952 E719.70851
G1 X177.513 Y-194.222 E724.86818
G1 X201.633 Y-194.222 E729.99596
G1 X201.524 Y-193.256 F7800.000
G1 X196.523 Y-191.869
G1 F4800
G1 X179.865 Y-187.406 E733.66210
G1 X179.865 Y-191.869 F7800.000
G1 F4800
G1 X199.431 Y-172.304 E739.54458
G1 X199.431 Y-176.767 F7800.000
G1 F4800
G1 X182.774 Y-172.304 E743.21073
G1 X187.027 Y-172.304 F7800.000
G1 F4800
G1 X192.270 Y-191.869 E747.51700
G1 Z4.600 F7800.000
G1 X199.738 Y-192.176
G1 F3600
G1 X199.738 Y-171.997 E751.80699
G1 X179.559 Y-171.997 E756.09697
G1 X179.559 Y-192.176 E760.38696
G1 X199.588 Y-192.176 E764.64506
G1 X200.761 Y-193.199 F7800.000
G1 F3600
G1 X200.761 Y-170.974 E769.36988
G1 X178.536 Y-170.974 E774.09471
G1 X178.536 Y-193.199 E778.81954
G1 X200.611 Y-193.199 E783.51248
G1 X201.783 Y-194.222 F7800.000
G1 F1800
G1 X201.783 Y-169.952 E788.67214
G1 X177.513 Y-169.952 E793.83181
G1 X177.513 Y-194.222 E798.99148
G1 X201.633 Y-194.222 E804.11926
G1 X201.524 Y-193.256 F7800.000
G1 X196.523 Y-191.869
G1 F4800
G1 X179.865 Y-187.406 E807.78540
G1 X179.865 Y-191.869 F7800.000
G1 F4800
G1 X199.431 Y-172.304 E813.66788
G1 X199.431 Y-176.767 F7800.000
G1 F4800
G1 X182.774 Y-172.304 E817.33403
G1 X187.027 Y-172.304 F7800.000
G1 F4800
G1 X192.270 Y-191.869 E821.64030
G1 Z5.100 F7800.000
G1 X199.738 Y-192.176
G1 F3600
G1 X199.738 Y-171.997 E825.93029
G1 X179.559 Y-171.997 E830.22027
G1 X179.559 Y-192.176 E834.51026
G1 X199.588 Y-192.176 E838.76836
G1 X200.761 Y-193.199 F7800.000
G1 F3600
G1 X200.761 Y-170.974 E843.49319
G1 X178.536 Y-170.974 E848.21801
G1 X178.536 Y-193.199 E852.94284
G1 X200.611 Y-193.199 E857.63578
G1 X201.783 Y-194.222 F7800.000
G1 F1800
G1 X201.783 Y-169.952 E862.79545
G1 X177.513 Y-169.952 E867.95511
G1 X177.513 Y-194.222 E873.11478
G1 X201.633 Y-194.222 E878.24256
G1 X201.524 Y-193.256 F7800.000
G1 X196.523 Y-191.869
G1 F4800
G1 X179.865 Y-187.406 E881.90870
G1 X179.865 Y-191.869 F7800.000
G1 F4800
G1 X199.431 Y-172.304 E887.79118
G1 X199.431 Y-176.767 F7800.000
G1 F4800
G1 X182.774 Y-172.304 E891.45733
G1 X187.027 Y-172.304 F7800.000
G1 F4800
G1 X192.270 Y-191.869 E895.76360
G1 Z5.600 F7800.000
G1 X199.738 Y-192.176
G1 F3600
G1 X199.738 Y-171.997 E900.05359
G1 X179.559 Y-171.997 E904.34357
G1 X179.559 Y-192.176 E908.63356
G1 X199.588 Y-192.176 E912.89166
G1 X200.761 Y-193.199 F7800.000
G1 F3600
G1 X200.761 Y-170.974 E917.61649
G1 X178.536 Y-170.974 E922.34131
G1 X178.536 Y-193.199 E927.06614
G1 X200.611 Y-193.199 E931.75908
G1 X201.783 Y-194.222 F7800.000
G1 F1800
G1 X201.783 Y-169.952 E936.91875
G1 X177.513 Y-169.952 E942.07841
G1 X177.513 Y-194.222 E947.23808
G1 X201.633 Y-194.222 E952.36586
G1 X201.524 Y-193.256 F7800.000
G1 X196.523 Y-191.869
G1 F4800
G1 X179.865 Y-187.406 E956.03201
G1 X179.865 Y-191.869 F7800.000
G1 F4800
G1 X199.431 Y-172.304 E961.91448
G1 X199.431 Y-176.767 F7800.000
G1 F4800
G1 X182.774 Y-172.304 E965.58063
G1 X187.027 Y-172.304 F7800.000
G1 F4800
G1 X192.270 Y-191.869 E969.88690
