; generated by PrusaSlicer 2.1.0+win64 on 2021-10-04 at 22:46:54 UTC

; 

; external perimeters extrusion width = 0.60mm
; perimeters extrusion width = 0.50mm
; infill extrusion width = 0.50mm
; solid infill extrusion width = 0.50mm
; top infill extrusion width = 0.45mm
; first layer extrusion width = 0.42mm

M73 P0 R33
M73 Q0 S33
M201 X1000 Y1000 Z1000 E5000 ; sets maximum accelerations, mm/sec^2
M203 X200 Y200 Z12 E120 ; sets maximum feedrates, mm/sec
M204 P1250 R1250 T1250 ; sets acceleration (P, T) and retract acceleration (R), mm/sec^2
M205 X8.00 Y8.00 Z0.40 E1.50 ; sets the jerk limits, mm/sec
M205 S0 T0 ; sets the minimum extruding and travel feed rate, mm/sec
M107
M862.3 P "MK3S" ; printer model check
M862.1 P0.4 ; nozzle diameter check
M115 U3.8.1 ; tell printer latest fw version
G90 ; use absolute coordinates
M83 ; extruder relative mode
M104 S240 ; set extruder temp
M140 S85 ; set bed temp
M190 S85 ; wait for bed temp
M109 S240 ; wait for extruder temp
G28 W ; home all without mesh bed level
G80 ; mesh bed leveling
G1 Y-3.0 F1000.0 ; go outside print area
G92 E0.0
G1 X60.0 E9.0 F1000.0 ; intro line
M73 Q0 S33
M73 P0 R33
G1 X100.0 E12.5 F1000.0 ; intro line
G92 E0.0
M221 S95
G21 ; set units to millimeters
G90 ; use absolute coordinates
M83 ; use relative distances for extrusion
M900 K45 ; Filament gcode
;BEFORE_LAYER_CHANGE
G92 E0.0
;0.2


G1 E-1.40000 F2100.00000
G1 Z0.200 F10800.000
;AFTER_LAYER_CHANGE
;0.2
G1 Z0.400
G1 X109.918 Y91.346
G1 Z0.200
G1 E1.40000 F2100.00000
M204 S1000
G1 F1200
G1 X110.401 Y90.575 E0.02851
G1 X110.785 Y90.229 E0.01623
G1 X111.228 Y89.969 E0.01610
G1 X111.714 Y89.802 E0.01610
G1 X112.223 Y89.736 E0.01610
G1 X137.704 Y89.734 E0.79893
G1 X138.647 Y89.915 E0.03010
G1 X139.457 Y90.430 E0.03010
G1 X140.021 Y91.207 E0.03010
G1 X140.260 Y92.136 E0.03010
G1 X140.265 Y117.763 E0.80352
G1 X140.082 Y118.654 E0.02851
G1 X139.599 Y119.425 E0.02851
G1 X139.205 Y119.778 E0.01660
G1 X138.743 Y120.044 E0.01672
G1 X138.240 Y120.208 E0.01660
G1 X137.714 Y120.266 E0.01660
G1 X112.237 Y120.265 E0.79881
G1 X111.346 Y120.082 E0.02851
G1 X110.575 Y119.599 E0.02851
G1 X110.222 Y119.205 E0.01660
G1 X109.956 Y118.743 E0.01672
G1 X109.792 Y118.240 E0.01660
G1 X109.734 Y117.714 E0.01660
G1 X109.735 Y92.237 E0.79881
G1 X109.906 Y91.405 E0.02663
G1 F8640
G1 X110.401 Y90.575 E-0.22299
G1 X110.785 Y90.229 E-0.11949
G1 X111.228 Y89.969 E-0.11859
G1 X111.714 Y89.802 E-0.11859
G1 X112.223 Y89.736 E-0.11859
G1 X114.959 Y89.735 E-0.63176
G1 E-0.07000 F2100.00000
G1 Z0.400 F10800.000
G1 X111.397 Y90.306
G1 Z0.200
G1 E1.40000 F2100.00000
G1 F1200
G1 X112.243 Y90.112 E0.02721
G1 X137.704 Y90.111 E0.79830
G1 X138.513 Y90.268 E0.02586
G1 X139.207 Y90.713 E0.02586
G1 X139.688 Y91.384 E0.02586
G1 X139.885 Y92.181 E0.02574
G1 X139.888 Y117.748 E0.80162
G1 X139.729 Y118.520 E0.02473
G1 X139.309 Y119.183 E0.02462
G1 X138.583 Y119.703 E0.02799
G1 X137.710 Y119.889 E0.02799
G1 X112.252 Y119.888 E0.79819
G1 X111.480 Y119.729 E0.02473
G1 X110.817 Y119.309 E0.02462
G1 X110.297 Y118.583 E0.02799
G1 X110.111 Y117.710 E0.02799
G1 X110.112 Y92.252 E0.79819
G1 X110.271 Y91.480 E0.02473
G1 X110.691 Y90.817 E0.02462
G1 X111.349 Y90.341 E0.02544
G1 F8640
G1 X112.243 Y90.112 E-0.21319
G1 X117.080 Y90.112 E-1.11681
G1 E-0.07000 F2100.00000
G1 Z0.400 F10800.000
G1 X112.887 Y92.887
G1 Z0.200
G1 E1.40000 F2100.00000
G1 F1200
G1 X137.113 Y92.887 E0.75958
G1 X137.113 Y117.113 E0.75958
G1 X112.887 Y117.113 E0.75958
G1 X112.887 Y92.947 E0.75770
G1 X112.510 Y92.510 F10800.000
G1 F1200
G1 X137.490 Y92.510 E0.78323
G1 X137.490 Y117.490 E0.78323
G1 X112.510 Y117.490 E0.78323
G1 X112.510 Y92.570 E0.78135
G1 X112.896 Y92.614 F10800.000
G1 F8640
G1 X118.270 Y92.556 E-1.33000
G1 E-0.07000 F2100.00000
G1 Z0.400 F10800.000
G1 X113.764 Y117.000
G1 Z0.200
G1 E1.40000 F2100.00000
G1 F1200
G1 X113.170 Y116.406 E0.02638
G1 X113.170 Y115.872 E0.01678
G1 X114.128 Y116.830 E0.04256
G1 X114.662 Y116.830 E0.01678
G1 X113.170 Y115.338 E0.06629
G1 X113.170 Y114.803 E0.01678
G1 X115.197 Y116.830 E0.09001
G1 X115.731 Y116.830 E0.01678
G1 X113.170 Y114.269 E0.11374
G1 X113.170 Y113.735 E0.01678
G1 X116.265 Y116.830 E0.13747
G1 X116.799 Y116.830 E0.01678
G1 X113.170 Y113.201 E0.16119
G1 X113.170 Y112.667 E0.01678
G1 X117.333 Y116.830 E0.18492
G1 X117.867 Y116.830 E0.01678
G1 X113.170 Y112.133 E0.20864
G1 X113.170 Y111.599 E0.01678
G1 X118.401 Y116.830 E0.23237
G1 X118.936 Y116.830 E0.01678
G1 X113.170 Y111.064 E0.25609
G1 X113.170 Y110.530 E0.01678
G1 X119.470 Y116.830 E0.27982
G1 X120.004 Y116.830 E0.01678
G1 X113.170 Y109.996 E0.30354
G1 X113.170 Y109.462 E0.01678
G1 X120.538 Y116.830 E0.32727
G1 X121.072 Y116.830 E0.01678
G1 X113.170 Y108.928 E0.35099
G1 X113.170 Y108.394 E0.01678
G1 X121.606 Y116.830 E0.37472
G1 X122.141 Y116.830 E0.01678
G1 X113.170 Y107.859 E0.39844
G1 X113.170 Y107.325 E0.01678
G1 X122.675 Y116.830 E0.42217
G1 X123.209 Y116.830 E0.01678
G1 X113.170 Y106.791 E0.44589
G1 X113.170 Y106.257 E0.01678
G1 X123.743 Y116.830 E0.46962
G1 X124.277 Y116.830 E0.01678
G1 X113.170 Y105.723 E0.49334
G1 X113.170 Y105.189 E0.01678
G1 X124.811 Y116.830 E0.51707
G1 X125.346 Y116.830 E0.01678
G1 X113.170 Y104.654 E0.54079
G1 X113.170 Y104.120 E0.01678
G1 X125.880 Y116.830 E0.56452
G1 X126.414 Y116.830 E0.01678
G1 X113.170 Y103.586 E0.58825
G1 X113.170 Y103.052 E0.01678
G1 X126.948 Y116.830 E0.61197
G1 X127.482 Y116.830 E0.01678
G1 X113.170 Y102.518 E0.63570
G1 X113.170 Y101.984 E0.01678
G1 X128.016 Y116.830 E0.65942
G1 X128.551 Y116.830 E0.01678
G1 X113.170 Y101.449 E0.68315
G1 X113.170 Y100.915 E0.01678
G1 X129.085 Y116.830 E0.70687
G1 X129.619 Y116.830 E0.01678
G1 X113.170 Y100.381 E0.73060
G1 X113.170 Y99.847 E0.01678
G1 X130.153 Y116.830 E0.75432
G1 X130.687 Y116.830 E0.01678
G1 X113.170 Y99.313 E0.77805
G1 X113.170 Y98.779 E0.01678
G1 X131.221 Y116.830 E0.80177
G1 X131.756 Y116.830 E0.01678
G1 X113.170 Y98.244 E0.82550
G1 X113.170 Y97.710 E0.01678
G1 X132.290 Y116.830 E0.84922
G1 X132.824 Y116.830 E0.01678
G1 X113.170 Y97.176 E0.87295
G1 X113.170 Y96.642 E0.01678
G1 X133.358 Y116.830 E0.89667
G1 X133.892 Y116.830 E0.01678
G1 X113.170 Y96.108 E0.92040
G1 X113.170 Y95.574 E0.01678
G1 X134.426 Y116.830 E0.94412
G1 X134.961 Y116.830 E0.01678
G1 X113.170 Y95.039 E0.96785
M73 Q3 S32
M73 P3 R32
G1 X113.170 Y94.505 E0.01678
G1 X135.495 Y116.830 E0.99157
G1 X136.029 Y116.830 E0.01678
G1 X113.170 Y93.971 E1.01530
G1 X113.170 Y93.437 E0.01678
G1 X136.563 Y116.830 E1.03903
G1 X136.830 Y116.830 E0.00839
G1 X136.830 Y116.563 E0.00839
G1 X113.437 Y93.170 E1.03903
G1 X113.971 Y93.170 E0.01678
G1 X136.830 Y116.029 E1.01530
G1 X136.830 Y115.495 E0.01678
G1 X114.505 Y93.170 E0.99158
G1 X115.039 Y93.170 E0.01678
G1 X136.830 Y114.961 E0.96785
G1 X136.830 Y114.426 E0.01678
G1 X115.574 Y93.170 E0.94413
G1 X116.108 Y93.170 E0.01678
G1 X136.830 Y113.892 E0.92040
G1 X136.830 Y113.358 E0.01678
G1 X116.642 Y93.170 E0.89668
G1 X117.176 Y93.170 E0.01678
G1 X136.830 Y112.824 E0.87295
G1 X136.830 Y112.290 E0.01678
G1 X117.710 Y93.170 E0.84923
G1 X118.244 Y93.170 E0.01678
G1 X136.830 Y111.756 E0.82550
G1 X136.830 Y111.221 E0.01678
G1 X118.779 Y93.170 E0.80178
G1 X119.313 Y93.170 E0.01678
G1 X136.830 Y110.687 E0.77805
G1 X136.830 Y110.153 E0.01678
G1 X119.847 Y93.170 E0.75433
G1 X120.381 Y93.170 E0.01678
G1 X136.830 Y109.619 E0.73060
G1 X136.830 Y109.085 E0.01678
G1 X120.915 Y93.170 E0.70688
G1 X121.449 Y93.170 E0.01678
G1 X136.830 Y108.551 E0.68315
G1 X136.830 Y108.016 E0.01678
G1 X121.984 Y93.170 E0.65942
G1 X122.518 Y93.170 E0.01678
G1 X136.830 Y107.482 E0.63570
G1 X136.830 Y106.948 E0.01678
G1 X123.052 Y93.170 E0.61197
G1 X123.586 Y93.170 E0.01678
G1 X136.830 Y106.414 E0.58825
G1 X136.830 Y105.880 E0.01678
G1 X124.120 Y93.170 E0.56452
G1 X124.654 Y93.170 E0.01678
G1 X136.830 Y105.346 E0.54080
G1 X136.830 Y104.812 E0.01678
G1 X125.188 Y93.170 E0.51707
G1 X125.723 Y93.170 E0.01678
G1 X136.830 Y104.277 E0.49335
G1 X136.830 Y103.743 E0.01678
G1 X126.257 Y93.170 E0.46962
G1 X126.791 Y93.170 E0.01678
G1 X136.830 Y103.209 E0.44590
G1 X136.830 Y102.675 E0.01678
G1 X127.325 Y93.170 E0.42217
G1 X127.859 Y93.170 E0.01678
G1 X136.830 Y102.141 E0.39845
G1 X136.830 Y101.607 E0.01678
G1 X128.393 Y93.170 E0.37472
G1 X128.928 Y93.170 E0.01678
G1 X136.830 Y101.072 E0.35100
G1 X136.830 Y100.538 E0.01678
G1 X129.462 Y93.170 E0.32727
G1 X129.996 Y93.170 E0.01678
G1 X136.830 Y100.004 E0.30355
G1 X136.830 Y99.470 E0.01678
G1 X130.530 Y93.170 E0.27982
G1 X131.064 Y93.170 E0.01678
G1 X136.830 Y98.936 E0.25610
G1 X136.830 Y98.402 E0.01678
G1 X131.598 Y93.170 E0.23237
G1 X132.133 Y93.170 E0.01678
G1 X136.830 Y97.867 E0.20864
G1 X136.830 Y97.333 E0.01678
G1 X132.667 Y93.170 E0.18492
G1 X133.201 Y93.170 E0.01678
G1 X136.830 Y96.799 E0.16119
G1 X136.830 Y96.265 E0.01678
G1 X133.735 Y93.170 E0.13747
G1 X134.269 Y93.170 E0.01678
G1 X136.830 Y95.731 E0.11374
G1 X136.830 Y95.197 E0.01678
G1 X134.803 Y93.170 E0.09002
G1 X135.338 Y93.170 E0.01678
G1 X136.830 Y94.662 E0.06629
G1 X136.830 Y94.128 E0.01678
G1 X135.872 Y93.170 E0.04257
G1 X136.406 Y93.170 E0.01678
G1 X137.000 Y93.764 E0.02638
;BEFORE_LAYER_CHANGE
G92 E0.0
;0.5


G1 F8640
G1 X136.406 Y93.170 E-0.19394
G1 X135.872 Y93.170 E-0.12334
G1 X136.830 Y94.128 E-0.31296
G1 X136.830 Y94.662 E-0.12334
G1 X135.338 Y93.170 E-0.48739
G1 X134.952 Y93.170 E-0.08903
G1 E-0.07000 F2100.00000
G1 Z0.400 F10800.000
G1 Z0.500
;AFTER_LAYER_CHANGE
;0.5
M104 S250 ; set temperature
M140 S90 ; set bed temperature
G1 Z0.700
G1 X138.647 Y89.915
G1 Z0.500
G1 E1.40000 F2100.00000
G1 F2700
G1 X139.457 Y90.430 E0.04257
G1 X140.021 Y91.207 E0.04257
G1 X140.260 Y92.136 E0.04257
G1 X140.265 Y117.763 E1.13669
G1 X140.082 Y118.654 E0.04033
G1 X139.599 Y119.425 E0.04033
G1 X139.205 Y119.778 E0.02348
G1 X138.743 Y120.044 E0.02365
G1 X138.240 Y120.208 E0.02348
G1 X137.714 Y120.266 E0.02348
G1 X112.237 Y120.265 E1.13002
G1 X111.346 Y120.082 E0.04033
G1 X110.575 Y119.599 E0.04033
G1 X110.222 Y119.205 E0.02348
G1 X109.956 Y118.743 E0.02365
G1 X109.792 Y118.240 E0.02348
G1 X109.734 Y117.714 E0.02348
G1 X109.735 Y92.237 E1.13002
G1 X109.918 Y91.346 E0.04033
G1 X110.401 Y90.575 E0.04033
G1 X110.785 Y90.229 E0.02295
G1 X111.228 Y89.969 E0.02278
G1 X111.714 Y89.802 E0.02278
G1 X112.223 Y89.736 E0.02278
G1 X137.704 Y89.734 E1.13020
G1 X138.588 Y89.904 E0.03991
G1 F8640
G1 X139.457 Y90.430 E-0.23458
G1 X140.021 Y91.207 E-0.22164
G1 X140.260 Y92.136 E-0.22164
G1 X140.261 Y94.961 E-0.65215
G1 E-0.07000 F2100.00000
G1 Z0.700 F10800.000
G1 X136.914 Y93.086
G1 Z0.500
G1 E1.40000 F2100.00000
M204 S800
G1 F3000
G1 X136.914 Y116.914 E1.29468
G1 X113.086 Y116.914 E1.29468
G1 X113.086 Y93.086 E1.29468
G1 X136.854 Y93.086 E1.29142
M204 S1000
G1 X137.400 Y92.600 F10800.000
M204 S800
G1 F2100
G1 X137.400 Y117.400 E1.65677
G1 X112.600 Y117.400 E1.65677
G1 X112.600 Y92.600 E1.65677
G1 X137.340 Y92.600 E1.65277
M204 S1000
G1 X137.296 Y92.986 F10800.000
G1 F8640
G1 X137.354 Y98.360 E-1.33000
G1 E-0.07000 F2100.00000
G1 Z0.700 F10800.000
G1 X113.216 Y94.105
G1 Z0.500
G1 E1.40000 F2100.00000
M204 S1250
G1 F3641.71
G1 X113.909 Y93.412 E0.05366
G1 X114.530 Y93.412 E0.03405
G1 X113.412 Y94.530 E0.08662
G1 X113.412 Y95.151 E0.03405
G1 X115.151 Y93.412 E0.13477
G1 X115.773 Y93.412 E0.03405
G1 X113.412 Y95.773 E0.18293
G1 X113.412 Y96.394 E0.03405
G1 X116.394 Y93.412 E0.23108
G1 X117.015 Y93.412 E0.03405
G1 X113.412 Y97.015 E0.27923
G1 X113.412 Y97.637 E0.03405
G1 X117.637 Y93.412 E0.32738
G1 X118.258 Y93.412 E0.03405
G1 X113.412 Y98.258 E0.37553
G1 X113.412 Y98.879 E0.03405
G1 X118.879 Y93.412 E0.42369
G1 X119.501 Y93.412 E0.03405
G1 X113.412 Y99.501 E0.47184
G1 X113.412 Y100.122 E0.03405
G1 X120.122 Y93.412 E0.51999
G1 X120.743 Y93.412 E0.03405
G1 X113.412 Y100.743 E0.56814
G1 X113.412 Y101.365 E0.03405
G1 X121.365 Y93.412 E0.61629
G1 X121.986 Y93.412 E0.03405
G1 X113.412 Y101.986 E0.66445
G1 X113.412 Y102.607 E0.03405
G1 X122.607 Y93.412 E0.71260
G1 X123.229 Y93.412 E0.03405
G1 X113.412 Y103.229 E0.76075
G1 X113.412 Y103.850 E0.03405
G1 X123.850 Y93.412 E0.80890
G1 X124.472 Y93.412 E0.03405
G1 X113.412 Y104.472 E0.85705
G1 X113.412 Y105.093 E0.03405
G1 X125.093 Y93.412 E0.90521
G1 X125.714 Y93.412 E0.03405
G1 X113.412 Y105.714 E0.95336
G1 X113.412 Y106.336 E0.03405
G1 X126.336 Y93.412 E1.00151
G1 X126.957 Y93.412 E0.03405
G1 X113.412 Y106.957 E1.04966
G1 X113.412 Y107.578 E0.03405
G1 X127.578 Y93.412 E1.09781
G1 X128.200 Y93.412 E0.03405
G1 X113.412 Y108.200 E1.14597
G1 X113.412 Y108.821 E0.03405
G1 X128.821 Y93.412 E1.19412
G1 X129.442 Y93.412 E0.03405
G1 X113.412 Y109.442 E1.24227
G1 X113.412 Y110.064 E0.03405
G1 X130.064 Y93.412 E1.29042
M73 Q6 S31
M73 P6 R31
G1 X130.685 Y93.412 E0.03405
G1 X113.412 Y110.685 E1.33857
G1 X113.412 Y111.306 E0.03405
G1 X131.306 Y93.412 E1.38673
G1 X131.928 Y93.412 E0.03405
G1 X113.412 Y111.928 E1.43488
G1 X113.412 Y112.549 E0.03405
G1 X132.549 Y93.412 E1.48303
G1 X133.170 Y93.412 E0.03405
G1 X113.412 Y113.170 E1.53118
G1 X113.412 Y113.792 E0.03405
G1 X133.792 Y93.412 E1.57933
G1 X134.413 Y93.412 E0.03405
G1 X113.412 Y114.413 E1.62749
G1 X113.412 Y115.034 E0.03405
G1 X135.034 Y93.412 E1.67564
G1 X135.656 Y93.412 E0.03405
G1 X113.412 Y115.656 E1.72379
G1 X113.412 Y116.277 E0.03405
G1 X136.277 Y93.412 E1.77194
G1 X136.588 Y93.412 E0.01703
G1 X136.588 Y93.723 E0.01702
G1 X113.723 Y116.588 E1.77195
G1 X114.344 Y116.588 E0.03405
G1 X136.588 Y94.344 E1.72379
G1 X136.588 Y94.966 E0.03405
G1 X114.966 Y116.588 E1.67564
G1 X115.587 Y116.588 E0.03405
G1 X136.588 Y95.587 E1.62749
G1 X136.588 Y96.208 E0.03405
G1 X116.208 Y116.588 E1.57934
G1 X116.830 Y116.588 E0.03405
G1 X136.588 Y96.830 E1.53119
G1 X136.588 Y97.451 E0.03405
G1 X117.451 Y116.588 E1.48303
G1 X118.072 Y116.588 E0.03405
G1 X136.588 Y98.072 E1.43488
G1 X136.588 Y98.694 E0.03405
G1 X118.694 Y116.588 E1.38673
G1 X119.315 Y116.588 E0.03405
G1 X136.588 Y99.315 E1.33858
G1 X136.588 Y99.936 E0.03405
G1 X119.936 Y116.588 E1.29043
G1 X120.558 Y116.588 E0.03405
G1 X136.588 Y100.558 E1.24227
G1 X136.588 Y101.179 E0.03405
G1 X121.179 Y116.588 E1.19412
G1 X121.800 Y116.588 E0.03405
G1 X136.588 Y101.800 E1.14597
G1 X136.588 Y102.422 E0.03405
G1 X122.422 Y116.588 E1.09782
G1 X123.043 Y116.588 E0.03405
G1 X136.588 Y103.043 E1.04967
G1 X136.588 Y103.664 E0.03405
G1 X123.664 Y116.588 E1.00151
G1 X124.286 Y116.588 E0.03405
G1 X136.588 Y104.286 E0.95336
G1 X136.588 Y104.907 E0.03405
G1 X124.907 Y116.588 E0.90521
G1 X125.528 Y116.588 E0.03405
G1 X136.588 Y105.528 E0.85706
G1 X136.588 Y106.150 E0.03405
G1 X126.150 Y116.588 E0.80891
G1 X126.771 Y116.588 E0.03405
G1 X136.588 Y106.771 E0.76075
G1 X136.588 Y107.392 E0.03405
G1 X127.392 Y116.588 E0.71260
G1 X128.014 Y116.588 E0.03405
G1 X136.588 Y108.014 E0.66445
G1 X136.588 Y108.635 E0.03405
G1 X128.635 Y116.588 E0.61630
G1 X129.256 Y116.588 E0.03405
G1 X136.588 Y109.256 E0.56815
G1 X136.588 Y109.878 E0.03405
G1 X129.878 Y116.588 E0.51999
G1 X130.499 Y116.588 E0.03405
G1 X136.588 Y110.499 E0.47184
G1 X136.588 Y111.120 E0.03405
G1 X131.120 Y116.588 E0.42369
G1 X131.742 Y116.588 E0.03405
G1 X136.588 Y111.742 E0.37554
G1 X136.588 Y112.363 E0.03405
G1 X132.363 Y116.588 E0.32739
G1 X132.985 Y116.588 E0.03405
G1 X136.588 Y112.985 E0.27923
G1 X136.588 Y113.606 E0.03405
G1 X133.606 Y116.588 E0.23108
G1 X134.227 Y116.588 E0.03405
G1 X136.588 Y114.227 E0.18293
G1 X136.588 Y114.849 E0.03405
G1 X134.849 Y116.588 E0.13478
G1 X135.470 Y116.588 E0.03405
G1 X136.588 Y115.470 E0.08663
G1 X136.588 Y116.091 E0.03405
G1 X135.895 Y116.784 E0.05367
M204 S1000
;BEFORE_LAYER_CHANGE
G92 E0.0
;0.8


G1 F8640
G1 X136.588 Y116.091 E-0.22613
G1 X136.588 Y115.470 E-0.14347
G1 X135.470 Y116.588 E-0.36501
G1 X134.849 Y116.588 E-0.14347
G1 X136.232 Y115.204 E-0.45192
G1 E-0.07000 F2100.00000
G1 Z0.700 F10800.000
G1 Z0.800
;AFTER_LAYER_CHANGE
;0.8
G1 Z1.000
G1 X140.082 Y118.654
G1 Z0.800
G1 E1.40000 F2100.00000
G1 F2700
G1 X139.599 Y119.425 E0.04033
G1 X139.205 Y119.778 E0.02348
G1 X138.743 Y120.044 E0.02365
G1 X138.240 Y120.208 E0.02348
G1 X137.714 Y120.266 E0.02348
G1 X112.237 Y120.265 E1.13002
G1 X111.346 Y120.082 E0.04033
